P3
72 700
255
0 0 0
0 0 0
0 0 0
0 0 0
0 0 0
0 0 0
0 0 0
0 0 0
0 0 0
0 0 0
0 0 0
0 0 0
0 0 0
0 0 0
255 0 0
255 0 0
255 0 0
255 0 0
255 0 0
255 0 0
255 0 0
255 0 0
255 0 0
255 0 0
255 0 0
255 0 0
255 0 0
255 0 0
255 0 0
255 0 0
255 0 0
255 0 0
255 0 0
255 0 0
255 0 0
255 0 0
255 0 0
255 0 0
255 0 0
255 0 0
255 0 0
255 0 0
255 0 0
255 0 0
255 0 0
255 0 0
255 0 0
255 0 0
255 0 0
255 0 0
255 0 0
255 0 0
255 0 0
255 0 0
255 0 0
255 0 0
255 0 0
255 0 0
255 0 0
255 0 0
255 0 0
255 0 0
255 0 0
255 0 0
255 0 0
255 0 0
255 0 0
255 0 0
255 0 0
255 0 0
255 0 0
255 0 0
0 0 0
0 0 0
0 0 0
0 0 0
0 0 0
0 0 0
0 0 0
0 0 0
0 0 0
0 0 0
0 0 0
0 0 0
0 0 0
0 0 0
255 1 1
255 1 1
255 1 1
255 1 1
255 1 1
255 1 1
255 1 1
255 1 1
255 1 1
255 1 1
255 1 1
255 1 1
255 1 1
255 1 1
255 1 1
255 1 1
255 1 1
255 1 1
255 1 1
255 1 1
255 1 1
255 1 1
255 1 1
255 1 1
255 1 1
255 1 1
255 1 1
255 1 1
255 1 1
255 1 1
255 1 1
255 1 1
255 1 1
255 1 1
255 1 1
255 1 1
255 1 1
255 1 1
255 1 1
255 1 1
255 1 1
255 1 1
255 1 1
255 1 1
255 1 1
255 1 1
255 1 1
255 1 1
255 1 1
255 1 1
255 1 1
255 1 1
255 1 1
255 1 1
255 1 1
255 1 1
255 1 1
255 1 1
255 2 1
255 2 1
255 2 1
255 2 1
255 2 1
255 2 1
255 2 1
255 2 1
255 2 1
255 2 1
255 2 1
255 2 1
255 2 1
255 2 1
255 2 1
255 2 1
255 2 1
255 2 1
255 2 1
255 2 1
255 2 1
255 2 1
255 2 1
255 2 1
255 2 1
255 2 1
255 2 1
255 2 1
255 2 1
255 2 1
255 2 1
255 2 1
255 2 1
255 2 1
255 2 1
255 2 1
255 2 1
255 2 1
255 2 1
255 2 1
255 2 1
255 2 1
255 2 1
255 2 1
255 2 1
255 2 1
255 2 1
255 2 1
255 2 1
255 2 1
255 2 1
255 2 1
255 2 1
255 2 1
255 2 1
255 2 1
255 2 1
255 2 1
255 2 1
255 2 1
255 2 1
255 2 1
255 2 1
255 2 1
255 2 1
255 2 1
255 2 1
255 2 1
255 2 1
255 2 1
255 2 1
255 2 1
255 3 2
255 3 2
255 3 2
255 3 2
255 3 2
255 3 2
255 3 2
255 3 2
255 3 2
255 3 2
255 3 2
255 3 2
255 3 2
255 3 2
255 3 2
255 3 2
255 3 2
255 3 2
255 3 2
255 3 2
255 3 2
255 3 2
255 3 2
255 3 2
255 3 2
255 3 2
255 3 2
255 3 2
255 3 2
255 3 2
255 3 2
255 3 2
255 3 2
255 3 2
255 3 2
255 3 2
255 3 2
255 3 2
255 3 2
255 3 2
255 3 2
255 3 2
255 3 2
255 3 2
255 3 2
255 3 2
255 3 2
255 3 2
255 3 2
255 3 2
255 3 2
255 3 2
255 3 2
255 3 2
255 3 2
255 3 2
255 3 2
255 3 2
255 3 2
255 3 2
255 3 2
255 3 2
255 3 2
255 3 2
255 3 2
255 3 2
255 3 2
255 3 2
255 3 2
255 3 2
255 3 2
255 3 2
255 4 2
255 4 2
255 4 2
255 4 2
255 4 2
255 4 2
255 4 2
255 4 2
255 4 2
255 4 2
255 4 2
255 4 2
255 4 2
255 4 2
255 4 2
255 4 2
255 4 2
255 4 2
255 4 2
255 4 2
255 4 2
255 4 2
255 4 2
255 4 2
255 4 2
255 4 2
255 4 2
255 4 2
255 4 2
255 4 2
255 4 2
255 4 2
255 4 2
255 4 2
255 4 2
255 4 2
255 4 2
255 4 2
255 4 2
255 4 2
255 4 2
255 4 2
255 4 2
255 4 2
255 4 2
255 4 2
255 4 2
255 4 2
255 4 2
255 4 2
255 4 2
255 4 2
255 4 2
255 4 2
255 4 2
255 4 2
255 4 2
255 4 2
255 4 2
255 4 2
255 4 2
255 4 2
255 4 2
255 4 2
255 4 2
255 4 2
255 4 2
255 4 2
255 4 2
255 4 2
255 4 2
255 4 2
255 5 3
255 5 3
255 5 3
255 5 3
255 5 3
255 5 3
255 5 3
255 5 3
255 5 3
255 5 3
255 5 3
255 5 3
255 5 3
255 5 3
255 5 3
255 5 3
255 5 3
255 5 3
255 5 3
255 5 3
255 5 3
255 5 3
255 5 3
255 5 3
255 5 3
255 5 3
255 5 3
255 5 3
255 5 3
255 5 3
255 5 3
255 5 3
255 5 3
255 5 3
255 5 3
255 5 3
255 5 3
255 5 3
255 5 3
255 5 3
255 5 3
255 5 3
255 5 3
255 5 3
255 5 3
255 5 3
255 5 3
255 5 3
255 5 3
255 5 3
255 5 3
255 5 3
255 5 3
255 5 3
255 5 3
255 5 3
255 5 3
255 5 3
255 5 3
255 5 3
255 5 3
255 5 3
255 5 3
255 5 3
255 5 3
255 5 3
255 5 3
255 5 3
255 5 3
255 5 3
255 5 3
255 5 3
255 7 3
255 7 3
255 7 3
255 7 3
255 7 3
255 7 3
255 7 3
255 7 3
255 7 3
255 7 3
255 7 3
255 7 3
255 7 3
255 7 3
255 7 3
255 7 3
255 7 3
255 7 3
255 7 3
255 7 3
255 7 3
255 7 3
255 7 3
255 7 3
255 7 3
255 7 3
255 7 3
255 7 3
255 7 3
255 7 3
255 7 3
255 7 3
255 7 3
255 7 3
255 7 3
255 7 3
255 7 3
255 7 3
255 7 3
255 7 3
255 7 3
255 7 3
255 7 3
255 7 3
255 7 3
255 7 3
255 7 3
255 7 3
255 7 3
255 7 3
255 7 3
255 7 3
255 7 3
255 7 3
255 7 3
255 7 3
255 7 3
255 7 3
255 7 3
255 7 3
255 7 3
255 7 3
255 7 3
255 7 3
255 7 3
255 7 3
255 7 3
255 7 3
255 7 3
255 7 3
255 7 3
255 7 3
255 8 4
255 8 4
255 8 4
255 8 4
255 8 4
255 8 4
255 8 4
255 8 4
255 8 4
255 8 4
255 8 4
255 8 4
255 8 4
255 8 4
255 8 4
255 8 4
255 8 4
255 8 4
255 8 4
255 8 4
255 8 4
255 8 4
255 8 4
255 8 4
255 8 4
255 8 4
255 8 4
255 8 4
255 8 4
255 8 4
255 8 4
255 8 4
255 8 4
255 8 4
255 8 4
255 8 4
255 8 4
255 8 4
255 8 4
255 8 4
255 8 4
255 8 4
255 8 4
255 8 4
255 8 4
255 8 4
255 8 4
255 8 4
255 8 4
255 8 4
255 8 4
255 8 4
255 8 4
255 8 4
255 8 4
255 8 4
255 8 4
255 8 4
255 8 4
255 8 4
255 8 4
255 8 4
255 8 4
255 8 4
255 8 4
255 8 4
255 8 4
255 8 4
255 8 4
255 8 4
255 8 4
255 8 4
255 9 4
255 9 4
255 9 4
255 9 4
255 9 4
255 9 4
255 9 4
255 9 4
255 9 4
255 9 4
255 9 4
255 9 4
255 9 4
255 9 4
255 9 4
255 9 4
255 9 4
255 9 4
255 9 4
255 9 4
255 9 4
255 9 4
255 9 4
255 9 4
255 9 4
255 9 4
255 9 4
255 9 4
255 9 4
255 9 4
255 9 4
255 9 4
255 9 4
255 9 4
255 9 4
255 9 4
255 9 4
255 9 4
255 9 4
255 9 4
255 9 4
255 9 4
255 9 4
255 9 4
255 9 4
255 9 4
255 9 4
255 9 4
255 9 4
255 9 4
255 9 4
255 9 4
255 9 4
255 9 4
255 9 4
255 9 4
255 9 4
255 9 4
255 9 4
255 9 4
255 9 4
255 9 4
255 9 4
255 9 4
255 9 4
255 9 4
255 9 4
255 9 4
255 9 4
255 9 4
255 9 4
255 9 4
255 10 5
255 10 5
255 10 5
255 10 5
255 10 5
255 10 5
255 10 5
255 10 5
255 10 5
255 10 5
255 10 5
255 10 5
255 10 5
255 10 5
255 10 5
255 10 5
255 10 5
255 10 5
255 10 5
255 10 5
255 10 5
255 10 5
255 10 5
255 10 5
255 10 5
255 10 5
255 10 5
255 10 5
255 10 5
255 10 5
255 10 5
255 10 5
255 10 5
255 10 5
255 10 5
255 10 5
255 10 5
255 10 5
255 10 5
255 10 5
255 10 5
255 10 5
255 10 5
255 10 5
255 10 5
255 10 5
255 10 5
255 10 5
255 10 5
255 10 5
255 10 5
255 10 5
255 10 5
255 10 5
255 10 5
255 10 5
255 10 5
255 10 5
255 10 5
255 10 5
255 10 5
255 10 5
255 10 5
255 10 5
255 10 5
255 10 5
255 10 5
255 10 5
255 10 5
255 10 5
255 10 5
255 10 5
255 11 5
255 11 5
255 11 5
255 11 5
255 11 5
255 11 5
255 11 5
255 11 5
255 11 5
255 11 5
255 11 5
255 11 5
255 11 5
255 11 5
255 11 5
255 11 5
255 11 5
255 11 5
255 11 5
255 11 5
255 11 5
255 11 5
255 11 5
255 11 5
255 11 5
255 11 5
255 11 5
255 11 5
255 11 5
255 11 5
255 11 5
255 11 5
255 11 5
255 11 5
255 11 5
255 11 5
255 11 5
255 11 5
255 11 5
255 11 5
255 11 5
255 11 5
255 11 5
255 11 5
255 11 5
255 11 5
255 11 5
255 11 5
255 11 5
255 11 5
255 11 5
255 11 5
255 11 5
255 11 5
255 11 5
255 11 5
255 11 5
255 11 5
255 11 5
255 11 5
255 11 5
255 11 5
255 11 5
255 11 5
255 11 5
255 11 5
255 11 5
255 11 5
255 11 5
255 11 5
255 11 5
255 11 5
255 12 6
255 12 6
255 12 6
255 12 6
255 12 6
255 12 6
255 12 6
255 12 6
255 12 6
255 12 6
255 12 6
255 12 6
255 12 6
255 12 6
255 12 6
255 12 6
255 12 6
255 12 6
255 12 6
255 12 6
255 12 6
255 12 6
255 12 6
255 12 6
255 12 6
255 12 6
255 12 6
255 12 6
255 12 6
255 12 6
255 12 6
255 12 6
255 12 6
255 12 6
255 12 6
255 12 6
255 12 6
255 12 6
255 12 6
255 12 6
255 12 6
255 12 6
255 12 6
255 12 6
255 12 6
255 12 6
255 12 6
255 12 6
255 12 6
255 12 6
255 12 6
255 12 6
255 12 6
255 12 6
255 12 6
255 12 6
255 12 6
255 12 6
255 12 6
255 12 6
255 12 6
255 12 6
255 12 6
255 12 6
255 12 6
255 12 6
255 12 6
255 12 6
255 12 6
255 12 6
255 12 6
255 12 6
255 13 7
255 13 7
255 13 7
255 13 7
255 13 7
255 13 7
255 13 7
255 13 7
255 13 7
255 13 7
255 13 7
255 13 7
255 13 7
255 13 7
255 13 7
255 13 7
255 13 7
255 13 7
255 13 7
255 13 7
255 13 7
255 13 7
255 13 7
255 13 7
255 13 7
255 13 7
255 13 7
255 13 7
255 13 7
255 13 7
255 13 7
255 13 7
255 13 7
255 13 7
255 13 7
255 13 7
255 13 7
255 13 7
255 13 7
255 13 7
255 13 7
255 13 7
255 13 7
255 13 7
255 13 7
255 13 7
255 13 7
255 13 7
255 13 7
255 13 7
255 13 7
255 13 7
255 13 7
255 13 7
255 13 7
255 13 7
255 13 7
255 13 7
255 13 7
255 13 7
255 13 7
255 13 7
255 13 7
255 13 7
255 13 7
255 13 7
255 13 7
255 13 7
255 13 7
255 13 7
255 13 7
255 13 7
255 14 7
255 14 7
255 14 7
255 14 7
255 14 7
255 14 7
255 14 7
255 14 7
255 14 7
255 14 7
255 14 7
255 14 7
255 14 7
255 14 7
255 14 7
255 14 7
255 14 7
255 14 7
255 14 7
255 14 7
255 14 7
255 14 7
255 14 7
255 14 7
255 14 7
255 14 7
255 14 7
255 14 7
255 14 7
255 14 7
255 14 7
255 14 7
255 14 7
255 14 7
255 14 7
255 14 7
255 14 7
255 14 7
255 14 7
255 14 7
255 14 7
255 14 7
255 14 7
255 14 7
255 14 7
255 14 7
255 14 7
255 14 7
255 14 7
255 14 7
255 14 7
255 14 7
255 14 7
255 14 7
255 14 7
255 14 7
255 14 7
255 14 7
255 14 7
255 14 7
255 14 7
255 14 7
255 14 7
255 14 7
255 14 7
255 14 7
255 14 7
255 14 7
255 14 7
255 14 7
255 14 7
255 14 7
255 15 8
255 15 8
255 15 8
255 15 8
255 15 8
255 15 8
255 15 8
255 15 8
255 15 8
255 15 8
255 15 8
255 15 8
255 15 8
255 15 8
255 15 8
255 15 8
255 15 8
255 15 8
255 15 8
255 15 8
255 15 8
255 15 8
255 15 8
255 15 8
255 15 8
255 15 8
255 15 8
255 15 8
255 15 8
255 15 8
255 15 8
255 15 8
255 15 8
255 15 8
255 15 8
255 15 8
255 15 8
255 15 8
255 15 8
255 15 8
255 15 8
255 15 8
255 15 8
255 15 8
255 15 8
255 15 8
255 15 8
255 15 8
255 15 8
255 15 8
255 15 8
255 15 8
255 15 8
255 15 8
255 15 8
255 15 8
255 15 8
255 15 8
255 15 8
255 15 8
255 15 8
255 15 8
255 15 8
255 15 8
255 15 8
255 15 8
255 15 8
255 15 8
255 15 8
255 15 8
255 15 8
255 15 8
255 16 8
255 16 8
255 16 8
255 16 8
255 16 8
255 16 8
255 16 8
255 16 8
255 16 8
255 16 8
255 16 8
255 16 8
255 16 8
255 16 8
255 16 8
255 16 8
255 16 8
255 16 8
255 16 8
255 16 8
255 16 8
255 16 8
255 16 8
255 16 8
255 16 8
255 16 8
255 16 8
255 16 8
255 16 8
255 16 8
255 16 8
255 16 8
255 16 8
255 16 8
255 16 8
255 16 8
255 16 8
255 16 8
255 16 8
255 16 8
255 16 8
255 16 8
255 16 8
255 16 8
255 16 8
255 16 8
255 16 8
255 16 8
255 16 8
255 16 8
255 16 8
255 16 8
255 16 8
255 16 8
255 16 8
255 16 8
255 16 8
255 16 8
255 16 8
255 16 8
255 16 8
255 16 8
255 16 8
255 16 8
255 16 8
255 16 8
255 16 8
255 16 8
255 16 8
255 16 8
255 16 8
255 16 8
255 18 9
255 18 9
255 18 9
255 18 9
255 18 9
255 18 9
255 18 9
255 18 9
255 18 9
255 18 9
255 18 9
255 18 9
255 18 9
255 18 9
255 18 9
255 18 9
255 18 9
255 18 9
255 18 9
255 18 9
255 18 9
255 18 9
255 18 9
255 18 9
255 18 9
255 18 9
255 18 9
255 18 9
255 18 9
255 18 9
255 18 9
255 18 9
255 18 9
255 18 9
255 18 9
255 18 9
255 18 9
255 18 9
255 18 9
255 18 9
255 18 9
255 18 9
255 18 9
255 18 9
255 18 9
255 18 9
255 18 9
255 18 9
255 18 9
255 18 9
255 18 9
255 18 9
255 18 9
255 18 9
255 18 9
255 18 9
255 18 9
255 18 9
255 18 9
255 18 9
255 18 9
255 18 9
255 18 9
255 18 9
255 18 9
255 18 9
255 18 9
255 18 9
255 18 9
255 18 9
255 18 9
255 18 9
255 19 9
255 19 9
255 19 9
255 19 9
255 19 9
255 19 9
255 19 9
255 19 9
255 19 9
255 19 9
255 19 9
255 19 9
255 19 9
255 19 9
255 19 9
255 19 9
255 19 9
255 19 9
255 19 9
255 19 9
255 19 9
255 19 9
255 19 9
255 19 9
255 19 9
255 19 9
255 19 9
255 19 9
255 19 9
255 19 9
255 19 9
255 19 9
255 19 9
255 19 9
255 19 9
255 19 9
255 19 9
255 19 9
255 19 9
255 19 9
255 19 9
255 19 9
255 19 9
255 19 9
255 19 9
255 19 9
255 19 9
255 19 9
255 19 9
255 19 9
255 19 9
255 19 9
255 19 9
255 19 9
255 19 9
255 19 9
255 19 9
255 19 9
255 19 9
255 19 9
255 19 9
255 19 9
255 19 9
255 19 9
255 19 9
255 19 9
255 19 9
255 19 9
255 19 9
255 19 9
255 19 9
255 19 9
255 20 10
255 20 10
255 20 10
255 20 10
255 20 10
255 20 10
255 20 10
255 20 10
255 20 10
255 20 10
255 20 10
255 20 10
255 20 10
255 20 10
255 20 10
255 20 10
255 20 10
255 20 10
255 20 10
255 20 10
255 20 10
255 20 10
255 20 10
255 20 10
255 20 10
255 20 10
255 20 10
255 20 10
255 20 10
255 20 10
255 20 10
255 20 10
255 20 10
255 20 10
255 20 10
255 20 10
255 20 10
255 20 10
255 20 10
255 20 10
255 20 10
255 20 10
255 20 10
255 20 10
255 20 10
255 20 10
255 20 10
255 20 10
255 20 10
255 20 10
255 20 10
255 20 10
255 20 10
255 20 10
255 20 10
255 20 10
255 20 10
255 20 10
255 20 10
255 20 10
255 20 10
255 20 10
255 20 10
255 20 10
255 20 10
255 20 10
255 20 10
255 20 10
255 20 10
255 20 10
255 20 10
255 20 10
255 21 10
255 21 10
255 21 10
255 21 10
255 21 10
255 21 10
255 21 10
255 21 10
255 21 10
255 21 10
255 21 10
255 21 10
255 21 10
255 21 10
255 21 10
255 21 10
255 21 10
255 21 10
255 21 10
255 21 10
255 21 10
255 21 10
255 21 10
255 21 10
255 21 10
255 21 10
255 21 10
255 21 10
255 21 10
255 21 10
255 21 10
255 21 10
255 21 10
255 21 10
255 21 10
255 21 10
255 21 10
255 21 10
255 21 10
255 21 10
255 21 10
255 21 10
255 21 10
255 21 10
255 21 10
255 21 10
255 21 10
255 21 10
255 21 10
255 21 10
255 21 10
255 21 10
255 21 10
255 21 10
255 21 10
255 21 10
255 21 10
255 21 10
255 21 10
255 21 10
255 21 10
255 21 10
255 21 10
255 21 10
255 21 10
255 21 10
255 21 10
255 21 10
255 21 10
255 21 10
255 21 10
255 21 10
255 22 11
255 22 11
255 22 11
255 22 11
255 22 11
255 22 11
255 22 11
255 22 11
255 22 11
255 22 11
255 22 11
255 22 11
255 22 11
255 22 11
255 22 11
255 22 11
255 22 11
255 22 11
255 22 11
255 22 11
255 22 11
255 22 11
255 22 11
255 22 11
255 22 11
255 22 11
255 22 11
255 22 11
255 22 11
255 22 11
255 22 11
255 22 11
255 22 11
255 22 11
255 22 11
255 22 11
255 22 11
255 22 11
255 22 11
255 22 11
255 22 11
255 22 11
255 22 11
255 22 11
255 22 11
255 22 11
255 22 11
255 22 11
255 22 11
255 22 11
255 22 11
255 22 11
255 22 11
255 22 11
255 22 11
255 22 11
255 22 11
255 22 11
255 22 11
255 22 11
255 22 11
255 22 11
255 22 11
255 22 11
255 22 11
255 22 11
255 22 11
255 22 11
255 22 11
255 22 11
255 22 11
255 22 11
255 23 11
255 23 11
255 23 11
255 23 11
255 23 11
255 23 11
255 23 11
255 23 11
255 23 11
255 23 11
255 23 11
255 23 11
255 23 11
255 23 11
255 23 11
255 23 11
255 23 11
255 23 11
255 23 11
255 23 11
255 23 11
255 23 11
255 23 11
255 23 11
255 23 11
255 23 11
255 23 11
255 23 11
255 23 11
255 23 11
255 23 11
255 23 11
255 23 11
255 23 11
255 23 11
255 23 11
255 23 11
255 23 11
255 23 11
255 23 11
255 23 11
255 23 11
255 23 11
255 23 11
255 23 11
255 23 11
255 23 11
255 23 11
255 23 11
255 23 11
255 23 11
255 23 11
255 23 11
255 23 11
255 23 11
255 23 11
255 23 11
255 23 11
255 23 11
255 23 11
255 23 11
255 23 11
255 23 11
255 23 11
255 23 11
255 23 11
255 23 11
255 23 11
255 23 11
255 23 11
255 23 11
255 23 11
255 24 12
255 24 12
255 24 12
255 24 12
255 24 12
255 24 12
255 24 12
255 24 12
255 24 12
255 24 12
255 24 12
255 24 12
255 24 12
255 24 12
255 24 12
255 24 12
255 24 12
255 24 12
255 24 12
255 24 12
255 24 12
255 24 12
255 24 12
255 24 12
255 24 12
255 24 12
255 24 12
255 24 12
255 24 12
255 24 12
255 24 12
255 24 12
255 24 12
255 24 12
255 24 12
255 24 12
255 24 12
255 24 12
255 24 12
255 24 12
255 24 12
255 24 12
255 24 12
255 24 12
255 24 12
255 24 12
255 24 12
255 24 12
255 24 12
255 24 12
255 24 12
255 24 12
255 24 12
255 24 12
255 24 12
255 24 12
255 24 12
255 24 12
255 24 12
255 24 12
255 24 12
255 24 12
255 24 12
255 24 12
255 24 12
255 24 12
255 24 12
255 24 12
255 24 12
255 24 12
255 24 12
255 24 12
255 25 13
255 25 13
255 25 13
255 25 13
255 25 13
255 25 13
255 25 13
255 25 13
255 25 13
255 25 13
255 25 13
255 25 13
255 25 13
255 25 13
255 25 13
255 25 13
255 25 13
255 25 13
255 25 13
255 25 13
255 25 13
255 25 13
255 25 13
255 25 13
255 25 13
255 25 13
255 25 13
255 25 13
255 25 13
255 25 13
255 25 13
255 25 13
255 25 13
255 25 13
255 25 13
255 25 13
255 25 13
255 25 13
255 25 13
255 25 13
255 25 13
255 25 13
255 25 13
255 25 13
255 25 13
255 25 13
255 25 13
255 25 13
255 25 13
255 25 13
255 25 13
255 25 13
255 25 13
255 25 13
255 25 13
255 25 13
255 25 13
255 25 13
255 25 13
255 25 13
255 25 13
255 25 13
255 25 13
255 25 13
255 25 13
255 25 13
255 25 13
255 25 13
255 25 13
255 25 13
255 25 13
255 25 13
255 26 13
255 26 13
255 26 13
255 26 13
255 26 13
255 26 13
255 26 13
255 26 13
255 26 13
255 26 13
255 26 13
255 26 13
255 26 13
255 26 13
255 26 13
255 26 13
255 26 13
255 26 13
255 26 13
255 26 13
255 26 13
255 26 13
255 26 13
255 26 13
255 26 13
255 26 13
255 26 13
255 26 13
255 26 13
255 26 13
255 26 13
255 26 13
255 26 13
255 26 13
255 26 13
255 26 13
255 26 13
255 26 13
255 26 13
255 26 13
255 26 13
255 26 13
255 26 13
255 26 13
255 26 13
255 26 13
255 26 13
255 26 13
255 26 13
255 26 13
255 26 13
255 26 13
255 26 13
255 26 13
255 26 13
255 26 13
255 26 13
255 26 13
255 26 13
255 26 13
255 26 13
255 26 13
255 26 13
255 26 13
255 26 13
255 26 13
255 26 13
255 26 13
255 26 13
255 26 13
255 26 13
255 26 13
255 27 14
255 27 14
255 27 14
255 27 14
255 27 14
255 27 14
255 27 14
255 27 14
255 27 14
255 27 14
255 27 14
255 27 14
255 27 14
255 27 14
255 27 14
255 27 14
255 27 14
255 27 14
255 27 14
255 27 14
255 27 14
255 27 14
255 27 14
255 27 14
255 27 14
255 27 14
255 27 14
255 27 14
255 27 14
255 27 14
255 27 14
255 27 14
255 27 14
255 27 14
255 27 14
255 27 14
255 27 14
255 27 14
255 27 14
255 27 14
255 27 14
255 27 14
255 27 14
255 27 14
255 27 14
255 27 14
255 27 14
255 27 14
255 27 14
255 27 14
255 27 14
255 27 14
255 27 14
255 27 14
255 27 14
255 27 14
255 27 14
255 27 14
255 27 14
255 27 14
255 27 14
255 27 14
255 27 14
255 27 14
255 27 14
255 27 14
255 27 14
255 27 14
255 27 14
255 27 14
255 27 14
255 27 14
255 28 14
255 28 14
255 28 14
255 28 14
255 28 14
255 28 14
255 28 14
255 28 14
255 28 14
255 28 14
255 28 14
255 28 14
255 28 14
255 28 14
255 28 14
255 28 14
255 28 14
255 28 14
255 28 14
255 28 14
255 28 14
255 28 14
255 28 14
255 28 14
255 28 14
255 28 14
255 28 14
255 28 14
255 28 14
255 28 14
255 28 14
255 28 14
255 28 14
255 28 14
255 28 14
255 28 14
255 28 14
255 28 14
255 28 14
255 28 14
255 28 14
255 28 14
255 28 14
255 28 14
255 28 14
255 28 14
255 28 14
255 28 14
255 28 14
255 28 14
255 28 14
255 28 14
255 28 14
255 28 14
255 28 14
255 28 14
255 28 14
255 28 14
255 28 14
255 28 14
255 28 14
255 28 14
255 28 14
255 28 14
255 28 14
255 28 14
255 28 14
255 28 14
255 28 14
255 28 14
255 28 14
255 28 14
255 30 15
255 30 15
255 30 15
255 30 15
255 30 15
255 30 15
255 30 15
255 30 15
255 30 15
255 30 15
255 30 15
255 30 15
255 30 15
255 30 15
255 30 15
255 30 15
255 30 15
255 30 15
255 30 15
255 30 15
255 30 15
255 30 15
255 30 15
255 30 15
255 30 15
255 30 15
255 30 15
255 30 15
255 30 15
255 30 15
255 30 15
255 30 15
255 30 15
255 30 15
255 30 15
255 30 15
255 30 15
255 30 15
255 30 15
255 30 15
255 30 15
255 30 15
255 30 15
255 30 15
255 30 15
255 30 15
255 30 15
255 30 15
255 30 15
255 30 15
255 30 15
255 30 15
255 30 15
255 30 15
255 30 15
255 30 15
255 30 15
255 30 15
255 30 15
255 30 15
255 30 15
255 30 15
255 30 15
255 30 15
255 30 15
255 30 15
255 30 15
255 30 15
255 30 15
255 30 15
255 30 15
255 30 15
255 31 15
255 31 15
255 31 15
255 31 15
255 31 15
255 31 15
255 31 15
255 31 15
255 31 15
255 31 15
255 31 15
255 31 15
255 31 15
255 31 15
255 31 15
255 31 15
255 31 15
255 31 15
255 31 15
255 31 15
255 31 15
255 31 15
255 31 15
255 31 15
255 31 15
255 31 15
255 31 15
255 31 15
255 31 15
255 31 15
255 31 15
255 31 15
255 31 15
255 31 15
255 31 15
255 31 15
255 31 15
255 31 15
255 31 15
255 31 15
255 31 15
255 31 15
255 31 15
255 31 15
255 31 15
255 31 15
255 31 15
255 31 15
255 31 15
255 31 15
255 31 15
255 31 15
255 31 15
255 31 15
255 31 15
255 31 15
255 31 15
255 31 15
255 31 15
255 31 15
255 31 15
255 31 15
255 31 15
255 31 15
255 31 15
255 31 15
255 31 15
255 31 15
255 31 15
255 31 15
255 31 15
255 31 15
255 32 16
255 32 16
255 32 16
255 32 16
255 32 16
255 32 16
255 32 16
255 32 16
255 32 16
255 32 16
255 32 16
255 32 16
255 32 16
255 32 16
255 32 16
255 32 16
255 32 16
255 32 16
255 32 16
255 32 16
255 32 16
255 32 16
255 32 16
255 32 16
255 32 16
255 32 16
255 32 16
255 32 16
255 32 16
255 32 16
255 32 16
255 32 16
255 32 16
255 32 16
255 32 16
255 32 16
255 32 16
255 32 16
255 32 16
255 32 16
255 32 16
255 32 16
255 32 16
255 32 16
255 32 16
255 32 16
255 32 16
255 32 16
255 32 16
255 32 16
255 32 16
255 32 16
255 32 16
255 32 16
255 32 16
255 32 16
255 32 16
255 32 16
255 32 16
255 32 16
255 32 16
255 32 16
255 32 16
255 32 16
255 32 16
255 32 16
255 32 16
255 32 16
255 32 16
255 32 16
255 32 16
255 32 16
255 33 16
255 33 16
255 33 16
255 33 16
255 33 16
255 33 16
255 33 16
255 33 16
255 33 16
255 33 16
255 33 16
255 33 16
255 33 16
255 33 16
255 33 16
255 33 16
255 33 16
255 33 16
255 33 16
255 33 16
255 33 16
255 33 16
255 33 16
255 33 16
255 33 16
255 33 16
255 33 16
255 33 16
255 33 16
255 33 16
255 33 16
255 33 16
255 33 16
255 33 16
255 33 16
255 33 16
255 33 16
255 33 16
255 33 16
255 33 16
255 33 16
255 33 16
255 33 16
255 33 16
255 33 16
255 33 16
255 33 16
255 33 16
255 33 16
255 33 16
255 33 16
255 33 16
255 33 16
255 33 16
255 33 16
255 33 16
255 33 16
255 33 16
255 33 16
255 33 16
255 33 16
255 33 16
255 33 16
255 33 16
255 33 16
255 33 16
255 33 16
255 33 16
255 33 16
255 33 16
255 33 16
255 33 16
255 34 17
255 34 17
255 34 17
255 34 17
255 34 17
255 34 17
255 34 17
255 34 17
255 34 17
255 34 17
255 34 17
255 34 17
255 34 17
255 34 17
255 34 17
255 34 17
255 34 17
255 34 17
255 34 17
255 34 17
255 34 17
255 34 17
255 34 17
255 34 17
255 34 17
255 34 17
255 34 17
255 34 17
255 34 17
255 34 17
255 34 17
255 34 17
255 34 17
255 34 17
255 34 17
255 34 17
255 34 17
255 34 17
255 34 17
255 34 17
255 34 17
255 34 17
255 34 17
255 34 17
255 34 17
255 34 17
255 34 17
255 34 17
255 34 17
255 34 17
255 34 17
255 34 17
255 34 17
255 34 17
255 34 17
255 34 17
255 34 17
255 34 17
255 34 17
255 34 17
255 34 17
255 34 17
255 34 17
255 34 17
255 34 17
255 34 17
255 34 17
255 34 17
255 34 17
255 34 17
255 34 17
255 34 17
255 35 18
255 35 18
255 35 18
255 35 18
255 35 18
255 35 18
255 35 18
255 35 18
255 35 18
255 35 18
255 35 18
255 35 18
255 35 18
255 35 18
255 35 18
255 35 18
255 35 18
255 35 18
255 35 18
255 35 18
255 35 18
255 35 18
255 35 18
255 35 18
255 35 18
255 35 18
255 35 18
255 35 18
255 35 18
255 35 18
255 35 18
255 35 18
255 35 18
255 35 18
255 35 18
255 35 18
255 35 18
255 35 18
255 35 18
255 35 18
255 35 18
255 35 18
255 35 18
255 35 18
255 35 18
255 35 18
255 35 18
255 35 18
255 35 18
255 35 18
255 35 18
255 35 18
255 35 18
255 35 18
255 35 18
255 35 18
255 35 18
255 35 18
255 35 18
255 35 18
255 35 18
255 35 18
255 35 18
255 35 18
255 35 18
255 35 18
255 35 18
255 35 18
255 35 18
255 35 18
255 35 18
255 35 18
255 36 18
255 36 18
255 36 18
255 36 18
255 36 18
255 36 18
255 36 18
255 36 18
255 36 18
255 36 18
255 36 18
255 36 18
255 36 18
255 36 18
255 36 18
255 36 18
255 36 18
255 36 18
255 36 18
255 36 18
255 36 18
255 36 18
255 36 18
255 36 18
255 36 18
255 36 18
255 36 18
255 36 18
255 36 18
255 36 18
255 36 18
255 36 18
255 36 18
255 36 18
255 36 18
255 36 18
255 36 18
255 36 18
255 36 18
255 36 18
255 36 18
255 36 18
255 36 18
255 36 18
255 36 18
255 36 18
255 36 18
255 36 18
255 36 18
255 36 18
255 36 18
255 36 18
255 36 18
255 36 18
255 36 18
255 36 18
255 36 18
255 36 18
255 36 18
255 36 18
255 36 18
255 36 18
255 36 18
255 36 18
255 36 18
255 36 18
255 36 18
255 36 18
255 36 18
255 36 18
255 36 18
255 36 18
255 37 19
255 37 19
255 37 19
255 37 19
255 37 19
255 37 19
255 37 19
255 37 19
255 37 19
255 37 19
255 37 19
255 37 19
255 37 19
255 37 19
255 37 19
255 37 19
255 37 19
255 37 19
255 37 19
255 37 19
255 37 19
255 37 19
255 37 19
255 37 19
255 37 19
255 37 19
255 37 19
255 37 19
255 37 19
255 37 19
255 37 19
255 37 19
255 37 19
255 37 19
255 37 19
255 37 19
255 37 19
255 37 19
255 37 19
255 37 19
255 37 19
255 37 19
255 37 19
255 37 19
255 37 19
255 37 19
255 37 19
255 37 19
255 37 19
255 37 19
255 37 19
255 37 19
255 37 19
255 37 19
255 37 19
255 37 19
255 37 19
255 37 19
255 37 19
255 37 19
255 37 19
255 37 19
255 37 19
255 37 19
255 37 19
255 37 19
255 37 19
255 37 19
255 37 19
255 37 19
255 37 19
255 37 19
255 38 19
255 38 19
255 38 19
255 38 19
255 38 19
255 38 19
255 38 19
255 38 19
255 38 19
255 38 19
255 38 19
255 38 19
255 38 19
255 38 19
255 38 19
255 38 19
255 38 19
255 38 19
255 38 19
255 38 19
255 38 19
255 38 19
255 38 19
255 38 19
255 38 19
255 38 19
255 38 19
255 38 19
255 38 19
255 38 19
255 38 19
255 38 19
255 38 19
255 38 19
255 38 19
255 38 19
255 38 19
255 38 19
255 38 19
255 38 19
255 38 19
255 38 19
255 38 19
255 38 19
255 38 19
255 38 19
255 38 19
255 38 19
255 38 19
255 38 19
255 38 19
255 38 19
255 38 19
255 38 19
255 38 19
255 38 19
255 38 19
255 38 19
255 38 19
255 38 19
255 38 19
255 38 19
255 38 19
255 38 19
255 38 19
255 38 19
255 38 19
255 38 19
255 38 19
255 38 19
255 38 19
255 38 19
255 39 20
255 39 20
255 39 20
255 39 20
255 39 20
255 39 20
255 39 20
255 39 20
255 39 20
255 39 20
255 39 20
255 39 20
255 39 20
255 39 20
255 39 20
255 39 20
255 39 20
255 39 20
255 39 20
255 39 20
255 39 20
255 39 20
255 39 20
255 39 20
255 39 20
255 39 20
255 39 20
255 39 20
255 39 20
255 39 20
255 39 20
255 39 20
255 39 20
255 39 20
255 39 20
255 39 20
255 39 20
255 39 20
255 39 20
255 39 20
255 39 20
255 39 20
255 39 20
255 39 20
255 39 20
255 39 20
255 39 20
255 39 20
255 39 20
255 39 20
255 39 20
255 39 20
255 39 20
255 39 20
255 39 20
255 39 20
255 39 20
255 39 20
255 39 20
255 39 20
255 39 20
255 39 20
255 39 20
255 39 20
255 39 20
255 39 20
255 39 20
255 39 20
255 39 20
255 39 20
255 39 20
255 39 20
255 40 20
255 40 20
255 40 20
255 40 20
255 40 20
255 40 20
255 40 20
255 40 20
255 40 20
255 40 20
255 40 20
255 40 20
255 40 20
255 40 20
255 40 20
255 40 20
255 40 20
255 40 20
255 40 20
255 40 20
255 40 20
255 40 20
255 40 20
255 40 20
255 40 20
255 40 20
255 40 20
255 40 20
255 40 20
255 40 20
255 40 20
255 40 20
255 40 20
255 40 20
255 40 20
255 40 20
255 40 20
255 40 20
255 40 20
255 40 20
255 40 20
255 40 20
255 40 20
255 40 20
255 40 20
255 40 20
255 40 20
255 40 20
255 40 20
255 40 20
255 40 20
255 40 20
255 40 20
255 40 20
255 40 20
255 40 20
255 40 20
255 40 20
255 40 20
255 40 20
255 40 20
255 40 20
255 40 20
255 40 20
255 40 20
255 40 20
255 40 20
255 40 20
255 40 20
255 40 20
255 40 20
255 40 20
255 42 21
255 42 21
255 42 21
255 42 21
255 42 21
255 42 21
255 42 21
255 42 21
255 42 21
255 42 21
255 42 21
255 42 21
255 42 21
255 42 21
255 42 21
255 42 21
255 42 21
255 42 21
255 42 21
255 42 21
255 42 21
255 42 21
255 42 21
255 42 21
255 42 21
255 42 21
255 42 21
255 42 21
255 42 21
255 42 21
255 42 21
255 42 21
255 42 21
255 42 21
255 42 21
255 42 21
255 42 21
255 42 21
255 42 21
255 42 21
255 42 21
255 42 21
255 42 21
255 42 21
255 42 21
255 42 21
255 42 21
255 42 21
255 42 21
255 42 21
255 42 21
255 42 21
255 42 21
255 42 21
255 42 21
255 42 21
255 42 21
255 42 21
255 42 21
255 42 21
255 42 21
255 42 21
255 42 21
255 42 21
255 42 21
255 42 21
255 42 21
255 42 21
255 42 21
255 42 21
255 42 21
255 42 21
255 43 21
255 43 21
255 43 21
255 43 21
255 43 21
255 43 21
255 43 21
255 43 21
255 43 21
255 43 21
255 43 21
255 43 21
255 43 21
255 43 21
255 43 21
255 43 21
255 43 21
255 43 21
255 43 21
255 43 21
255 43 21
255 43 21
255 43 21
255 43 21
255 43 21
255 43 21
255 43 21
255 43 21
255 43 21
255 43 21
255 43 21
255 43 21
255 43 21
255 43 21
255 43 21
255 43 21
255 43 21
255 43 21
255 43 21
255 43 21
255 43 21
255 43 21
255 43 21
255 43 21
255 43 21
255 43 21
255 43 21
255 43 21
255 43 21
255 43 21
255 43 21
255 43 21
255 43 21
255 43 21
255 43 21
255 43 21
255 43 21
255 43 21
255 43 21
255 43 21
255 43 21
255 43 21
255 43 21
255 43 21
255 43 21
255 43 21
255 43 21
255 43 21
255 43 21
255 43 21
255 43 21
255 43 21
255 44 22
255 44 22
255 44 22
255 44 22
255 44 22
255 44 22
255 44 22
255 44 22
255 44 22
255 44 22
255 44 22
255 44 22
255 44 22
255 44 22
255 44 22
255 44 22
255 44 22
255 44 22
255 44 22
255 44 22
255 44 22
255 44 22
255 44 22
255 44 22
255 44 22
255 44 22
255 44 22
255 44 22
255 44 22
255 44 22
255 44 22
255 44 22
255 44 22
255 44 22
255 44 22
255 44 22
255 44 22
255 44 22
255 44 22
255 44 22
255 44 22
255 44 22
255 44 22
255 44 22
255 44 22
255 44 22
255 44 22
255 44 22
255 44 22
255 44 22
255 44 22
255 44 22
255 44 22
255 44 22
255 44 22
255 44 22
255 44 22
255 44 22
255 44 22
255 44 22
255 44 22
255 44 22
255 44 22
255 44 22
255 44 22
255 44 22
255 44 22
255 44 22
255 44 22
255 44 22
255 44 22
255 44 22
255 45 22
255 45 22
255 45 22
255 45 22
255 45 22
255 45 22
255 45 22
255 45 22
255 45 22
255 45 22
255 45 22
255 45 22
255 45 22
255 45 22
255 45 22
255 45 22
255 45 22
255 45 22
255 45 22
255 45 22
255 45 22
255 45 22
255 45 22
255 45 22
255 45 22
255 45 22
255 45 22
255 45 22
255 45 22
255 45 22
255 45 22
255 45 22
255 45 22
255 45 22
255 45 22
255 45 22
255 45 22
255 45 22
255 45 22
255 45 22
255 45 22
255 45 22
255 45 22
255 45 22
255 45 22
255 45 22
255 45 22
255 45 22
255 45 22
255 45 22
255 45 22
255 45 22
255 45 22
255 45 22
255 45 22
255 45 22
255 45 22
255 45 22
255 45 22
255 45 22
255 45 22
255 45 22
255 45 22
255 45 22
255 45 22
255 45 22
255 45 22
255 45 22
255 45 22
255 45 22
255 45 22
255 45 22
255 46 23
255 46 23
255 46 23
255 46 23
255 46 23
255 46 23
255 46 23
255 46 23
255 46 23
255 46 23
255 46 23
255 46 23
255 46 23
255 46 23
255 46 23
255 46 23
255 46 23
255 46 23
255 46 23
255 46 23
255 46 23
255 46 23
255 46 23
255 46 23
255 46 23
255 46 23
255 46 23
255 46 23
255 46 23
255 46 23
255 46 23
255 46 23
255 46 23
255 46 23
255 46 23
255 46 23
255 46 23
255 46 23
255 46 23
255 46 23
255 46 23
255 46 23
255 46 23
255 46 23
255 46 23
255 46 23
255 46 23
255 46 23
255 46 23
255 46 23
255 46 23
255 46 23
255 46 23
255 46 23
255 46 23
255 46 23
255 46 23
255 46 23
255 46 23
255 46 23
255 46 23
255 46 23
255 46 23
255 46 23
255 46 23
255 46 23
255 46 23
255 46 23
255 46 23
255 46 23
255 46 23
255 46 23
255 47 24
255 47 24
255 47 24
255 47 24
255 47 24
255 47 24
255 47 24
255 47 24
255 47 24
255 47 24
255 47 24
255 47 24
255 47 24
255 47 24
255 47 24
255 47 24
255 47 24
255 47 24
255 47 24
255 47 24
255 47 24
255 47 24
255 47 24
255 47 24
255 47 24
255 47 24
255 47 24
255 47 24
255 47 24
255 47 24
255 47 24
255 47 24
255 47 24
255 47 24
255 47 24
255 47 24
255 47 24
255 47 24
255 47 24
255 47 24
255 47 24
255 47 24
255 47 24
255 47 24
255 47 24
255 47 24
255 47 24
255 47 24
255 47 24
255 47 24
255 47 24
255 47 24
255 47 24
255 47 24
255 47 24
255 47 24
255 47 24
255 47 24
255 47 24
255 47 24
255 47 24
255 47 24
255 47 24
255 47 24
255 47 24
255 47 24
255 47 24
255 47 24
255 47 24
255 47 24
255 47 24
255 47 24
255 48 24
255 48 24
255 48 24
255 48 24
255 48 24
255 48 24
255 48 24
255 48 24
255 48 24
255 48 24
255 48 24
255 48 24
255 48 24
255 48 24
255 48 24
255 48 24
255 48 24
255 48 24
255 48 24
255 48 24
255 48 24
255 48 24
255 48 24
255 48 24
255 48 24
255 48 24
255 48 24
255 48 24
255 48 24
255 48 24
255 48 24
255 48 24
255 48 24
255 48 24
255 48 24
255 48 24
255 48 24
255 48 24
255 48 24
255 48 24
255 48 24
255 48 24
255 48 24
255 48 24
255 48 24
255 48 24
255 48 24
255 48 24
255 48 24
255 48 24
255 48 24
255 48 24
255 48 24
255 48 24
255 48 24
255 48 24
255 48 24
255 48 24
255 48 24
255 48 24
255 48 24
255 48 24
255 48 24
255 48 24
255 48 24
255 48 24
255 48 24
255 48 24
255 48 24
255 48 24
255 48 24
255 48 24
255 49 25
255 49 25
255 49 25
255 49 25
255 49 25
255 49 25
255 49 25
255 49 25
255 49 25
255 49 25
255 49 25
255 49 25
255 49 25
255 49 25
255 49 25
255 49 25
255 49 25
255 49 25
255 49 25
255 49 25
255 49 25
255 49 25
255 49 25
255 49 25
255 49 25
255 49 25
255 49 25
255 49 25
255 49 25
255 49 25
255 49 25
255 49 25
255 49 25
255 49 25
255 49 25
255 49 25
255 49 25
255 49 25
255 49 25
255 49 25
255 49 25
255 49 25
255 49 25
255 49 25
255 49 25
255 49 25
255 49 25
255 49 25
255 49 25
255 49 25
255 49 25
255 49 25
255 49 25
255 49 25
255 49 25
255 49 25
255 49 25
255 49 25
255 49 25
255 49 25
255 49 25
255 49 25
255 49 25
255 49 25
255 49 25
255 49 25
255 49 25
255 49 25
255 49 25
255 49 25
255 49 25
255 49 25
255 50 25
255 50 25
255 50 25
255 50 25
255 50 25
255 50 25
255 50 25
255 50 25
255 50 25
255 50 25
255 50 25
255 50 25
255 50 25
255 50 25
255 50 25
255 50 25
255 50 25
255 50 25
255 50 25
255 50 25
255 50 25
255 50 25
255 50 25
255 50 25
255 50 25
255 50 25
255 50 25
255 50 25
255 50 25
255 50 25
255 50 25
255 50 25
255 50 25
255 50 25
255 50 25
255 50 25
255 50 25
255 50 25
255 50 25
255 50 25
255 50 25
255 50 25
255 50 25
255 50 25
255 50 25
255 50 25
255 50 25
255 50 25
255 50 25
255 50 25
255 50 25
255 50 25
255 50 25
255 50 25
255 50 25
255 50 25
255 50 25
255 50 25
255 50 25
255 50 25
255 50 25
255 50 25
255 50 25
255 50 25
255 50 25
255 50 25
255 50 25
255 50 25
255 50 25
255 50 25
255 50 25
255 50 25
255 51 26
255 51 26
255 51 26
255 51 26
255 51 26
255 51 26
255 51 26
255 51 26
255 51 26
255 51 26
255 51 26
255 51 26
255 51 26
255 51 26
255 51 26
255 51 26
255 51 26
255 51 26
255 51 26
255 51 26
255 51 26
255 51 26
255 51 26
255 51 26
255 51 26
255 51 26
255 51 26
255 51 26
255 51 26
255 51 26
255 51 26
255 51 26
255 51 26
255 51 26
255 51 26
255 51 26
255 51 26
255 51 26
255 51 26
255 51 26
255 51 26
255 51 26
255 51 26
255 51 26
255 51 26
255 51 26
255 51 26
255 51 26
255 51 26
255 51 26
255 51 26
255 51 26
255 51 26
255 51 26
255 51 26
255 51 26
255 51 26
255 51 26
255 51 26
255 51 26
255 51 26
255 51 26
255 51 26
255 51 26
255 51 26
255 51 26
255 51 26
255 51 26
255 51 26
255 51 26
255 51 26
255 51 26
255 53 26
255 53 26
255 53 26
255 53 26
255 53 26
255 53 26
255 53 26
255 53 26
255 53 26
255 53 26
255 53 26
255 53 26
255 53 26
255 53 26
255 53 26
255 53 26
255 53 26
255 53 26
255 53 26
255 53 26
255 53 26
255 53 26
255 53 26
255 53 26
255 53 26
255 53 26
255 53 26
255 53 26
255 53 26
255 53 26
255 53 26
255 53 26
255 53 26
255 53 26
255 53 26
255 53 26
255 53 26
255 53 26
255 53 26
255 53 26
255 53 26
255 53 26
255 53 26
255 53 26
255 53 26
255 53 26
255 53 26
255 53 26
255 53 26
255 53 26
255 53 26
255 53 26
255 53 26
255 53 26
255 53 26
255 53 26
255 53 26
255 53 26
255 53 26
255 53 26
255 53 26
255 53 26
255 53 26
255 53 26
255 53 26
255 53 26
255 53 26
255 53 26
255 53 26
255 53 26
255 53 26
255 53 26
255 54 27
255 54 27
255 54 27
255 54 27
255 54 27
255 54 27
255 54 27
255 54 27
255 54 27
255 54 27
255 54 27
255 54 27
255 54 27
255 54 27
255 54 27
255 54 27
255 54 27
255 54 27
255 54 27
255 54 27
255 54 27
255 54 27
255 54 27
255 54 27
255 54 27
255 54 27
255 54 27
255 54 27
255 54 27
255 54 27
255 54 27
255 54 27
255 54 27
255 54 27
255 54 27
255 54 27
255 54 27
255 54 27
255 54 27
255 54 27
255 54 27
255 54 27
255 54 27
255 54 27
255 54 27
255 54 27
255 54 27
255 54 27
255 54 27
255 54 27
255 54 27
255 54 27
255 54 27
255 54 27
255 54 27
255 54 27
255 54 27
255 54 27
255 54 27
255 54 27
255 54 27
255 54 27
255 54 27
255 54 27
255 54 27
255 54 27
255 54 27
255 54 27
255 54 27
255 54 27
255 54 27
255 54 27
255 55 27
255 55 27
255 55 27
255 55 27
255 55 27
255 55 27
255 55 27
255 55 27
255 55 27
255 55 27
255 55 27
255 55 27
255 55 27
255 55 27
255 55 27
255 55 27
255 55 27
255 55 27
255 55 27
255 55 27
255 55 27
255 55 27
255 55 27
255 55 27
255 55 27
255 55 27
255 55 27
255 55 27
255 55 27
255 55 27
255 55 27
255 55 27
255 55 27
255 55 27
255 55 27
255 55 27
255 55 27
255 55 27
255 55 27
255 55 27
255 55 27
255 55 27
255 55 27
255 55 27
255 55 27
255 55 27
255 55 27
255 55 27
255 55 27
255 55 27
255 55 27
255 55 27
255 55 27
255 55 27
255 55 27
255 55 27
255 55 27
255 55 27
255 55 27
255 55 27
255 55 27
255 55 27
255 55 27
255 55 27
255 55 27
255 55 27
255 55 27
255 55 27
255 55 27
255 55 27
255 55 27
255 55 27
255 56 28
255 56 28
255 56 28
255 56 28
255 56 28
255 56 28
255 56 28
255 56 28
255 56 28
255 56 28
255 56 28
255 56 28
255 56 28
255 56 28
255 56 28
255 56 28
255 56 28
255 56 28
255 56 28
255 56 28
255 56 28
255 56 28
255 56 28
255 56 28
255 56 28
255 56 28
255 56 28
255 56 28
255 56 28
255 56 28
255 56 28
255 56 28
255 56 28
255 56 28
255 56 28
255 56 28
255 56 28
255 56 28
255 56 28
255 56 28
255 56 28
255 56 28
255 56 28
255 56 28
255 56 28
255 56 28
255 56 28
255 56 28
255 56 28
255 56 28
255 56 28
255 56 28
255 56 28
255 56 28
255 56 28
255 56 28
255 56 28
255 56 28
255 56 28
255 56 28
255 56 28
255 56 28
255 56 28
255 56 28
255 56 28
255 56 28
255 56 28
255 56 28
255 56 28
255 56 28
255 56 28
255 56 28
255 57 28
255 57 28
255 57 28
255 57 28
255 57 28
255 57 28
255 57 28
255 57 28
255 57 28
255 57 28
255 57 28
255 57 28
255 57 28
255 57 28
255 57 28
255 57 28
255 57 28
255 57 28
255 57 28
255 57 28
255 57 28
255 57 28
255 57 28
255 57 28
255 57 28
255 57 28
255 57 28
255 57 28
255 57 28
255 57 28
255 57 28
255 57 28
255 57 28
255 57 28
255 57 28
255 57 28
255 57 28
255 57 28
255 57 28
255 57 28
255 57 28
255 57 28
255 57 28
255 57 28
255 57 28
255 57 28
255 57 28
255 57 28
255 57 28
255 57 28
255 57 28
255 57 28
255 57 28
255 57 28
255 57 28
255 57 28
255 57 28
255 57 28
255 57 28
255 57 28
255 57 28
255 57 28
255 57 28
255 57 28
255 57 28
255 57 28
255 57 28
255 57 28
255 57 28
255 57 28
255 57 28
255 57 28
255 58 29
255 58 29
255 58 29
255 58 29
255 58 29
255 58 29
255 58 29
255 58 29
255 58 29
255 58 29
255 58 29
255 58 29
255 58 29
255 58 29
255 58 29
255 58 29
255 58 29
255 58 29
255 58 29
255 58 29
255 58 29
255 58 29
255 58 29
255 58 29
255 58 29
255 58 29
255 58 29
255 58 29
255 58 29
255 58 29
255 58 29
255 58 29
255 58 29
255 58 29
255 58 29
255 58 29
255 58 29
255 58 29
255 58 29
255 58 29
255 58 29
255 58 29
255 58 29
255 58 29
255 58 29
255 58 29
255 58 29
255 58 29
255 58 29
255 58 29
255 58 29
255 58 29
255 58 29
255 58 29
255 58 29
255 58 29
255 58 29
255 58 29
255 58 29
255 58 29
255 58 29
255 58 29
255 58 29
255 58 29
255 58 29
255 58 29
255 58 29
255 58 29
255 58 29
255 58 29
255 58 29
255 58 29
255 59 30
255 59 30
255 59 30
255 59 30
255 59 30
255 59 30
255 59 30
255 59 30
255 59 30
255 59 30
255 59 30
255 59 30
255 59 30
255 59 30
255 59 30
255 59 30
255 59 30
255 59 30
255 59 30
255 59 30
255 59 30
255 59 30
255 59 30
255 59 30
255 59 30
255 59 30
255 59 30
255 59 30
255 59 30
255 59 30
255 59 30
255 59 30
255 59 30
255 59 30
255 59 30
255 59 30
255 59 30
255 59 30
255 59 30
255 59 30
255 59 30
255 59 30
255 59 30
255 59 30
255 59 30
255 59 30
255 59 30
255 59 30
255 59 30
255 59 30
255 59 30
255 59 30
255 59 30
255 59 30
255 59 30
255 59 30
255 59 30
255 59 30
255 59 30
255 59 30
255 59 30
255 59 30
255 59 30
255 59 30
255 59 30
255 59 30
255 59 30
255 59 30
255 59 30
255 59 30
255 59 30
255 59 30
255 60 30
255 60 30
255 60 30
255 60 30
255 60 30
255 60 30
255 60 30
255 60 30
255 60 30
255 60 30
255 60 30
255 60 30
255 60 30
255 60 30
255 60 30
255 60 30
255 60 30
255 60 30
255 60 30
255 60 30
255 60 30
255 60 30
255 60 30
255 60 30
255 60 30
255 60 30
255 60 30
255 60 30
255 60 30
255 60 30
255 60 30
255 60 30
255 60 30
255 60 30
255 60 30
255 60 30
255 60 30
255 60 30
255 60 30
255 60 30
255 60 30
255 60 30
255 60 30
255 60 30
255 60 30
255 60 30
255 60 30
255 60 30
255 60 30
255 60 30
255 60 30
255 60 30
255 60 30
255 60 30
255 60 30
255 60 30
255 60 30
255 60 30
255 60 30
255 60 30
255 60 30
255 60 30
255 60 30
255 60 30
255 60 30
255 60 30
255 60 30
255 60 30
255 60 30
255 60 30
255 60 30
255 60 30
255 61 31
255 61 31
255 61 31
255 61 31
255 61 31
255 61 31
255 61 31
255 61 31
255 61 31
255 61 31
255 61 31
255 61 31
255 61 31
255 61 31
255 61 31
255 61 31
255 61 31
255 61 31
255 61 31
255 61 31
255 61 31
255 61 31
255 61 31
255 61 31
255 61 31
255 61 31
255 61 31
255 61 31
255 61 31
255 61 31
255 61 31
255 61 31
255 61 31
255 61 31
255 61 31
255 61 31
255 61 31
255 61 31
255 61 31
255 61 31
255 61 31
255 61 31
255 61 31
255 61 31
255 61 31
255 61 31
255 61 31
255 61 31
255 61 31
255 61 31
255 61 31
255 61 31
255 61 31
255 61 31
255 61 31
255 61 31
255 61 31
255 61 31
255 61 31
255 61 31
255 61 31
255 61 31
255 61 31
255 61 31
255 61 31
255 61 31
255 61 31
255 61 31
255 61 31
255 61 31
255 61 31
255 61 31
255 62 31
255 62 31
255 62 31
255 62 31
255 62 31
255 62 31
255 62 31
255 62 31
255 62 31
255 62 31
255 62 31
255 62 31
255 62 31
255 62 31
255 62 31
255 62 31
255 62 31
255 62 31
255 62 31
255 62 31
255 62 31
255 62 31
255 62 31
255 62 31
255 62 31
255 62 31
255 62 31
255 62 31
255 62 31
255 62 31
255 62 31
255 62 31
255 62 31
255 62 31
255 62 31
255 62 31
255 62 31
255 62 31
255 62 31
255 62 31
255 62 31
255 62 31
255 62 31
255 62 31
255 62 31
255 62 31
255 62 31
255 62 31
255 62 31
255 62 31
255 62 31
255 62 31
255 62 31
255 62 31
255 62 31
255 62 31
255 62 31
255 62 31
255 62 31
255 62 31
255 62 31
255 62 31
255 62 31
255 62 31
255 62 31
255 62 31
255 62 31
255 62 31
255 62 31
255 62 31
255 62 31
255 62 31
255 63 32
255 63 32
255 63 32
255 63 32
255 63 32
255 63 32
255 63 32
255 63 32
255 63 32
255 63 32
255 63 32
255 63 32
255 63 32
255 63 32
255 63 32
255 63 32
255 63 32
255 63 32
255 63 32
255 63 32
255 63 32
255 63 32
255 63 32
255 63 32
255 63 32
255 63 32
255 63 32
255 63 32
255 63 32
255 63 32
255 63 32
255 63 32
255 63 32
255 63 32
255 63 32
255 63 32
255 63 32
255 63 32
255 63 32
255 63 32
255 63 32
255 63 32
255 63 32
255 63 32
255 63 32
255 63 32
255 63 32
255 63 32
255 63 32
255 63 32
255 63 32
255 63 32
255 63 32
255 63 32
255 63 32
255 63 32
255 63 32
255 63 32
255 63 32
255 63 32
255 63 32
255 63 32
255 63 32
255 63 32
255 63 32
255 63 32
255 63 32
255 63 32
255 63 32
255 63 32
255 63 32
255 63 32
255 65 32
255 65 32
255 65 32
255 65 32
255 65 32
255 65 32
255 65 32
255 65 32
255 65 32
255 65 32
255 65 32
255 65 32
255 65 32
255 65 32
255 65 32
255 65 32
255 65 32
255 65 32
255 65 32
255 65 32
255 65 32
255 65 32
255 65 32
255 65 32
255 65 32
255 65 32
255 65 32
255 65 32
255 65 32
255 65 32
255 65 32
255 65 32
255 65 32
255 65 32
255 65 32
255 65 32
255 65 32
255 65 32
255 65 32
255 65 32
255 65 32
255 65 32
255 65 32
255 65 32
255 65 32
255 65 32
255 65 32
255 65 32
255 65 32
255 65 32
255 65 32
255 65 32
255 65 32
255 65 32
255 65 32
255 65 32
255 65 32
255 65 32
255 65 32
255 65 32
255 65 32
255 65 32
255 65 32
255 65 32
255 65 32
255 65 32
255 65 32
255 65 32
255 65 32
255 65 32
255 65 32
255 65 32
255 66 33
255 66 33
255 66 33
255 66 33
255 66 33
255 66 33
255 66 33
255 66 33
255 66 33
255 66 33
255 66 33
255 66 33
255 66 33
255 66 33
255 66 33
255 66 33
255 66 33
255 66 33
255 66 33
255 66 33
255 66 33
255 66 33
255 66 33
255 66 33
255 66 33
255 66 33
255 66 33
255 66 33
255 66 33
255 66 33
255 66 33
255 66 33
255 66 33
255 66 33
255 66 33
255 66 33
255 66 33
255 66 33
255 66 33
255 66 33
255 66 33
255 66 33
255 66 33
255 66 33
255 66 33
255 66 33
255 66 33
255 66 33
255 66 33
255 66 33
255 66 33
255 66 33
255 66 33
255 66 33
255 66 33
255 66 33
255 66 33
255 66 33
255 66 33
255 66 33
255 66 33
255 66 33
255 66 33
255 66 33
255 66 33
255 66 33
255 66 33
255 66 33
255 66 33
255 66 33
255 66 33
255 66 33
255 67 33
255 67 33
255 67 33
255 67 33
255 67 33
255 67 33
255 67 33
255 67 33
255 67 33
255 67 33
255 67 33
255 67 33
255 67 33
255 67 33
255 67 33
255 67 33
255 67 33
255 67 33
255 67 33
255 67 33
255 67 33
255 67 33
255 67 33
255 67 33
255 67 33
255 67 33
255 67 33
255 67 33
255 67 33
255 67 33
255 67 33
255 67 33
255 67 33
255 67 33
255 67 33
255 67 33
255 67 33
255 67 33
255 67 33
255 67 33
255 67 33
255 67 33
255 67 33
255 67 33
255 67 33
255 67 33
255 67 33
255 67 33
255 67 33
255 67 33
255 67 33
255 67 33
255 67 33
255 67 33
255 67 33
255 67 33
255 67 33
255 67 33
255 67 33
255 67 33
255 67 33
255 67 33
255 67 33
255 67 33
255 67 33
255 67 33
255 67 33
255 67 33
255 67 33
255 67 33
255 67 33
255 67 33
255 68 34
255 68 34
255 68 34
255 68 34
255 68 34
255 68 34
255 68 34
255 68 34
255 68 34
255 68 34
255 68 34
255 68 34
255 68 34
255 68 34
255 68 34
255 68 34
255 68 34
255 68 34
255 68 34
255 68 34
255 68 34
255 68 34
255 68 34
255 68 34
255 68 34
255 68 34
255 68 34
255 68 34
255 68 34
255 68 34
255 68 34
255 68 34
255 68 34
255 68 34
255 68 34
255 68 34
255 68 34
255 68 34
255 68 34
255 68 34
255 68 34
255 68 34
255 68 34
255 68 34
255 68 34
255 68 34
255 68 34
255 68 34
255 68 34
255 68 34
255 68 34
255 68 34
255 68 34
255 68 34
255 68 34
255 68 34
255 68 34
255 68 34
255 68 34
255 68 34
255 68 34
255 68 34
255 68 34
255 68 34
255 68 34
255 68 34
255 68 34
255 68 34
255 68 34
255 68 34
255 68 34
255 68 34
255 69 34
255 69 34
255 69 34
255 69 34
255 69 34
255 69 34
255 69 34
255 69 34
255 69 34
255 69 34
255 69 34
255 69 34
255 69 34
255 69 34
255 69 34
255 69 34
255 69 34
255 69 34
255 69 34
255 69 34
255 69 34
255 69 34
255 69 34
255 69 34
255 69 34
255 69 34
255 69 34
255 69 34
255 69 34
255 69 34
255 69 34
255 69 34
255 69 34
255 69 34
255 69 34
255 69 34
255 69 34
255 69 34
255 69 34
255 69 34
255 69 34
255 69 34
255 69 34
255 69 34
255 69 34
255 69 34
255 69 34
255 69 34
255 69 34
255 69 34
255 69 34
255 69 34
255 69 34
255 69 34
255 69 34
255 69 34
255 69 34
255 69 34
255 69 34
255 69 34
255 69 34
255 69 34
255 69 34
255 69 34
255 69 34
255 69 34
255 69 34
255 69 34
255 69 34
255 69 34
255 69 34
255 69 34
255 70 35
255 70 35
255 70 35
255 70 35
255 70 35
255 70 35
255 70 35
255 70 35
255 70 35
255 70 35
255 70 35
255 70 35
255 70 35
255 70 35
255 70 35
255 70 35
255 70 35
255 70 35
255 70 35
255 70 35
255 70 35
255 70 35
255 70 35
255 70 35
255 70 35
255 70 35
255 70 35
255 70 35
255 70 35
255 70 35
255 70 35
255 70 35
255 70 35
255 70 35
255 70 35
255 70 35
255 70 35
255 70 35
255 70 35
255 70 35
255 70 35
255 70 35
255 70 35
255 70 35
255 70 35
255 70 35
255 70 35
255 70 35
255 70 35
255 70 35
255 70 35
255 70 35
255 70 35
255 70 35
255 70 35
255 70 35
255 70 35
255 70 35
255 70 35
255 70 35
255 70 35
255 70 35
255 70 35
255 70 35
255 70 35
255 70 35
255 70 35
255 70 35
255 70 35
255 70 35
255 70 35
255 70 35
255 71 36
255 71 36
255 71 36
255 71 36
255 71 36
255 71 36
255 71 36
255 71 36
255 71 36
255 71 36
255 71 36
255 71 36
255 71 36
255 71 36
255 71 36
255 71 36
255 71 36
255 71 36
255 71 36
255 71 36
255 71 36
255 71 36
255 71 36
255 71 36
255 71 36
255 71 36
255 71 36
255 71 36
255 71 36
255 71 36
255 71 36
255 71 36
255 71 36
255 71 36
255 71 36
255 71 36
255 71 36
255 71 36
255 71 36
255 71 36
255 71 36
255 71 36
255 71 36
255 71 36
255 71 36
255 71 36
255 71 36
255 71 36
255 71 36
255 71 36
255 71 36
255 71 36
255 71 36
255 71 36
255 71 36
255 71 36
255 71 36
255 71 36
255 71 36
255 71 36
255 71 36
255 71 36
255 71 36
255 71 36
255 71 36
255 71 36
255 71 36
255 71 36
255 71 36
255 71 36
255 71 36
255 71 36
255 72 36
255 72 36
255 72 36
255 72 36
255 72 36
255 72 36
255 72 36
255 72 36
255 72 36
255 72 36
255 72 36
255 72 36
255 72 36
255 72 36
255 72 36
255 72 36
255 72 36
255 72 36
255 72 36
255 72 36
255 72 36
255 72 36
255 72 36
255 72 36
255 72 36
255 72 36
255 72 36
255 72 36
255 72 36
255 72 36
255 72 36
255 72 36
255 72 36
255 72 36
255 72 36
255 72 36
255 72 36
255 72 36
255 72 36
255 72 36
255 72 36
255 72 36
255 72 36
255 72 36
255 72 36
255 72 36
255 72 36
255 72 36
255 72 36
255 72 36
255 72 36
255 72 36
255 72 36
255 72 36
255 72 36
255 72 36
255 72 36
255 72 36
255 72 36
255 72 36
255 72 36
255 72 36
255 72 36
255 72 36
255 72 36
255 72 36
255 72 36
255 72 36
255 72 36
255 72 36
255 72 36
255 72 36
255 73 37
255 73 37
255 73 37
255 73 37
255 73 37
255 73 37
255 73 37
255 73 37
255 73 37
255 73 37
255 73 37
255 73 37
255 73 37
255 73 37
255 73 37
255 73 37
255 73 37
255 73 37
255 73 37
255 73 37
255 73 37
255 73 37
255 73 37
255 73 37
255 73 37
255 73 37
255 73 37
255 73 37
255 73 37
255 73 37
255 73 37
255 73 37
255 73 37
255 73 37
255 73 37
255 73 37
255 73 37
255 73 37
255 73 37
255 73 37
255 73 37
255 73 37
255 73 37
255 73 37
255 73 37
255 73 37
255 73 37
255 73 37
255 73 37
255 73 37
255 73 37
255 73 37
255 73 37
255 73 37
255 73 37
255 73 37
255 73 37
255 73 37
255 73 37
255 73 37
255 73 37
255 73 37
255 73 37
255 73 37
255 73 37
255 73 37
255 73 37
255 73 37
255 73 37
255 73 37
255 73 37
255 73 37
255 74 37
255 74 37
255 74 37
255 74 37
255 74 37
255 74 37
255 74 37
255 74 37
255 74 37
255 74 37
255 74 37
255 74 37
255 74 37
255 74 37
255 74 37
255 74 37
255 74 37
255 74 37
255 74 37
255 74 37
255 74 37
255 74 37
255 74 37
255 74 37
255 74 37
255 74 37
255 74 37
255 74 37
255 74 37
255 74 37
255 74 37
255 74 37
255 74 37
255 74 37
255 74 37
255 74 37
255 74 37
255 74 37
255 74 37
255 74 37
255 74 37
255 74 37
255 74 37
255 74 37
255 74 37
255 74 37
255 74 37
255 74 37
255 74 37
255 74 37
255 74 37
255 74 37
255 74 37
255 74 37
255 74 37
255 74 37
255 74 37
255 74 37
255 74 37
255 74 37
255 74 37
255 74 37
255 74 37
255 74 37
255 74 37
255 74 37
255 74 37
255 74 37
255 74 37
255 74 37
255 74 37
255 74 37
255 76 38
255 76 38
255 76 38
255 76 38
255 76 38
255 76 38
255 76 38
255 76 38
255 76 38
255 76 38
255 76 38
255 76 38
255 76 38
255 76 38
255 76 38
255 76 38
255 76 38
255 76 38
255 76 38
255 76 38
255 76 38
255 76 38
255 76 38
255 76 38
255 76 38
255 76 38
255 76 38
255 76 38
255 76 38
255 76 38
255 76 38
255 76 38
255 76 38
255 76 38
255 76 38
255 76 38
255 76 38
255 76 38
255 76 38
255 76 38
255 76 38
255 76 38
255 76 38
255 76 38
255 76 38
255 76 38
255 76 38
255 76 38
255 76 38
255 76 38
255 76 38
255 76 38
255 76 38
255 76 38
255 76 38
255 76 38
255 76 38
255 76 38
255 76 38
255 76 38
255 76 38
255 76 38
255 76 38
255 76 38
255 76 38
255 76 38
255 76 38
255 76 38
255 76 38
255 76 38
255 76 38
255 76 38
255 77 38
255 77 38
255 77 38
255 77 38
255 77 38
255 77 38
255 77 38
255 77 38
255 77 38
255 77 38
255 77 38
255 77 38
255 77 38
255 77 38
255 77 38
255 77 38
255 77 38
255 77 38
255 77 38
255 77 38
255 77 38
255 77 38
255 77 38
255 77 38
255 77 38
255 77 38
255 77 38
255 77 38
255 77 38
255 77 38
255 77 38
255 77 38
255 77 38
255 77 38
255 77 38
255 77 38
255 77 38
255 77 38
255 77 38
255 77 38
255 77 38
255 77 38
255 77 38
255 77 38
255 77 38
255 77 38
255 77 38
255 77 38
255 77 38
255 77 38
255 77 38
255 77 38
255 77 38
255 77 38
255 77 38
255 77 38
255 77 38
255 77 38
255 77 38
255 77 38
255 77 38
255 77 38
255 77 38
255 77 38
255 77 38
255 77 38
255 77 38
255 77 38
255 77 38
255 77 38
255 77 38
255 77 38
255 78 39
255 78 39
255 78 39
255 78 39
255 78 39
255 78 39
255 78 39
255 78 39
255 78 39
255 78 39
255 78 39
255 78 39
255 78 39
255 78 39
255 78 39
255 78 39
255 78 39
255 78 39
255 78 39
255 78 39
255 78 39
255 78 39
255 78 39
255 78 39
255 78 39
255 78 39
255 78 39
255 78 39
255 78 39
255 78 39
255 78 39
255 78 39
255 78 39
255 78 39
255 78 39
255 78 39
255 78 39
255 78 39
255 78 39
255 78 39
255 78 39
255 78 39
255 78 39
255 78 39
255 78 39
255 78 39
255 78 39
255 78 39
255 78 39
255 78 39
255 78 39
255 78 39
255 78 39
255 78 39
255 78 39
255 78 39
255 78 39
255 78 39
255 78 39
255 78 39
255 78 39
255 78 39
255 78 39
255 78 39
255 78 39
255 78 39
255 78 39
255 78 39
255 78 39
255 78 39
255 78 39
255 78 39
255 79 39
255 79 39
255 79 39
255 79 39
255 79 39
255 79 39
255 79 39
255 79 39
255 79 39
255 79 39
255 79 39
255 79 39
255 79 39
255 79 39
255 79 39
255 79 39
255 79 39
255 79 39
255 79 39
255 79 39
255 79 39
255 79 39
255 79 39
255 79 39
255 79 39
255 79 39
255 79 39
255 79 39
255 79 39
255 79 39
255 79 39
255 79 39
255 79 39
255 79 39
255 79 39
255 79 39
255 79 39
255 79 39
255 79 39
255 79 39
255 79 39
255 79 39
255 79 39
255 79 39
255 79 39
255 79 39
255 79 39
255 79 39
255 79 39
255 79 39
255 79 39
255 79 39
255 79 39
255 79 39
255 79 39
255 79 39
255 79 39
255 79 39
255 79 39
255 79 39
255 79 39
255 79 39
255 79 39
255 79 39
255 79 39
255 79 39
255 79 39
255 79 39
255 79 39
255 79 39
255 79 39
255 79 39
255 80 40
255 80 40
255 80 40
255 80 40
255 80 40
255 80 40
255 80 40
255 80 40
255 80 40
255 80 40
255 80 40
255 80 40
255 80 40
255 80 40
255 80 40
255 80 40
255 80 40
255 80 40
255 80 40
255 80 40
255 80 40
255 80 40
255 80 40
255 80 40
255 80 40
255 80 40
255 80 40
255 80 40
255 80 40
255 80 40
255 80 40
255 80 40
255 80 40
255 80 40
255 80 40
255 80 40
255 80 40
255 80 40
255 80 40
255 80 40
255 80 40
255 80 40
255 80 40
255 80 40
255 80 40
255 80 40
255 80 40
255 80 40
255 80 40
255 80 40
255 80 40
255 80 40
255 80 40
255 80 40
255 80 40
255 80 40
255 80 40
255 80 40
255 80 40
255 80 40
255 80 40
255 80 40
255 80 40
255 80 40
255 80 40
255 80 40
255 80 40
255 80 40
255 80 40
255 80 40
255 80 40
255 80 40
255 81 40
255 81 40
255 81 40
255 81 40
255 81 40
255 81 40
255 81 40
255 81 40
255 81 40
255 81 40
255 81 40
255 81 40
255 81 40
255 81 40
255 81 40
255 81 40
255 81 40
255 81 40
255 81 40
255 81 40
255 81 40
255 81 40
255 81 40
255 81 40
255 81 40
255 81 40
255 81 40
255 81 40
255 81 40
255 81 40
255 81 40
255 81 40
255 81 40
255 81 40
255 81 40
255 81 40
255 81 40
255 81 40
255 81 40
255 81 40
255 81 40
255 81 40
255 81 40
255 81 40
255 81 40
255 81 40
255 81 40
255 81 40
255 81 40
255 81 40
255 81 40
255 81 40
255 81 40
255 81 40
255 81 40
255 81 40
255 81 40
255 81 40
255 81 40
255 81 40
255 81 40
255 81 40
255 81 40
255 81 40
255 81 40
255 81 40
255 81 40
255 81 40
255 81 40
255 81 40
255 81 40
255 81 40
255 82 41
255 82 41
255 82 41
255 82 41
255 82 41
255 82 41
255 82 41
255 82 41
255 82 41
255 82 41
255 82 41
255 82 41
255 82 41
255 82 41
255 82 41
255 82 41
255 82 41
255 82 41
255 82 41
255 82 41
255 82 41
255 82 41
255 82 41
255 82 41
255 82 41
255 82 41
255 82 41
255 82 41
255 82 41
255 82 41
255 82 41
255 82 41
255 82 41
255 82 41
255 82 41
255 82 41
255 82 41
255 82 41
255 82 41
255 82 41
255 82 41
255 82 41
255 82 41
255 82 41
255 82 41
255 82 41
255 82 41
255 82 41
255 82 41
255 82 41
255 82 41
255 82 41
255 82 41
255 82 41
255 82 41
255 82 41
255 82 41
255 82 41
255 82 41
255 82 41
255 82 41
255 82 41
255 82 41
255 82 41
255 82 41
255 82 41
255 82 41
255 82 41
255 82 41
255 82 41
255 82 41
255 82 41
255 83 42
255 83 42
255 83 42
255 83 42
255 83 42
255 83 42
255 83 42
255 83 42
255 83 42
255 83 42
255 83 42
255 83 42
255 83 42
255 83 42
255 83 42
255 83 42
255 83 42
255 83 42
255 83 42
255 83 42
255 83 42
255 83 42
255 83 42
255 83 42
255 83 42
255 83 42
255 83 42
255 83 42
255 83 42
255 83 42
255 83 42
255 83 42
255 83 42
255 83 42
255 83 42
255 83 42
255 83 42
255 83 42
255 83 42
255 83 42
255 83 42
255 83 42
255 83 42
255 83 42
255 83 42
255 83 42
255 83 42
255 83 42
255 83 42
255 83 42
255 83 42
255 83 42
255 83 42
255 83 42
255 83 42
255 83 42
255 83 42
255 83 42
255 83 42
255 83 42
255 83 42
255 83 42
255 83 42
255 83 42
255 83 42
255 83 42
255 83 42
255 83 42
255 83 42
255 83 42
255 83 42
255 83 42
255 84 42
255 84 42
255 84 42
255 84 42
255 84 42
255 84 42
255 84 42
255 84 42
255 84 42
255 84 42
255 84 42
255 84 42
255 84 42
255 84 42
255 84 42
255 84 42
255 84 42
255 84 42
255 84 42
255 84 42
255 84 42
255 84 42
255 84 42
255 84 42
255 84 42
255 84 42
255 84 42
255 84 42
255 84 42
255 84 42
255 84 42
255 84 42
255 84 42
255 84 42
255 84 42
255 84 42
255 84 42
255 84 42
255 84 42
255 84 42
255 84 42
255 84 42
255 84 42
255 84 42
255 84 42
255 84 42
255 84 42
255 84 42
255 84 42
255 84 42
255 84 42
255 84 42
255 84 42
255 84 42
255 84 42
255 84 42
255 84 42
255 84 42
255 84 42
255 84 42
255 84 42
255 84 42
255 84 42
255 84 42
255 84 42
255 84 42
255 84 42
255 84 42
255 84 42
255 84 42
255 84 42
255 84 42
255 85 43
255 85 43
255 85 43
255 85 43
255 85 43
255 85 43
255 85 43
255 85 43
255 85 43
255 85 43
255 85 43
255 85 43
255 85 43
255 85 43
255 85 43
255 85 43
255 85 43
255 85 43
255 85 43
255 85 43
255 85 43
255 85 43
255 85 43
255 85 43
255 85 43
255 85 43
255 85 43
255 85 43
255 85 43
255 85 43
255 85 43
255 85 43
255 85 43
255 85 43
255 85 43
255 85 43
255 85 43
255 85 43
255 85 43
255 85 43
255 85 43
255 85 43
255 85 43
255 85 43
255 85 43
255 85 43
255 85 43
255 85 43
255 85 43
255 85 43
255 85 43
255 85 43
255 85 43
255 85 43
255 85 43
255 85 43
255 85 43
255 85 43
255 85 43
255 85 43
255 85 43
255 85 43
255 85 43
255 85 43
255 85 43
255 85 43
255 85 43
255 85 43
255 85 43
255 85 43
255 85 43
255 85 43
255 86 43
255 86 43
255 86 43
255 86 43
255 86 43
255 86 43
255 86 43
255 86 43
255 86 43
255 86 43
255 86 43
255 86 43
255 86 43
255 86 43
255 86 43
255 86 43
255 86 43
255 86 43
255 86 43
255 86 43
255 86 43
255 86 43
255 86 43
255 86 43
255 86 43
255 86 43
255 86 43
255 86 43
255 86 43
255 86 43
255 86 43
255 86 43
255 86 43
255 86 43
255 86 43
255 86 43
255 86 43
255 86 43
255 86 43
255 86 43
255 86 43
255 86 43
255 86 43
255 86 43
255 86 43
255 86 43
255 86 43
255 86 43
255 86 43
255 86 43
255 86 43
255 86 43
255 86 43
255 86 43
255 86 43
255 86 43
255 86 43
255 86 43
255 86 43
255 86 43
255 86 43
255 86 43
255 86 43
255 86 43
255 86 43
255 86 43
255 86 43
255 86 43
255 86 43
255 86 43
255 86 43
255 86 43
255 88 44
255 88 44
255 88 44
255 88 44
255 88 44
255 88 44
255 88 44
255 88 44
255 88 44
255 88 44
255 88 44
255 88 44
255 88 44
255 88 44
255 88 44
255 88 44
255 88 44
255 88 44
255 88 44
255 88 44
255 88 44
255 88 44
255 88 44
255 88 44
255 88 44
255 88 44
255 88 44
255 88 44
255 88 44
255 88 44
255 88 44
255 88 44
255 88 44
255 88 44
255 88 44
255 88 44
255 88 44
255 88 44
255 88 44
255 88 44
255 88 44
255 88 44
255 88 44
255 88 44
255 88 44
255 88 44
255 88 44
255 88 44
255 88 44
255 88 44
255 88 44
255 88 44
255 88 44
255 88 44
255 88 44
255 88 44
255 88 44
255 88 44
255 88 44
255 88 44
255 88 44
255 88 44
255 88 44
255 88 44
255 88 44
255 88 44
255 88 44
255 88 44
255 88 44
255 88 44
255 88 44
255 88 44
255 89 44
255 89 44
255 89 44
255 89 44
255 89 44
255 89 44
255 89 44
255 89 44
255 89 44
255 89 44
255 89 44
255 89 44
255 89 44
255 89 44
255 89 44
255 89 44
255 89 44
255 89 44
255 89 44
255 89 44
255 89 44
255 89 44
255 89 44
255 89 44
255 89 44
255 89 44
255 89 44
255 89 44
255 89 44
255 89 44
255 89 44
255 89 44
255 89 44
255 89 44
255 89 44
255 89 44
255 89 44
255 89 44
255 89 44
255 89 44
255 89 44
255 89 44
255 89 44
255 89 44
255 89 44
255 89 44
255 89 44
255 89 44
255 89 44
255 89 44
255 89 44
255 89 44
255 89 44
255 89 44
255 89 44
255 89 44
255 89 44
255 89 44
255 89 44
255 89 44
255 89 44
255 89 44
255 89 44
255 89 44
255 89 44
255 89 44
255 89 44
255 89 44
255 89 44
255 89 44
255 89 44
255 89 44
255 90 45
255 90 45
255 90 45
255 90 45
255 90 45
255 90 45
255 90 45
255 90 45
255 90 45
255 90 45
255 90 45
255 90 45
255 90 45
255 90 45
255 90 45
255 90 45
255 90 45
255 90 45
255 90 45
255 90 45
255 90 45
255 90 45
255 90 45
255 90 45
255 90 45
255 90 45
255 90 45
255 90 45
255 90 45
255 90 45
255 90 45
255 90 45
255 90 45
255 90 45
255 90 45
255 90 45
255 90 45
255 90 45
255 90 45
255 90 45
255 90 45
255 90 45
255 90 45
255 90 45
255 90 45
255 90 45
255 90 45
255 90 45
255 90 45
255 90 45
255 90 45
255 90 45
255 90 45
255 90 45
255 90 45
255 90 45
255 90 45
255 90 45
255 90 45
255 90 45
255 90 45
255 90 45
255 90 45
255 90 45
255 90 45
255 90 45
255 90 45
255 90 45
255 90 45
255 90 45
255 90 45
255 90 45
255 91 45
255 91 45
255 91 45
255 91 45
255 91 45
255 91 45
255 91 45
255 91 45
255 91 45
255 91 45
255 91 45
255 91 45
255 91 45
255 91 45
255 91 45
255 91 45
255 91 45
255 91 45
255 91 45
255 91 45
255 91 45
255 91 45
255 91 45
255 91 45
255 91 45
255 91 45
255 91 45
255 91 45
255 91 45
255 91 45
255 91 45
255 91 45
255 91 45
255 91 45
255 91 45
255 91 45
255 91 45
255 91 45
255 91 45
255 91 45
255 91 45
255 91 45
255 91 45
255 91 45
255 91 45
255 91 45
255 91 45
255 91 45
255 91 45
255 91 45
255 91 45
255 91 45
255 91 45
255 91 45
255 91 45
255 91 45
255 91 45
255 91 45
255 91 45
255 91 45
255 91 45
255 91 45
255 91 45
255 91 45
255 91 45
255 91 45
255 91 45
255 91 45
255 91 45
255 91 45
255 91 45
255 91 45
255 92 46
255 92 46
255 92 46
255 92 46
255 92 46
255 92 46
255 92 46
255 92 46
255 92 46
255 92 46
255 92 46
255 92 46
255 92 46
255 92 46
255 92 46
255 92 46
255 92 46
255 92 46
255 92 46
255 92 46
255 92 46
255 92 46
255 92 46
255 92 46
255 92 46
255 92 46
255 92 46
255 92 46
255 92 46
255 92 46
255 92 46
255 92 46
255 92 46
255 92 46
255 92 46
255 92 46
255 92 46
255 92 46
255 92 46
255 92 46
255 92 46
255 92 46
255 92 46
255 92 46
255 92 46
255 92 46
255 92 46
255 92 46
255 92 46
255 92 46
255 92 46
255 92 46
255 92 46
255 92 46
255 92 46
255 92 46
255 92 46
255 92 46
255 92 46
255 92 46
255 92 46
255 92 46
255 92 46
255 92 46
255 92 46
255 92 46
255 92 46
255 92 46
255 92 46
255 92 46
255 92 46
255 92 46
255 93 47
255 93 47
255 93 47
255 93 47
255 93 47
255 93 47
255 93 47
255 93 47
255 93 47
255 93 47
255 93 47
255 93 47
255 93 47
255 93 47
255 93 47
255 93 47
255 93 47
255 93 47
255 93 47
255 93 47
255 93 47
255 93 47
255 93 47
255 93 47
255 93 47
255 93 47
255 93 47
255 93 47
255 93 47
255 93 47
255 93 47
255 93 47
255 93 47
255 93 47
255 93 47
255 93 47
255 93 47
255 93 47
255 93 47
255 93 47
255 93 47
255 93 47
255 93 47
255 93 47
255 93 47
255 93 47
255 93 47
255 93 47
255 93 47
255 93 47
255 93 47
255 93 47
255 93 47
255 93 47
255 93 47
255 93 47
255 93 47
255 93 47
255 93 47
255 93 47
255 93 47
255 93 47
255 93 47
255 93 47
255 93 47
255 93 47
255 93 47
255 93 47
255 93 47
255 93 47
255 93 47
255 93 47
255 94 47
255 94 47
255 94 47
255 94 47
255 94 47
255 94 47
255 94 47
255 94 47
255 94 47
255 94 47
255 94 47
255 94 47
255 94 47
255 94 47
255 94 47
255 94 47
255 94 47
255 94 47
255 94 47
255 94 47
255 94 47
255 94 47
255 94 47
255 94 47
255 94 47
255 94 47
255 94 47
255 94 47
255 94 47
255 94 47
255 94 47
255 94 47
255 94 47
255 94 47
255 94 47
255 94 47
255 94 47
255 94 47
255 94 47
255 94 47
255 94 47
255 94 47
255 94 47
255 94 47
255 94 47
255 94 47
255 94 47
255 94 47
255 94 47
255 94 47
255 94 47
255 94 47
255 94 47
255 94 47
255 94 47
255 94 47
255 94 47
255 94 47
255 94 47
255 94 47
255 94 47
255 94 47
255 94 47
255 94 47
255 94 47
255 94 47
255 94 47
255 94 47
255 94 47
255 94 47
255 94 47
255 94 47
255 95 48
255 95 48
255 95 48
255 95 48
255 95 48
255 95 48
255 95 48
255 95 48
255 95 48
255 95 48
255 95 48
255 95 48
255 95 48
255 95 48
255 95 48
255 95 48
255 95 48
255 95 48
255 95 48
255 95 48
255 95 48
255 95 48
255 95 48
255 95 48
255 95 48
255 95 48
255 95 48
255 95 48
255 95 48
255 95 48
255 95 48
255 95 48
255 95 48
255 95 48
255 95 48
255 95 48
255 95 48
255 95 48
255 95 48
255 95 48
255 95 48
255 95 48
255 95 48
255 95 48
255 95 48
255 95 48
255 95 48
255 95 48
255 95 48
255 95 48
255 95 48
255 95 48
255 95 48
255 95 48
255 95 48
255 95 48
255 95 48
255 95 48
255 95 48
255 95 48
255 95 48
255 95 48
255 95 48
255 95 48
255 95 48
255 95 48
255 95 48
255 95 48
255 95 48
255 95 48
255 95 48
255 95 48
255 96 48
255 96 48
255 96 48
255 96 48
255 96 48
255 96 48
255 96 48
255 96 48
255 96 48
255 96 48
255 96 48
255 96 48
255 96 48
255 96 48
255 96 48
255 96 48
255 96 48
255 96 48
255 96 48
255 96 48
255 96 48
255 96 48
255 96 48
255 96 48
255 96 48
255 96 48
255 96 48
255 96 48
255 96 48
255 96 48
255 96 48
255 96 48
255 96 48
255 96 48
255 96 48
255 96 48
255 96 48
255 96 48
255 96 48
255 96 48
255 96 48
255 96 48
255 96 48
255 96 48
255 96 48
255 96 48
255 96 48
255 96 48
255 96 48
255 96 48
255 96 48
255 96 48
255 96 48
255 96 48
255 96 48
255 96 48
255 96 48
255 96 48
255 96 48
255 96 48
255 96 48
255 96 48
255 96 48
255 96 48
255 96 48
255 96 48
255 96 48
255 96 48
255 96 48
255 96 48
255 96 48
255 96 48
255 97 49
255 97 49
255 97 49
255 97 49
255 97 49
255 97 49
255 97 49
255 97 49
255 97 49
255 97 49
255 97 49
255 97 49
255 97 49
255 97 49
255 97 49
255 97 49
255 97 49
255 97 49
255 97 49
255 97 49
255 97 49
255 97 49
255 97 49
255 97 49
255 97 49
255 97 49
255 97 49
255 97 49
255 97 49
255 97 49
255 97 49
255 97 49
255 97 49
255 97 49
255 97 49
255 97 49
255 97 49
255 97 49
255 97 49
255 97 49
255 97 49
255 97 49
255 97 49
255 97 49
255 97 49
255 97 49
255 97 49
255 97 49
255 97 49
255 97 49
255 97 49
255 97 49
255 97 49
255 97 49
255 97 49
255 97 49
255 97 49
255 97 49
255 97 49
255 97 49
255 97 49
255 97 49
255 97 49
255 97 49
255 97 49
255 97 49
255 97 49
255 97 49
255 97 49
255 97 49
255 97 49
255 97 49
255 98 49
255 98 49
255 98 49
255 98 49
255 98 49
255 98 49
255 98 49
255 98 49
255 98 49
255 98 49
255 98 49
255 98 49
255 98 49
255 98 49
255 98 49
255 98 49
255 98 49
255 98 49
255 98 49
255 98 49
255 98 49
255 98 49
255 98 49
255 98 49
255 98 49
255 98 49
255 98 49
255 98 49
255 98 49
255 98 49
255 98 49
255 98 49
255 98 49
255 98 49
255 98 49
255 98 49
255 98 49
255 98 49
255 98 49
255 98 49
255 98 49
255 98 49
255 98 49
255 98 49
255 98 49
255 98 49
255 98 49
255 98 49
255 98 49
255 98 49
255 98 49
255 98 49
255 98 49
255 98 49
255 98 49
255 98 49
255 98 49
255 98 49
255 98 49
255 98 49
255 98 49
255 98 49
255 98 49
255 98 49
255 98 49
255 98 49
255 98 49
255 98 49
255 98 49
255 98 49
255 98 49
255 98 49
255 100 50
255 100 50
255 100 50
255 100 50
255 100 50
255 100 50
255 100 50
255 100 50
255 100 50
255 100 50
255 100 50
255 100 50
255 100 50
255 100 50
255 100 50
255 100 50
255 100 50
255 100 50
255 100 50
255 100 50
255 100 50
255 100 50
255 100 50
255 100 50
255 100 50
255 100 50
255 100 50
255 100 50
255 100 50
255 100 50
255 100 50
255 100 50
255 100 50
255 100 50
255 100 50
255 100 50
255 100 50
255 100 50
255 100 50
255 100 50
255 100 50
255 100 50
255 100 50
255 100 50
255 100 50
255 100 50
255 100 50
255 100 50
255 100 50
255 100 50
255 100 50
255 100 50
255 100 50
255 100 50
255 100 50
255 100 50
255 100 50
255 100 50
255 100 50
255 100 50
255 100 50
255 100 50
255 100 50
255 100 50
255 100 50
255 100 50
255 100 50
255 100 50
255 100 50
255 100 50
255 100 50
255 100 50
255 101 50
255 101 50
255 101 50
255 101 50
255 101 50
255 101 50
255 101 50
255 101 50
255 101 50
255 101 50
255 101 50
255 101 50
255 101 50
255 101 50
255 101 50
255 101 50
255 101 50
255 101 50
255 101 50
255 101 50
255 101 50
255 101 50
255 101 50
255 101 50
255 101 50
255 101 50
255 101 50
255 101 50
255 101 50
255 101 50
255 101 50
255 101 50
255 101 50
255 101 50
255 101 50
255 101 50
255 101 50
255 101 50
255 101 50
255 101 50
255 101 50
255 101 50
255 101 50
255 101 50
255 101 50
255 101 50
255 101 50
255 101 50
255 101 50
255 101 50
255 101 50
255 101 50
255 101 50
255 101 50
255 101 50
255 101 50
255 101 50
255 101 50
255 101 50
255 101 50
255 101 50
255 101 50
255 101 50
255 101 50
255 101 50
255 101 50
255 101 50
255 101 50
255 101 50
255 101 50
255 101 50
255 101 50
255 102 51
255 102 51
255 102 51
255 102 51
255 102 51
255 102 51
255 102 51
255 102 51
255 102 51
255 102 51
255 102 51
255 102 51
255 102 51
255 102 51
255 102 51
255 102 51
255 102 51
255 102 51
255 102 51
255 102 51
255 102 51
255 102 51
255 102 51
255 102 51
255 102 51
255 102 51
255 102 51
255 102 51
255 102 51
255 102 51
255 102 51
255 102 51
255 102 51
255 102 51
255 102 51
255 102 51
255 102 51
255 102 51
255 102 51
255 102 51
255 102 51
255 102 51
255 102 51
255 102 51
255 102 51
255 102 51
255 102 51
255 102 51
255 102 51
255 102 51
255 102 51
255 102 51
255 102 51
255 102 51
255 102 51
255 102 51
255 102 51
255 102 51
255 102 51
255 102 51
255 102 51
255 102 51
255 102 51
255 102 51
255 102 51
255 102 51
255 102 51
255 102 51
255 102 51
255 102 51
255 102 51
255 102 51
255 103 51
255 103 51
255 103 51
255 103 51
255 103 51
255 103 51
255 103 51
255 103 51
255 103 51
255 103 51
255 103 51
255 103 51
255 103 51
255 103 51
255 103 51
255 103 51
255 103 51
255 103 51
255 103 51
255 103 51
255 103 51
255 103 51
255 103 51
255 103 51
255 103 51
255 103 51
255 103 51
255 103 51
255 103 51
255 103 51
255 103 51
255 103 51
255 103 51
255 103 51
255 103 51
255 103 51
255 103 51
255 103 51
255 103 51
255 103 51
255 103 51
255 103 51
255 103 51
255 103 51
255 103 51
255 103 51
255 103 51
255 103 51
255 103 51
255 103 51
255 103 51
255 103 51
255 103 51
255 103 51
255 103 51
255 103 51
255 103 51
255 103 51
255 103 51
255 103 51
255 103 51
255 103 51
255 103 51
255 103 51
255 103 51
255 103 51
255 103 51
255 103 51
255 103 51
255 103 51
255 103 51
255 103 51
255 104 52
255 104 52
255 104 52
255 104 52
255 104 52
255 104 52
255 104 52
255 104 52
255 104 52
255 104 52
255 104 52
255 104 52
255 104 52
255 104 52
255 104 52
255 104 52
255 104 52
255 104 52
255 104 52
255 104 52
255 104 52
255 104 52
255 104 52
255 104 52
255 104 52
255 104 52
255 104 52
255 104 52
255 104 52
255 104 52
255 104 52
255 104 52
255 104 52
255 104 52
255 104 52
255 104 52
255 104 52
255 104 52
255 104 52
255 104 52
255 104 52
255 104 52
255 104 52
255 104 52
255 104 52
255 104 52
255 104 52
255 104 52
255 104 52
255 104 52
255 104 52
255 104 52
255 104 52
255 104 52
255 104 52
255 104 52
255 104 52
255 104 52
255 104 52
255 104 52
255 104 52
255 104 52
255 104 52
255 104 52
255 104 52
255 104 52
255 104 52
255 104 52
255 104 52
255 104 52
255 104 52
255 104 52
255 105 53
255 105 53
255 105 53
255 105 53
255 105 53
255 105 53
255 105 53
255 105 53
255 105 53
255 105 53
255 105 53
255 105 53
255 105 53
255 105 53
255 105 53
255 105 53
255 105 53
255 105 53
255 105 53
255 105 53
255 105 53
255 105 53
255 105 53
255 105 53
255 105 53
255 105 53
255 105 53
255 105 53
255 105 53
255 105 53
255 105 53
255 105 53
255 105 53
255 105 53
255 105 53
255 105 53
255 105 53
255 105 53
255 105 53
255 105 53
255 105 53
255 105 53
255 105 53
255 105 53
255 105 53
255 105 53
255 105 53
255 105 53
255 105 53
255 105 53
255 105 53
255 105 53
255 105 53
255 105 53
255 105 53
255 105 53
255 105 53
255 105 53
255 105 53
255 105 53
255 105 53
255 105 53
255 105 53
255 105 53
255 105 53
255 105 53
255 105 53
255 105 53
255 105 53
255 105 53
255 105 53
255 105 53
255 106 53
255 106 53
255 106 53
255 106 53
255 106 53
255 106 53
255 106 53
255 106 53
255 106 53
255 106 53
255 106 53
255 106 53
255 106 53
255 106 53
255 106 53
255 106 53
255 106 53
255 106 53
255 106 53
255 106 53
255 106 53
255 106 53
255 106 53
255 106 53
255 106 53
255 106 53
255 106 53
255 106 53
255 106 53
255 106 53
255 106 53
255 106 53
255 106 53
255 106 53
255 106 53
255 106 53
255 106 53
255 106 53
255 106 53
255 106 53
255 106 53
255 106 53
255 106 53
255 106 53
255 106 53
255 106 53
255 106 53
255 106 53
255 106 53
255 106 53
255 106 53
255 106 53
255 106 53
255 106 53
255 106 53
255 106 53
255 106 53
255 106 53
255 106 53
255 106 53
255 106 53
255 106 53
255 106 53
255 106 53
255 106 53
255 106 53
255 106 53
255 106 53
255 106 53
255 106 53
255 106 53
255 106 53
255 107 54
255 107 54
255 107 54
255 107 54
255 107 54
255 107 54
255 107 54
255 107 54
255 107 54
255 107 54
255 107 54
255 107 54
255 107 54
255 107 54
255 107 54
255 107 54
255 107 54
255 107 54
255 107 54
255 107 54
255 107 54
255 107 54
255 107 54
255 107 54
255 107 54
255 107 54
255 107 54
255 107 54
255 107 54
255 107 54
255 107 54
255 107 54
255 107 54
255 107 54
255 107 54
255 107 54
255 107 54
255 107 54
255 107 54
255 107 54
255 107 54
255 107 54
255 107 54
255 107 54
255 107 54
255 107 54
255 107 54
255 107 54
255 107 54
255 107 54
255 107 54
255 107 54
255 107 54
255 107 54
255 107 54
255 107 54
255 107 54
255 107 54
255 107 54
255 107 54
255 107 54
255 107 54
255 107 54
255 107 54
255 107 54
255 107 54
255 107 54
255 107 54
255 107 54
255 107 54
255 107 54
255 107 54
255 108 54
255 108 54
255 108 54
255 108 54
255 108 54
255 108 54
255 108 54
255 108 54
255 108 54
255 108 54
255 108 54
255 108 54
255 108 54
255 108 54
255 108 54
255 108 54
255 108 54
255 108 54
255 108 54
255 108 54
255 108 54
255 108 54
255 108 54
255 108 54
255 108 54
255 108 54
255 108 54
255 108 54
255 108 54
255 108 54
255 108 54
255 108 54
255 108 54
255 108 54
255 108 54
255 108 54
255 108 54
255 108 54
255 108 54
255 108 54
255 108 54
255 108 54
255 108 54
255 108 54
255 108 54
255 108 54
255 108 54
255 108 54
255 108 54
255 108 54
255 108 54
255 108 54
255 108 54
255 108 54
255 108 54
255 108 54
255 108 54
255 108 54
255 108 54
255 108 54
255 108 54
255 108 54
255 108 54
255 108 54
255 108 54
255 108 54
255 108 54
255 108 54
255 108 54
255 108 54
255 108 54
255 108 54
255 109 55
255 109 55
255 109 55
255 109 55
255 109 55
255 109 55
255 109 55
255 109 55
255 109 55
255 109 55
255 109 55
255 109 55
255 109 55
255 109 55
255 109 55
255 109 55
255 109 55
255 109 55
255 109 55
255 109 55
255 109 55
255 109 55
255 109 55
255 109 55
255 109 55
255 109 55
255 109 55
255 109 55
255 109 55
255 109 55
255 109 55
255 109 55
255 109 55
255 109 55
255 109 55
255 109 55
255 109 55
255 109 55
255 109 55
255 109 55
255 109 55
255 109 55
255 109 55
255 109 55
255 109 55
255 109 55
255 109 55
255 109 55
255 109 55
255 109 55
255 109 55
255 109 55
255 109 55
255 109 55
255 109 55
255 109 55
255 109 55
255 109 55
255 109 55
255 109 55
255 109 55
255 109 55
255 109 55
255 109 55
255 109 55
255 109 55
255 109 55
255 109 55
255 109 55
255 109 55
255 109 55
255 109 55
255 111 55
255 111 55
255 111 55
255 111 55
255 111 55
255 111 55
255 111 55
255 111 55
255 111 55
255 111 55
255 111 55
255 111 55
255 111 55
255 111 55
255 111 55
255 111 55
255 111 55
255 111 55
255 111 55
255 111 55
255 111 55
255 111 55
255 111 55
255 111 55
255 111 55
255 111 55
255 111 55
255 111 55
255 111 55
255 111 55
255 111 55
255 111 55
255 111 55
255 111 55
255 111 55
255 111 55
255 111 55
255 111 55
255 111 55
255 111 55
255 111 55
255 111 55
255 111 55
255 111 55
255 111 55
255 111 55
255 111 55
255 111 55
255 111 55
255 111 55
255 111 55
255 111 55
255 111 55
255 111 55
255 111 55
255 111 55
255 111 55
255 111 55
255 111 55
255 111 55
255 111 55
255 111 55
255 111 55
255 111 55
255 111 55
255 111 55
255 111 55
255 111 55
255 111 55
255 111 55
255 111 55
255 111 55
255 112 56
255 112 56
255 112 56
255 112 56
255 112 56
255 112 56
255 112 56
255 112 56
255 112 56
255 112 56
255 112 56
255 112 56
255 112 56
255 112 56
255 112 56
255 112 56
255 112 56
255 112 56
255 112 56
255 112 56
255 112 56
255 112 56
255 112 56
255 112 56
255 112 56
255 112 56
255 112 56
255 112 56
255 112 56
255 112 56
255 112 56
255 112 56
255 112 56
255 112 56
255 112 56
255 112 56
255 112 56
255 112 56
255 112 56
255 112 56
255 112 56
255 112 56
255 112 56
255 112 56
255 112 56
255 112 56
255 112 56
255 112 56
255 112 56
255 112 56
255 112 56
255 112 56
255 112 56
255 112 56
255 112 56
255 112 56
255 112 56
255 112 56
255 112 56
255 112 56
255 112 56
255 112 56
255 112 56
255 112 56
255 112 56
255 112 56
255 112 56
255 112 56
255 112 56
255 112 56
255 112 56
255 112 56
255 113 56
255 113 56
255 113 56
255 113 56
255 113 56
255 113 56
255 113 56
255 113 56
255 113 56
255 113 56
255 113 56
255 113 56
255 113 56
255 113 56
255 113 56
255 113 56
255 113 56
255 113 56
255 113 56
255 113 56
255 113 56
255 113 56
255 113 56
255 113 56
255 113 56
255 113 56
255 113 56
255 113 56
255 113 56
255 113 56
255 113 56
255 113 56
255 113 56
255 113 56
255 113 56
255 113 56
255 113 56
255 113 56
255 113 56
255 113 56
255 113 56
255 113 56
255 113 56
255 113 56
255 113 56
255 113 56
255 113 56
255 113 56
255 113 56
255 113 56
255 113 56
255 113 56
255 113 56
255 113 56
255 113 56
255 113 56
255 113 56
255 113 56
255 113 56
255 113 56
255 113 56
255 113 56
255 113 56
255 113 56
255 113 56
255 113 56
255 113 56
255 113 56
255 113 56
255 113 56
255 113 56
255 113 56
255 114 57
255 114 57
255 114 57
255 114 57
255 114 57
255 114 57
255 114 57
255 114 57
255 114 57
255 114 57
255 114 57
255 114 57
255 114 57
255 114 57
255 114 57
255 114 57
255 114 57
255 114 57
255 114 57
255 114 57
255 114 57
255 114 57
255 114 57
255 114 57
255 114 57
255 114 57
255 114 57
255 114 57
255 114 57
255 114 57
255 114 57
255 114 57
255 114 57
255 114 57
255 114 57
255 114 57
255 114 57
255 114 57
255 114 57
255 114 57
255 114 57
255 114 57
255 114 57
255 114 57
255 114 57
255 114 57
255 114 57
255 114 57
255 114 57
255 114 57
255 114 57
255 114 57
255 114 57
255 114 57
255 114 57
255 114 57
255 114 57
255 114 57
255 114 57
255 114 57
255 114 57
255 114 57
255 114 57
255 114 57
255 114 57
255 114 57
255 114 57
255 114 57
255 114 57
255 114 57
255 114 57
255 114 57
255 115 57
255 115 57
255 115 57
255 115 57
255 115 57
255 115 57
255 115 57
255 115 57
255 115 57
255 115 57
255 115 57
255 115 57
255 115 57
255 115 57
255 115 57
255 115 57
255 115 57
255 115 57
255 115 57
255 115 57
255 115 57
255 115 57
255 115 57
255 115 57
255 115 57
255 115 57
255 115 57
255 115 57
255 115 57
255 115 57
255 115 57
255 115 57
255 115 57
255 115 57
255 115 57
255 115 57
255 115 57
255 115 57
255 115 57
255 115 57
255 115 57
255 115 57
255 115 57
255 115 57
255 115 57
255 115 57
255 115 57
255 115 57
255 115 57
255 115 57
255 115 57
255 115 57
255 115 57
255 115 57
255 115 57
255 115 57
255 115 57
255 115 57
255 115 57
255 115 57
255 115 57
255 115 57
255 115 57
255 115 57
255 115 57
255 115 57
255 115 57
255 115 57
255 115 57
255 115 57
255 115 57
255 115 57
255 116 58
255 116 58
255 116 58
255 116 58
255 116 58
255 116 58
255 116 58
255 116 58
255 116 58
255 116 58
255 116 58
255 116 58
255 116 58
255 116 58
255 116 58
255 116 58
255 116 58
255 116 58
255 116 58
255 116 58
255 116 58
255 116 58
255 116 58
255 116 58
255 116 58
255 116 58
255 116 58
255 116 58
255 116 58
255 116 58
255 116 58
255 116 58
255 116 58
255 116 58
255 116 58
255 116 58
255 116 58
255 116 58
255 116 58
255 116 58
255 116 58
255 116 58
255 116 58
255 116 58
255 116 58
255 116 58
255 116 58
255 116 58
255 116 58
255 116 58
255 116 58
255 116 58
255 116 58
255 116 58
255 116 58
255 116 58
255 116 58
255 116 58
255 116 58
255 116 58
255 116 58
255 116 58
255 116 58
255 116 58
255 116 58
255 116 58
255 116 58
255 116 58
255 116 58
255 116 58
255 116 58
255 116 58
255 117 59
255 117 59
255 117 59
255 117 59
255 117 59
255 117 59
255 117 59
255 117 59
255 117 59
255 117 59
255 117 59
255 117 59
255 117 59
255 117 59
255 117 59
255 117 59
255 117 59
255 117 59
255 117 59
255 117 59
255 117 59
255 117 59
255 117 59
255 117 59
255 117 59
255 117 59
255 117 59
255 117 59
255 117 59
255 117 59
255 117 59
255 117 59
255 117 59
255 117 59
255 117 59
255 117 59
255 117 59
255 117 59
255 117 59
255 117 59
255 117 59
255 117 59
255 117 59
255 117 59
255 117 59
255 117 59
255 117 59
255 117 59
255 117 59
255 117 59
255 117 59
255 117 59
255 117 59
255 117 59
255 117 59
255 117 59
255 117 59
255 117 59
255 117 59
255 117 59
255 117 59
255 117 59
255 117 59
255 117 59
255 117 59
255 117 59
255 117 59
255 117 59
255 117 59
255 117 59
255 117 59
255 117 59
255 118 59
255 118 59
255 118 59
255 118 59
255 118 59
255 118 59
255 118 59
255 118 59
255 118 59
255 118 59
255 118 59
255 118 59
255 118 59
255 118 59
255 118 59
255 118 59
255 118 59
255 118 59
255 118 59
255 118 59
255 118 59
255 118 59
255 118 59
255 118 59
255 118 59
255 118 59
255 118 59
255 118 59
255 118 59
255 118 59
255 118 59
255 118 59
255 118 59
255 118 59
255 118 59
255 118 59
255 118 59
255 118 59
255 118 59
255 118 59
255 118 59
255 118 59
255 118 59
255 118 59
255 118 59
255 118 59
255 118 59
255 118 59
255 118 59
255 118 59
255 118 59
255 118 59
255 118 59
255 118 59
255 118 59
255 118 59
255 118 59
255 118 59
255 118 59
255 118 59
255 118 59
255 118 59
255 118 59
255 118 59
255 118 59
255 118 59
255 118 59
255 118 59
255 118 59
255 118 59
255 118 59
255 118 59
255 119 60
255 119 60
255 119 60
255 119 60
255 119 60
255 119 60
255 119 60
255 119 60
255 119 60
255 119 60
255 119 60
255 119 60
255 119 60
255 119 60
255 119 60
255 119 60
255 119 60
255 119 60
255 119 60
255 119 60
255 119 60
255 119 60
255 119 60
255 119 60
255 119 60
255 119 60
255 119 60
255 119 60
255 119 60
255 119 60
255 119 60
255 119 60
255 119 60
255 119 60
255 119 60
255 119 60
255 119 60
255 119 60
255 119 60
255 119 60
255 119 60
255 119 60
255 119 60
255 119 60
255 119 60
255 119 60
255 119 60
255 119 60
255 119 60
255 119 60
255 119 60
255 119 60
255 119 60
255 119 60
255 119 60
255 119 60
255 119 60
255 119 60
255 119 60
255 119 60
255 119 60
255 119 60
255 119 60
255 119 60
255 119 60
255 119 60
255 119 60
255 119 60
255 119 60
255 119 60
255 119 60
255 119 60
255 120 60
255 120 60
255 120 60
255 120 60
255 120 60
255 120 60
255 120 60
255 120 60
255 120 60
255 120 60
255 120 60
255 120 60
255 120 60
255 120 60
255 120 60
255 120 60
255 120 60
255 120 60
255 120 60
255 120 60
255 120 60
255 120 60
255 120 60
255 120 60
255 120 60
255 120 60
255 120 60
255 120 60
255 120 60
255 120 60
255 120 60
255 120 60
255 120 60
255 120 60
255 120 60
255 120 60
255 120 60
255 120 60
255 120 60
255 120 60
255 120 60
255 120 60
255 120 60
255 120 60
255 120 60
255 120 60
255 120 60
255 120 60
255 120 60
255 120 60
255 120 60
255 120 60
255 120 60
255 120 60
255 120 60
255 120 60
255 120 60
255 120 60
255 120 60
255 120 60
255 120 60
255 120 60
255 120 60
255 120 60
255 120 60
255 120 60
255 120 60
255 120 60
255 120 60
255 120 60
255 120 60
255 120 60
255 121 61
255 121 61
255 121 61
255 121 61
255 121 61
255 121 61
255 121 61
255 121 61
255 121 61
255 121 61
255 121 61
255 121 61
255 121 61
255 121 61
255 121 61
255 121 61
255 121 61
255 121 61
255 121 61
255 121 61
255 121 61
255 121 61
255 121 61
255 121 61
255 121 61
255 121 61
255 121 61
255 121 61
255 121 61
255 121 61
255 121 61
255 121 61
255 121 61
255 121 61
255 121 61
255 121 61
255 121 61
255 121 61
255 121 61
255 121 61
255 121 61
255 121 61
255 121 61
255 121 61
255 121 61
255 121 61
255 121 61
255 121 61
255 121 61
255 121 61
255 121 61
255 121 61
255 121 61
255 121 61
255 121 61
255 121 61
255 121 61
255 121 61
255 121 61
255 121 61
255 121 61
255 121 61
255 121 61
255 121 61
255 121 61
255 121 61
255 121 61
255 121 61
255 121 61
255 121 61
255 121 61
255 121 61
255 123 61
255 123 61
255 123 61
255 123 61
255 123 61
255 123 61
255 123 61
255 123 61
255 123 61
255 123 61
255 123 61
255 123 61
255 123 61
255 123 61
255 123 61
255 123 61
255 123 61
255 123 61
255 123 61
255 123 61
255 123 61
255 123 61
255 123 61
255 123 61
255 123 61
255 123 61
255 123 61
255 123 61
255 123 61
255 123 61
255 123 61
255 123 61
255 123 61
255 123 61
255 123 61
255 123 61
255 123 61
255 123 61
255 123 61
255 123 61
255 123 61
255 123 61
255 123 61
255 123 61
255 123 61
255 123 61
255 123 61
255 123 61
255 123 61
255 123 61
255 123 61
255 123 61
255 123 61
255 123 61
255 123 61
255 123 61
255 123 61
255 123 61
255 123 61
255 123 61
255 123 61
255 123 61
255 123 61
255 123 61
255 123 61
255 123 61
255 123 61
255 123 61
255 123 61
255 123 61
255 123 61
255 123 61
255 124 62
255 124 62
255 124 62
255 124 62
255 124 62
255 124 62
255 124 62
255 124 62
255 124 62
255 124 62
255 124 62
255 124 62
255 124 62
255 124 62
255 124 62
255 124 62
255 124 62
255 124 62
255 124 62
255 124 62
255 124 62
255 124 62
255 124 62
255 124 62
255 124 62
255 124 62
255 124 62
255 124 62
255 124 62
255 124 62
255 124 62
255 124 62
255 124 62
255 124 62
255 124 62
255 124 62
255 124 62
255 124 62
255 124 62
255 124 62
255 124 62
255 124 62
255 124 62
255 124 62
255 124 62
255 124 62
255 124 62
255 124 62
255 124 62
255 124 62
255 124 62
255 124 62
255 124 62
255 124 62
255 124 62
255 124 62
255 124 62
255 124 62
255 124 62
255 124 62
255 124 62
255 124 62
255 124 62
255 124 62
255 124 62
255 124 62
255 124 62
255 124 62
255 124 62
255 124 62
255 124 62
255 124 62
255 125 62
255 125 62
255 125 62
255 125 62
255 125 62
255 125 62
255 125 62
255 125 62
255 125 62
255 125 62
255 125 62
255 125 62
255 125 62
255 125 62
255 125 62
255 125 62
255 125 62
255 125 62
255 125 62
255 125 62
255 125 62
255 125 62
255 125 62
255 125 62
255 125 62
255 125 62
255 125 62
255 125 62
255 125 62
255 125 62
255 125 62
255 125 62
255 125 62
255 125 62
255 125 62
255 125 62
255 125 62
255 125 62
255 125 62
255 125 62
255 125 62
255 125 62
255 125 62
255 125 62
255 125 62
255 125 62
255 125 62
255 125 62
255 125 62
255 125 62
255 125 62
255 125 62
255 125 62
255 125 62
255 125 62
255 125 62
255 125 62
255 125 62
255 125 62
255 125 62
255 125 62
255 125 62
255 125 62
255 125 62
255 125 62
255 125 62
255 125 62
255 125 62
255 125 62
255 125 62
255 125 62
255 125 62
255 126 63
255 126 63
255 126 63
255 126 63
255 126 63
255 126 63
255 126 63
255 126 63
255 126 63
255 126 63
255 126 63
255 126 63
255 126 63
255 126 63
255 126 63
255 126 63
255 126 63
255 126 63
255 126 63
255 126 63
255 126 63
255 126 63
255 126 63
255 126 63
255 126 63
255 126 63
255 126 63
255 126 63
255 126 63
255 126 63
255 126 63
255 126 63
255 126 63
255 126 63
255 126 63
255 126 63
255 126 63
255 126 63
255 126 63
255 126 63
255 126 63
255 126 63
255 126 63
255 126 63
255 126 63
255 126 63
255 126 63
255 126 63
255 126 63
255 126 63
255 126 63
255 126 63
255 126 63
255 126 63
255 126 63
255 126 63
255 126 63
255 126 63
255 126 63
255 126 63
255 126 63
255 126 63
255 126 63
255 126 63
255 126 63
255 126 63
255 126 63
255 126 63
255 126 63
255 126 63
255 126 63
255 126 63
255 127 63
255 127 63
255 127 63
255 127 63
255 127 63
255 127 63
255 127 63
255 127 63
255 127 63
255 127 63
255 127 63
255 127 63
255 127 63
255 127 63
255 127 63
255 127 63
255 127 63
255 127 63
255 127 63
255 127 63
255 127 63
255 127 63
255 127 63
255 127 63
255 127 63
255 127 63
255 127 63
255 127 63
255 127 63
255 127 63
255 127 63
255 127 63
255 127 63
255 127 63
255 127 63
255 127 63
255 127 63
255 127 63
255 127 63
255 127 63
255 127 63
255 127 63
255 127 63
255 127 63
255 127 63
255 127 63
255 127 63
255 127 63
255 127 63
255 127 63
255 127 63
255 127 63
255 127 63
255 127 63
255 127 63
255 127 63
255 127 63
255 127 63
255 127 63
255 127 63
255 127 63
255 127 63
255 127 63
255 127 63
255 127 63
255 127 63
255 127 63
255 127 63
255 127 63
255 127 63
255 127 63
255 127 63
255 128 64
255 128 64
255 128 64
255 128 64
255 128 64
255 128 64
255 128 64
255 128 64
255 128 64
255 128 64
255 128 64
255 128 64
255 128 64
255 128 64
255 128 64
255 128 64
255 128 64
255 128 64
255 128 64
255 128 64
255 128 64
255 128 64
255 128 64
255 128 64
255 128 64
255 128 64
255 128 64
255 128 64
255 128 64
255 128 64
255 128 64
255 128 64
255 128 64
255 128 64
255 128 64
255 128 64
255 128 64
255 128 64
255 128 64
255 128 64
255 128 64
255 128 64
255 128 64
255 128 64
255 128 64
255 128 64
255 128 64
255 128 64
255 128 64
255 128 64
255 128 64
255 128 64
255 128 64
255 128 64
255 128 64
255 128 64
255 128 64
255 128 64
255 128 64
255 128 64
255 128 64
255 128 64
255 128 64
255 128 64
255 128 64
255 128 64
255 128 64
255 128 64
255 128 64
255 128 64
255 128 64
255 128 64
255 129 65
255 129 65
255 129 65
255 129 65
255 129 65
255 129 65
255 129 65
255 129 65
255 129 65
255 129 65
255 129 65
255 129 65
255 129 65
255 129 65
255 129 65
255 129 65
255 129 65
255 129 65
255 129 65
255 129 65
255 129 65
255 129 65
255 129 65
255 129 65
255 129 65
255 129 65
255 129 65
255 129 65
255 129 65
255 129 65
255 129 65
255 129 65
255 129 65
255 129 65
255 129 65
255 129 65
255 129 65
255 129 65
255 129 65
255 129 65
255 129 65
255 129 65
255 129 65
255 129 65
255 129 65
255 129 65
255 129 65
255 129 65
255 129 65
255 129 65
255 129 65
255 129 65
255 129 65
255 129 65
255 129 65
255 129 65
255 129 65
255 129 65
255 129 65
255 129 65
255 129 65
255 129 65
255 129 65
255 129 65
255 129 65
255 129 65
255 129 65
255 129 65
255 129 65
255 129 65
255 129 65
255 129 65
255 130 65
255 130 65
255 130 65
255 130 65
255 130 65
255 130 65
255 130 65
255 130 65
255 130 65
255 130 65
255 130 65
255 130 65
255 130 65
255 130 65
255 130 65
255 130 65
255 130 65
255 130 65
255 130 65
255 130 65
255 130 65
255 130 65
255 130 65
255 130 65
255 130 65
255 130 65
255 130 65
255 130 65
255 130 65
255 130 65
255 130 65
255 130 65
255 130 65
255 130 65
255 130 65
255 130 65
255 130 65
255 130 65
255 130 65
255 130 65
255 130 65
255 130 65
255 130 65
255 130 65
255 130 65
255 130 65
255 130 65
255 130 65
255 130 65
255 130 65
255 130 65
255 130 65
255 130 65
255 130 65
255 130 65
255 130 65
255 130 65
255 130 65
255 130 65
255 130 65
255 130 65
255 130 65
255 130 65
255 130 65
255 130 65
255 130 65
255 130 65
255 130 65
255 130 65
255 130 65
255 130 65
255 130 65
255 131 66
255 131 66
255 131 66
255 131 66
255 131 66
255 131 66
255 131 66
255 131 66
255 131 66
255 131 66
255 131 66
255 131 66
255 131 66
255 131 66
255 131 66
255 131 66
255 131 66
255 131 66
255 131 66
255 131 66
255 131 66
255 131 66
255 131 66
255 131 66
255 131 66
255 131 66
255 131 66
255 131 66
255 131 66
255 131 66
255 131 66
255 131 66
255 131 66
255 131 66
255 131 66
255 131 66
255 131 66
255 131 66
255 131 66
255 131 66
255 131 66
255 131 66
255 131 66
255 131 66
255 131 66
255 131 66
255 131 66
255 131 66
255 131 66
255 131 66
255 131 66
255 131 66
255 131 66
255 131 66
255 131 66
255 131 66
255 131 66
255 131 66
255 131 66
255 131 66
255 131 66
255 131 66
255 131 66
255 131 66
255 131 66
255 131 66
255 131 66
255 131 66
255 131 66
255 131 66
255 131 66
255 131 66
0 0 0
0 0 0
0 0 0
0 0 0
0 0 0
0 0 0
0 0 0
0 0 0
0 0 0
0 0 0
0 0 0
0 0 0
0 0 0
0 0 0
255 132 66
255 132 66
255 132 66
255 132 66
255 132 66
255 132 66
255 132 66
255 132 66
255 132 66
255 132 66
255 132 66
255 132 66
255 132 66
255 132 66
255 132 66
255 132 66
255 132 66
255 132 66
255 132 66
255 132 66
255 132 66
255 132 66
255 132 66
255 132 66
255 132 66
255 132 66
255 132 66
255 132 66
255 132 66
255 132 66
255 132 66
255 132 66
255 132 66
255 132 66
255 132 66
255 132 66
255 132 66
255 132 66
255 132 66
255 132 66
255 132 66
255 132 66
255 132 66
255 132 66
255 132 66
255 132 66
255 132 66
255 132 66
255 132 66
255 132 66
255 132 66
255 132 66
255 132 66
255 132 66
255 132 66
255 132 66
255 132 66
255 132 66
0 0 0
0 0 0
0 0 0
0 0 0
0 0 0
0 0 0
0 0 0
0 0 0
0 0 0
0 0 0
0 0 0
0 0 0
0 0 0
0 0 0
255 134 67
255 134 67
255 134 67
255 134 67
255 134 67
255 134 67
255 134 67
255 134 67
255 134 67
255 134 67
255 134 67
255 134 67
255 134 67
255 134 67
255 134 67
255 134 67
255 134 67
255 134 67
255 134 67
255 134 67
255 134 67
255 134 67
255 134 67
255 134 67
255 134 67
255 134 67
255 134 67
255 134 67
255 134 67
255 134 67
255 134 67
255 134 67
255 134 67
255 134 67
255 134 67
255 134 67
255 134 67
255 134 67
255 134 67
255 134 67
255 134 67
255 134 67
255 134 67
255 134 67
255 134 67
255 134 67
255 134 67
255 134 67
255 134 67
255 134 67
255 134 67
255 134 67
255 134 67
255 134 67
255 134 67
255 134 67
255 134 67
255 134 67
0 0 0
0 0 0
0 0 0
0 0 0
0 0 0
0 0 0
0 0 0
0 0 0
0 0 0
0 0 0
0 0 0
0 0 0
0 0 0
0 0 0
255 135 67
255 135 67
255 135 67
255 135 67
255 135 67
255 135 67
255 135 67
255 135 67
255 135 67
255 135 67
255 135 67
255 135 67
255 135 67
255 135 67
255 135 67
255 135 67
255 135 67
255 135 67
255 135 67
255 135 67
255 135 67
255 135 67
255 135 67
255 135 67
255 135 67
255 135 67
255 135 67
255 135 67
255 135 67
255 135 67
255 135 67
255 135 67
255 135 67
255 135 67
255 135 67
255 135 67
255 135 67
255 135 67
255 135 67
255 135 67
255 135 67
255 135 67
255 135 67
255 135 67
255 135 67
255 135 67
255 135 67
255 135 67
255 135 67
255 135 67
255 135 67
255 135 67
255 135 67
255 135 67
255 135 67
255 135 67
255 135 67
255 135 67
255 136 68
255 136 68
255 136 68
255 136 68
255 136 68
255 136 68
255 136 68
255 136 68
255 136 68
255 136 68
255 136 68
255 136 68
255 136 68
255 136 68
255 136 68
255 136 68
255 136 68
255 136 68
255 136 68
255 136 68
255 136 68
255 136 68
255 136 68
255 136 68
255 136 68
255 136 68
255 136 68
255 136 68
255 136 68
255 136 68
255 136 68
255 136 68
255 136 68
255 136 68
255 136 68
255 136 68
255 136 68
255 136 68
255 136 68
255 136 68
255 136 68
255 136 68
255 136 68
255 136 68
255 136 68
255 136 68
255 136 68
255 136 68
255 136 68
255 136 68
255 136 68
255 136 68
255 136 68
255 136 68
255 136 68
255 136 68
255 136 68
255 136 68
255 136 68
255 136 68
255 136 68
255 136 68
255 136 68
255 136 68
255 136 68
255 136 68
255 136 68
255 136 68
255 136 68
255 136 68
255 136 68
255 136 68
255 137 68
255 137 68
255 137 68
255 137 68
255 137 68
255 137 68
255 137 68
255 137 68
255 137 68
255 137 68
255 137 68
255 137 68
255 137 68
255 137 68
255 137 68
255 137 68
255 137 68
255 137 68
255 137 68
255 137 68
255 137 68
255 137 68
255 137 68
255 137 68
255 137 68
255 137 68
255 137 68
255 137 68
255 137 68
255 137 68
255 137 68
255 137 68
255 137 68
255 137 68
255 137 68
255 137 68
255 137 68
255 137 68
255 137 68
255 137 68
255 137 68
255 137 68
255 137 68
255 137 68
255 137 68
255 137 68
255 137 68
255 137 68
255 137 68
255 137 68
255 137 68
255 137 68
255 137 68
255 137 68
255 137 68
255 137 68
255 137 68
255 137 68
255 137 68
255 137 68
255 137 68
255 137 68
255 137 68
255 137 68
255 137 68
255 137 68
255 137 68
255 137 68
255 137 68
255 137 68
255 137 68
255 137 68
255 138 69
255 138 69
255 138 69
255 138 69
255 138 69
255 138 69
255 138 69
255 138 69
255 138 69
255 138 69
255 138 69
255 138 69
255 138 69
255 138 69
255 138 69
255 138 69
255 138 69
255 138 69
255 138 69
255 138 69
255 138 69
255 138 69
255 138 69
255 138 69
255 138 69
255 138 69
255 138 69
255 138 69
255 138 69
255 138 69
255 138 69
255 138 69
255 138 69
255 138 69
255 138 69
255 138 69
255 138 69
255 138 69
255 138 69
255 138 69
255 138 69
255 138 69
255 138 69
255 138 69
255 138 69
255 138 69
255 138 69
255 138 69
255 138 69
255 138 69
255 138 69
255 138 69
255 138 69
255 138 69
255 138 69
255 138 69
255 138 69
255 138 69
255 138 69
255 138 69
255 138 69
255 138 69
255 138 69
255 138 69
255 138 69
255 138 69
255 138 69
255 138 69
255 138 69
255 138 69
255 138 69
255 138 69
255 139 69
255 139 69
255 139 69
255 139 69
255 139 69
255 139 69
255 139 69
255 139 69
255 139 69
255 139 69
255 139 69
255 139 69
255 139 69
255 139 69
255 139 69
255 139 69
255 139 69
255 139 69
255 139 69
255 139 69
255 139 69
255 139 69
255 139 69
255 139 69
255 139 69
255 139 69
255 139 69
255 139 69
255 139 69
255 139 69
255 139 69
255 139 69
255 139 69
255 139 69
255 139 69
255 139 69
255 139 69
255 139 69
255 139 69
255 139 69
255 139 69
255 139 69
255 139 69
255 139 69
255 139 69
255 139 69
255 139 69
255 139 69
255 139 69
255 139 69
255 139 69
255 139 69
255 139 69
255 139 69
255 139 69
255 139 69
255 139 69
255 139 69
255 139 69
255 139 69
255 139 69
255 139 69
255 139 69
255 139 69
255 139 69
255 139 69
255 139 69
255 139 69
255 139 69
255 139 69
255 139 69
255 139 69
255 140 70
255 140 70
255 140 70
255 140 70
255 140 70
255 140 70
255 140 70
255 140 70
255 140 70
255 140 70
255 140 70
255 140 70
255 140 70
255 140 70
255 140 70
255 140 70
255 140 70
255 140 70
255 140 70
255 140 70
255 140 70
255 140 70
255 140 70
255 140 70
255 140 70
255 140 70
255 140 70
255 140 70
255 140 70
255 140 70
255 140 70
255 140 70
255 140 70
255 140 70
255 140 70
255 140 70
255 140 70
255 140 70
255 140 70
255 140 70
255 140 70
255 140 70
255 140 70
255 140 70
255 140 70
255 140 70
255 140 70
255 140 70
255 140 70
255 140 70
255 140 70
255 140 70
255 140 70
255 140 70
255 140 70
255 140 70
255 140 70
255 140 70
255 140 70
255 140 70
255 140 70
255 140 70
255 140 70
255 140 70
255 140 70
255 140 70
255 140 70
255 140 70
255 140 70
255 140 70
255 140 70
255 140 70
255 141 71
255 141 71
255 141 71
255 141 71
255 141 71
255 141 71
255 141 71
255 141 71
255 141 71
255 141 71
255 141 71
255 141 71
255 141 71
255 141 71
255 141 71
255 141 71
255 141 71
255 141 71
255 141 71
255 141 71
255 141 71
255 141 71
255 141 71
255 141 71
255 141 71
255 141 71
255 141 71
255 141 71
255 141 71
255 141 71
255 141 71
255 141 71
255 141 71
255 141 71
255 141 71
255 141 71
255 141 71
255 141 71
255 141 71
255 141 71
255 141 71
255 141 71
255 141 71
255 141 71
255 141 71
255 141 71
255 141 71
255 141 71
255 141 71
255 141 71
255 141 71
255 141 71
255 141 71
255 141 71
255 141 71
255 141 71
255 141 71
255 141 71
255 141 71
255 141 71
255 141 71
255 141 71
255 141 71
255 141 71
255 141 71
255 141 71
255 141 71
255 141 71
255 141 71
255 141 71
255 141 71
255 141 71
255 142 71
255 142 71
255 142 71
255 142 71
255 142 71
255 142 71
255 142 71
255 142 71
255 142 71
255 142 71
255 142 71
255 142 71
255 142 71
255 142 71
255 142 71
255 142 71
255 142 71
255 142 71
255 142 71
255 142 71
255 142 71
255 142 71
255 142 71
255 142 71
255 142 71
255 142 71
255 142 71
255 142 71
255 142 71
255 142 71
255 142 71
255 142 71
255 142 71
255 142 71
255 142 71
255 142 71
255 142 71
255 142 71
255 142 71
255 142 71
255 142 71
255 142 71
255 142 71
255 142 71
255 142 71
255 142 71
255 142 71
255 142 71
255 142 71
255 142 71
255 142 71
255 142 71
255 142 71
255 142 71
255 142 71
255 142 71
255 142 71
255 142 71
255 142 71
255 142 71
255 142 71
255 142 71
255 142 71
255 142 71
255 142 71
255 142 71
255 142 71
255 142 71
255 142 71
255 142 71
255 142 71
255 142 71
255 143 72
255 143 72
255 143 72
255 143 72
255 143 72
255 143 72
255 143 72
255 143 72
255 143 72
255 143 72
255 143 72
255 143 72
255 143 72
255 143 72
255 143 72
255 143 72
255 143 72
255 143 72
255 143 72
255 143 72
255 143 72
255 143 72
255 143 72
255 143 72
255 143 72
255 143 72
255 143 72
255 143 72
255 143 72
255 143 72
255 143 72
255 143 72
255 143 72
255 143 72
255 143 72
255 143 72
255 143 72
255 143 72
255 143 72
255 143 72
255 143 72
255 143 72
255 143 72
255 143 72
255 143 72
255 143 72
255 143 72
255 143 72
255 143 72
255 143 72
255 143 72
255 143 72
255 143 72
255 143 72
255 143 72
255 143 72
255 143 72
255 143 72
255 143 72
255 143 72
255 143 72
255 143 72
255 143 72
255 143 72
255 143 72
255 143 72
255 143 72
255 143 72
255 143 72
255 143 72
255 143 72
255 143 72
255 144 72
255 144 72
255 144 72
255 144 72
255 144 72
255 144 72
255 144 72
255 144 72
255 144 72
255 144 72
255 144 72
255 144 72
255 144 72
255 144 72
255 144 72
255 144 72
255 144 72
255 144 72
255 144 72
255 144 72
255 144 72
255 144 72
255 144 72
255 144 72
255 144 72
255 144 72
255 144 72
255 144 72
255 144 72
255 144 72
255 144 72
255 144 72
255 144 72
255 144 72
255 144 72
255 144 72
255 144 72
255 144 72
255 144 72
255 144 72
255 144 72
255 144 72
255 144 72
255 144 72
255 144 72
255 144 72
255 144 72
255 144 72
255 144 72
255 144 72
255 144 72
255 144 72
255 144 72
255 144 72
255 144 72
255 144 72
255 144 72
255 144 72
255 144 72
255 144 72
255 144 72
255 144 72
255 144 72
255 144 72
255 144 72
255 144 72
255 144 72
255 144 72
255 144 72
255 144 72
255 144 72
255 144 72
255 146 73
255 146 73
255 146 73
255 146 73
255 146 73
255 146 73
255 146 73
255 146 73
255 146 73
255 146 73
255 146 73
255 146 73
255 146 73
255 146 73
255 146 73
255 146 73
255 146 73
255 146 73
255 146 73
255 146 73
255 146 73
255 146 73
255 146 73
255 146 73
255 146 73
255 146 73
255 146 73
255 146 73
255 146 73
255 146 73
255 146 73
255 146 73
255 146 73
255 146 73
255 146 73
255 146 73
255 146 73
255 146 73
255 146 73
255 146 73
255 146 73
255 146 73
255 146 73
255 146 73
255 146 73
255 146 73
255 146 73
255 146 73
255 146 73
255 146 73
255 146 73
255 146 73
255 146 73
255 146 73
255 146 73
255 146 73
255 146 73
255 146 73
255 146 73
255 146 73
255 146 73
255 146 73
255 146 73
255 146 73
255 146 73
255 146 73
255 146 73
255 146 73
255 146 73
255 146 73
255 146 73
255 146 73
255 147 73
255 147 73
255 147 73
255 147 73
255 147 73
255 147 73
255 147 73
255 147 73
255 147 73
255 147 73
255 147 73
255 147 73
255 147 73
255 147 73
255 147 73
255 147 73
255 147 73
255 147 73
255 147 73
255 147 73
255 147 73
255 147 73
255 147 73
255 147 73
255 147 73
255 147 73
255 147 73
255 147 73
255 147 73
255 147 73
255 147 73
255 147 73
255 147 73
255 147 73
255 147 73
255 147 73
255 147 73
255 147 73
255 147 73
255 147 73
255 147 73
255 147 73
255 147 73
255 147 73
255 147 73
255 147 73
255 147 73
255 147 73
255 147 73
255 147 73
255 147 73
255 147 73
255 147 73
255 147 73
255 147 73
255 147 73
255 147 73
255 147 73
255 147 73
255 147 73
255 147 73
255 147 73
255 147 73
255 147 73
255 147 73
255 147 73
255 147 73
255 147 73
255 147 73
255 147 73
255 147 73
255 147 73
255 148 74
255 148 74
255 148 74
255 148 74
255 148 74
255 148 74
255 148 74
255 148 74
255 148 74
255 148 74
255 148 74
255 148 74
255 148 74
255 148 74
255 148 74
255 148 74
255 148 74
255 148 74
255 148 74
255 148 74
255 148 74
255 148 74
255 148 74
255 148 74
255 148 74
255 148 74
255 148 74
255 148 74
255 148 74
255 148 74
255 148 74
255 148 74
255 148 74
255 148 74
255 148 74
255 148 74
255 148 74
255 148 74
255 148 74
255 148 74
255 148 74
255 148 74
255 148 74
255 148 74
255 148 74
255 148 74
255 148 74
255 148 74
255 148 74
255 148 74
255 148 74
255 148 74
255 148 74
255 148 74
255 148 74
255 148 74
255 148 74
255 148 74
255 148 74
255 148 74
255 148 74
255 148 74
255 148 74
255 148 74
255 148 74
255 148 74
255 148 74
255 148 74
255 148 74
255 148 74
255 148 74
255 148 74
255 149 74
255 149 74
255 149 74
255 149 74
255 149 74
255 149 74
255 149 74
255 149 74
255 149 74
255 149 74
255 149 74
255 149 74
255 149 74
255 149 74
255 149 74
255 149 74
255 149 74
255 149 74
255 149 74
255 149 74
255 149 74
255 149 74
255 149 74
255 149 74
255 149 74
255 149 74
255 149 74
255 149 74
255 149 74
255 149 74
255 149 74
255 149 74
255 149 74
255 149 74
255 149 74
255 149 74
255 149 74
255 149 74
255 149 74
255 149 74
255 149 74
255 149 74
255 149 74
255 149 74
255 149 74
255 149 74
255 149 74
255 149 74
255 149 74
255 149 74
255 149 74
255 149 74
255 149 74
255 149 74
255 149 74
255 149 74
255 149 74
255 149 74
255 149 74
255 149 74
255 149 74
255 149 74
255 149 74
255 149 74
255 149 74
255 149 74
255 149 74
255 149 74
255 149 74
255 149 74
255 149 74
255 149 74
255 150 75
255 150 75
255 150 75
255 150 75
255 150 75
255 150 75
255 150 75
255 150 75
255 150 75
255 150 75
255 150 75
255 150 75
255 150 75
255 150 75
255 150 75
255 150 75
255 150 75
255 150 75
255 150 75
255 150 75
255 150 75
255 150 75
255 150 75
255 150 75
255 150 75
255 150 75
255 150 75
255 150 75
255 150 75
255 150 75
255 150 75
255 150 75
255 150 75
255 150 75
255 150 75
255 150 75
255 150 75
255 150 75
255 150 75
255 150 75
255 150 75
255 150 75
255 150 75
255 150 75
255 150 75
255 150 75
255 150 75
255 150 75
255 150 75
255 150 75
255 150 75
255 150 75
255 150 75
255 150 75
255 150 75
255 150 75
255 150 75
255 150 75
255 150 75
255 150 75
255 150 75
255 150 75
255 150 75
255 150 75
255 150 75
255 150 75
255 150 75
255 150 75
255 150 75
255 150 75
255 150 75
255 150 75
255 151 76
255 151 76
255 151 76
255 151 76
255 151 76
255 151 76
255 151 76
255 151 76
255 151 76
255 151 76
255 151 76
255 151 76
255 151 76
255 151 76
255 151 76
255 151 76
255 151 76
255 151 76
255 151 76
255 151 76
255 151 76
255 151 76
255 151 76
255 151 76
255 151 76
255 151 76
255 151 76
255 151 76
255 151 76
255 151 76
255 151 76
255 151 76
255 151 76
255 151 76
255 151 76
255 151 76
255 151 76
255 151 76
255 151 76
255 151 76
255 151 76
255 151 76
255 151 76
255 151 76
255 151 76
255 151 76
255 151 76
255 151 76
255 151 76
255 151 76
255 151 76
255 151 76
255 151 76
255 151 76
255 151 76
255 151 76
255 151 76
255 151 76
255 151 76
255 151 76
255 151 76
255 151 76
255 151 76
255 151 76
255 151 76
255 151 76
255 151 76
255 151 76
255 151 76
255 151 76
255 151 76
255 151 76
255 152 76
255 152 76
255 152 76
255 152 76
255 152 76
255 152 76
255 152 76
255 152 76
255 152 76
255 152 76
255 152 76
255 152 76
255 152 76
255 152 76
255 152 76
255 152 76
255 152 76
255 152 76
255 152 76
255 152 76
255 152 76
255 152 76
255 152 76
255 152 76
255 152 76
255 152 76
255 152 76
255 152 76
255 152 76
255 152 76
255 152 76
255 152 76
255 152 76
255 152 76
255 152 76
255 152 76
255 152 76
255 152 76
255 152 76
255 152 76
255 152 76
255 152 76
255 152 76
255 152 76
255 152 76
255 152 76
255 152 76
255 152 76
255 152 76
255 152 76
255 152 76
255 152 76
255 152 76
255 152 76
255 152 76
255 152 76
255 152 76
255 152 76
255 152 76
255 152 76
255 152 76
255 152 76
255 152 76
255 152 76
255 152 76
255 152 76
255 152 76
255 152 76
255 152 76
255 152 76
255 152 76
255 152 76
255 153 77
255 153 77
255 153 77
255 153 77
255 153 77
255 153 77
255 153 77
255 153 77
255 153 77
255 153 77
255 153 77
255 153 77
255 153 77
255 153 77
255 153 77
255 153 77
255 153 77
255 153 77
255 153 77
255 153 77
255 153 77
255 153 77
255 153 77
255 153 77
255 153 77
255 153 77
255 153 77
255 153 77
255 153 77
255 153 77
255 153 77
255 153 77
255 153 77
255 153 77
255 153 77
255 153 77
255 153 77
255 153 77
255 153 77
255 153 77
255 153 77
255 153 77
255 153 77
255 153 77
255 153 77
255 153 77
255 153 77
255 153 77
255 153 77
255 153 77
255 153 77
255 153 77
255 153 77
255 153 77
255 153 77
255 153 77
255 153 77
255 153 77
255 153 77
255 153 77
255 153 77
255 153 77
255 153 77
255 153 77
255 153 77
255 153 77
255 153 77
255 153 77
255 153 77
255 153 77
255 153 77
255 153 77
255 154 77
255 154 77
255 154 77
255 154 77
255 154 77
255 154 77
255 154 77
255 154 77
255 154 77
255 154 77
255 154 77
255 154 77
255 154 77
255 154 77
255 154 77
255 154 77
255 154 77
255 154 77
255 154 77
255 154 77
255 154 77
255 154 77
255 154 77
255 154 77
255 154 77
255 154 77
255 154 77
255 154 77
255 154 77
255 154 77
255 154 77
255 154 77
255 154 77
255 154 77
255 154 77
255 154 77
255 154 77
255 154 77
255 154 77
255 154 77
255 154 77
255 154 77
255 154 77
255 154 77
255 154 77
255 154 77
255 154 77
255 154 77
255 154 77
255 154 77
255 154 77
255 154 77
255 154 77
255 154 77
255 154 77
255 154 77
255 154 77
255 154 77
255 154 77
255 154 77
255 154 77
255 154 77
255 154 77
255 154 77
255 154 77
255 154 77
255 154 77
255 154 77
255 154 77
255 154 77
255 154 77
255 154 77
255 155 78
255 155 78
255 155 78
255 155 78
255 155 78
255 155 78
255 155 78
255 155 78
255 155 78
255 155 78
255 155 78
255 155 78
255 155 78
255 155 78
255 155 78
255 155 78
255 155 78
255 155 78
255 155 78
255 155 78
255 155 78
255 155 78
255 155 78
255 155 78
255 155 78
255 155 78
255 155 78
255 155 78
255 155 78
255 155 78
255 155 78
255 155 78
255 155 78
255 155 78
255 155 78
255 155 78
255 155 78
255 155 78
255 155 78
255 155 78
255 155 78
255 155 78
255 155 78
255 155 78
255 155 78
255 155 78
255 155 78
255 155 78
255 155 78
255 155 78
255 155 78
255 155 78
255 155 78
255 155 78
255 155 78
255 155 78
255 155 78
255 155 78
255 155 78
255 155 78
255 155 78
255 155 78
255 155 78
255 155 78
255 155 78
255 155 78
255 155 78
255 155 78
255 155 78
255 155 78
255 155 78
255 155 78
255 157 78
255 157 78
255 157 78
255 157 78
255 157 78
255 157 78
255 157 78
255 157 78
255 157 78
255 157 78
255 157 78
255 157 78
255 157 78
255 157 78
255 157 78
255 157 78
255 157 78
255 157 78
255 157 78
255 157 78
255 157 78
255 157 78
255 157 78
255 157 78
255 157 78
255 157 78
255 157 78
255 157 78
255 157 78
255 157 78
255 157 78
255 157 78
255 157 78
255 157 78
255 157 78
255 157 78
255 157 78
255 157 78
255 157 78
255 157 78
255 157 78
255 157 78
255 157 78
255 157 78
255 157 78
255 157 78
255 157 78
255 157 78
255 157 78
255 157 78
255 157 78
255 157 78
255 157 78
255 157 78
255 157 78
255 157 78
255 157 78
255 157 78
255 157 78
255 157 78
255 157 78
255 157 78
255 157 78
255 157 78
255 157 78
255 157 78
255 157 78
255 157 78
255 157 78
255 157 78
255 157 78
255 157 78
255 158 79
255 158 79
255 158 79
255 158 79
255 158 79
255 158 79
255 158 79
255 158 79
255 158 79
255 158 79
255 158 79
255 158 79
255 158 79
255 158 79
255 158 79
255 158 79
255 158 79
255 158 79
255 158 79
255 158 79
255 158 79
255 158 79
255 158 79
255 158 79
255 158 79
255 158 79
255 158 79
255 158 79
255 158 79
255 158 79
255 158 79
255 158 79
255 158 79
255 158 79
255 158 79
255 158 79
255 158 79
255 158 79
255 158 79
255 158 79
255 158 79
255 158 79
255 158 79
255 158 79
255 158 79
255 158 79
255 158 79
255 158 79
255 158 79
255 158 79
255 158 79
255 158 79
255 158 79
255 158 79
255 158 79
255 158 79
255 158 79
255 158 79
255 158 79
255 158 79
255 158 79
255 158 79
255 158 79
255 158 79
255 158 79
255 158 79
255 158 79
255 158 79
255 158 79
255 158 79
255 158 79
255 158 79
255 159 79
255 159 79
255 159 79
255 159 79
255 159 79
255 159 79
255 159 79
255 159 79
255 159 79
255 159 79
255 159 79
255 159 79
255 159 79
255 159 79
255 159 79
255 159 79
255 159 79
255 159 79
255 159 79
255 159 79
255 159 79
255 159 79
255 159 79
255 159 79
255 159 79
255 159 79
255 159 79
255 159 79
255 159 79
255 159 79
255 159 79
255 159 79
255 159 79
255 159 79
255 159 79
255 159 79
255 159 79
255 159 79
255 159 79
255 159 79
255 159 79
255 159 79
255 159 79
255 159 79
255 159 79
255 159 79
255 159 79
255 159 79
255 159 79
255 159 79
255 159 79
255 159 79
255 159 79
255 159 79
255 159 79
255 159 79
255 159 79
255 159 79
255 159 79
255 159 79
255 159 79
255 159 79
255 159 79
255 159 79
255 159 79
255 159 79
255 159 79
255 159 79
255 159 79
255 159 79
255 159 79
255 159 79
255 160 80
255 160 80
255 160 80
255 160 80
255 160 80
255 160 80
255 160 80
255 160 80
255 160 80
255 160 80
255 160 80
255 160 80
255 160 80
255 160 80
255 160 80
255 160 80
255 160 80
255 160 80
255 160 80
255 160 80
255 160 80
255 160 80
255 160 80
255 160 80
255 160 80
255 160 80
255 160 80
255 160 80
255 160 80
255 160 80
255 160 80
255 160 80
255 160 80
255 160 80
255 160 80
255 160 80
255 160 80
255 160 80
255 160 80
255 160 80
255 160 80
255 160 80
255 160 80
255 160 80
255 160 80
255 160 80
255 160 80
255 160 80
255 160 80
255 160 80
255 160 80
255 160 80
255 160 80
255 160 80
255 160 80
255 160 80
255 160 80
255 160 80
255 160 80
255 160 80
255 160 80
255 160 80
255 160 80
255 160 80
255 160 80
255 160 80
255 160 80
255 160 80
255 160 80
255 160 80
255 160 80
255 160 80
255 161 80
255 161 80
255 161 80
255 161 80
255 161 80
255 161 80
255 161 80
255 161 80
255 161 80
255 161 80
255 161 80
255 161 80
255 161 80
255 161 80
255 161 80
255 161 80
255 161 80
255 161 80
255 161 80
255 161 80
255 161 80
255 161 80
255 161 80
255 161 80
255 161 80
255 161 80
255 161 80
255 161 80
255 161 80
255 161 80
255 161 80
255 161 80
255 161 80
255 161 80
255 161 80
255 161 80
255 161 80
255 161 80
255 161 80
255 161 80
255 161 80
255 161 80
255 161 80
255 161 80
255 161 80
255 161 80
255 161 80
255 161 80
255 161 80
255 161 80
255 161 80
255 161 80
255 161 80
255 161 80
255 161 80
255 161 80
255 161 80
255 161 80
255 161 80
255 161 80
255 161 80
255 161 80
255 161 80
255 161 80
255 161 80
255 161 80
255 161 80
255 161 80
255 161 80
255 161 80
255 161 80
255 161 80
255 162 81
255 162 81
255 162 81
255 162 81
255 162 81
255 162 81
255 162 81
255 162 81
255 162 81
255 162 81
255 162 81
255 162 81
255 162 81
255 162 81
255 162 81
255 162 81
255 162 81
255 162 81
255 162 81
255 162 81
255 162 81
255 162 81
255 162 81
255 162 81
255 162 81
255 162 81
255 162 81
255 162 81
255 162 81
255 162 81
255 162 81
255 162 81
255 162 81
255 162 81
255 162 81
255 162 81
255 162 81
255 162 81
255 162 81
255 162 81
255 162 81
255 162 81
255 162 81
255 162 81
255 162 81
255 162 81
255 162 81
255 162 81
255 162 81
255 162 81
255 162 81
255 162 81
255 162 81
255 162 81
255 162 81
255 162 81
255 162 81
255 162 81
255 162 81
255 162 81
255 162 81
255 162 81
255 162 81
255 162 81
255 162 81
255 162 81
255 162 81
255 162 81
255 162 81
255 162 81
255 162 81
255 162 81
255 163 82
255 163 82
255 163 82
255 163 82
255 163 82
255 163 82
255 163 82
255 163 82
255 163 82
255 163 82
255 163 82
255 163 82
255 163 82
255 163 82
255 163 82
255 163 82
255 163 82
255 163 82
255 163 82
255 163 82
255 163 82
255 163 82
255 163 82
255 163 82
255 163 82
255 163 82
255 163 82
255 163 82
255 163 82
255 163 82
255 163 82
255 163 82
255 163 82
255 163 82
255 163 82
255 163 82
255 163 82
255 163 82
255 163 82
255 163 82
255 163 82
255 163 82
255 163 82
255 163 82
255 163 82
255 163 82
255 163 82
255 163 82
255 163 82
255 163 82
255 163 82
255 163 82
255 163 82
255 163 82
255 163 82
255 163 82
255 163 82
255 163 82
255 163 82
255 163 82
255 163 82
255 163 82
255 163 82
255 163 82
255 163 82
255 163 82
255 163 82
255 163 82
255 163 82
255 163 82
255 163 82
255 163 82
255 164 82
255 164 82
255 164 82
255 164 82
255 164 82
255 164 82
255 164 82
255 164 82
255 164 82
255 164 82
255 164 82
255 164 82
255 164 82
255 164 82
255 164 82
255 164 82
255 164 82
255 164 82
255 164 82
255 164 82
255 164 82
255 164 82
255 164 82
255 164 82
255 164 82
255 164 82
255 164 82
255 164 82
255 164 82
255 164 82
255 164 82
255 164 82
255 164 82
255 164 82
255 164 82
255 164 82
255 164 82
255 164 82
255 164 82
255 164 82
255 164 82
255 164 82
255 164 82
255 164 82
255 164 82
255 164 82
255 164 82
255 164 82
255 164 82
255 164 82
255 164 82
255 164 82
255 164 82
255 164 82
255 164 82
255 164 82
255 164 82
255 164 82
255 164 82
255 164 82
255 164 82
255 164 82
255 164 82
255 164 82
255 164 82
255 164 82
255 164 82
255 164 82
255 164 82
255 164 82
255 164 82
255 164 82
255 165 83
255 165 83
255 165 83
255 165 83
255 165 83
255 165 83
255 165 83
255 165 83
255 165 83
255 165 83
255 165 83
255 165 83
255 165 83
255 165 83
255 165 83
255 165 83
255 165 83
255 165 83
255 165 83
255 165 83
255 165 83
255 165 83
255 165 83
255 165 83
255 165 83
255 165 83
255 165 83
255 165 83
255 165 83
255 165 83
255 165 83
255 165 83
255 165 83
255 165 83
255 165 83
255 165 83
255 165 83
255 165 83
255 165 83
255 165 83
255 165 83
255 165 83
255 165 83
255 165 83
255 165 83
255 165 83
255 165 83
255 165 83
255 165 83
255 165 83
255 165 83
255 165 83
255 165 83
255 165 83
255 165 83
255 165 83
255 165 83
255 165 83
255 165 83
255 165 83
255 165 83
255 165 83
255 165 83
255 165 83
255 165 83
255 165 83
255 165 83
255 165 83
255 165 83
255 165 83
255 165 83
255 165 83
255 166 83
255 166 83
255 166 83
255 166 83
255 166 83
255 166 83
255 166 83
255 166 83
255 166 83
255 166 83
255 166 83
255 166 83
255 166 83
255 166 83
255 166 83
255 166 83
255 166 83
255 166 83
255 166 83
255 166 83
255 166 83
255 166 83
255 166 83
255 166 83
255 166 83
255 166 83
255 166 83
255 166 83
255 166 83
255 166 83
255 166 83
255 166 83
255 166 83
255 166 83
255 166 83
255 166 83
255 166 83
255 166 83
255 166 83
255 166 83
255 166 83
255 166 83
255 166 83
255 166 83
255 166 83
255 166 83
255 166 83
255 166 83
255 166 83
255 166 83
255 166 83
255 166 83
255 166 83
255 166 83
255 166 83
255 166 83
255 166 83
255 166 83
255 166 83
255 166 83
255 166 83
255 166 83
255 166 83
255 166 83
255 166 83
255 166 83
255 166 83
255 166 83
255 166 83
255 166 83
255 166 83
255 166 83
255 167 84
255 167 84
255 167 84
255 167 84
255 167 84
255 167 84
255 167 84
255 167 84
255 167 84
255 167 84
255 167 84
255 167 84
255 167 84
255 167 84
255 167 84
255 167 84
255 167 84
255 167 84
255 167 84
255 167 84
255 167 84
255 167 84
255 167 84
255 167 84
255 167 84
255 167 84
255 167 84
255 167 84
255 167 84
255 167 84
255 167 84
255 167 84
255 167 84
255 167 84
255 167 84
255 167 84
255 167 84
255 167 84
255 167 84
255 167 84
255 167 84
255 167 84
255 167 84
255 167 84
255 167 84
255 167 84
255 167 84
255 167 84
255 167 84
255 167 84
255 167 84
255 167 84
255 167 84
255 167 84
255 167 84
255 167 84
255 167 84
255 167 84
255 167 84
255 167 84
255 167 84
255 167 84
255 167 84
255 167 84
255 167 84
255 167 84
255 167 84
255 167 84
255 167 84
255 167 84
255 167 84
255 167 84
255 169 84
255 169 84
255 169 84
255 169 84
255 169 84
255 169 84
255 169 84
255 169 84
255 169 84
255 169 84
255 169 84
255 169 84
255 169 84
255 169 84
255 169 84
255 169 84
255 169 84
255 169 84
255 169 84
255 169 84
255 169 84
255 169 84
255 169 84
255 169 84
255 169 84
255 169 84
255 169 84
255 169 84
255 169 84
255 169 84
255 169 84
255 169 84
255 169 84
255 169 84
255 169 84
255 169 84
255 169 84
255 169 84
255 169 84
255 169 84
255 169 84
255 169 84
255 169 84
255 169 84
255 169 84
255 169 84
255 169 84
255 169 84
255 169 84
255 169 84
255 169 84
255 169 84
255 169 84
255 169 84
255 169 84
255 169 84
255 169 84
255 169 84
255 169 84
255 169 84
255 169 84
255 169 84
255 169 84
255 169 84
255 169 84
255 169 84
255 169 84
255 169 84
255 169 84
255 169 84
255 169 84
255 169 84
255 170 85
255 170 85
255 170 85
255 170 85
255 170 85
255 170 85
255 170 85
255 170 85
255 170 85
255 170 85
255 170 85
255 170 85
255 170 85
255 170 85
255 170 85
255 170 85
255 170 85
255 170 85
255 170 85
255 170 85
255 170 85
255 170 85
255 170 85
255 170 85
255 170 85
255 170 85
255 170 85
255 170 85
255 170 85
255 170 85
255 170 85
255 170 85
255 170 85
255 170 85
255 170 85
255 170 85
255 170 85
255 170 85
255 170 85
255 170 85
255 170 85
255 170 85
255 170 85
255 170 85
255 170 85
255 170 85
255 170 85
255 170 85
255 170 85
255 170 85
255 170 85
255 170 85
255 170 85
255 170 85
255 170 85
255 170 85
255 170 85
255 170 85
255 170 85
255 170 85
255 170 85
255 170 85
255 170 85
255 170 85
255 170 85
255 170 85
255 170 85
255 170 85
255 170 85
255 170 85
255 170 85
255 170 85
255 171 85
255 171 85
255 171 85
255 171 85
255 171 85
255 171 85
255 171 85
255 171 85
255 171 85
255 171 85
255 171 85
255 171 85
255 171 85
255 171 85
255 171 85
255 171 85
255 171 85
255 171 85
255 171 85
255 171 85
255 171 85
255 171 85
255 171 85
255 171 85
255 171 85
255 171 85
255 171 85
255 171 85
255 171 85
255 171 85
255 171 85
255 171 85
255 171 85
255 171 85
255 171 85
255 171 85
255 171 85
255 171 85
255 171 85
255 171 85
255 171 85
255 171 85
255 171 85
255 171 85
255 171 85
255 171 85
255 171 85
255 171 85
255 171 85
255 171 85
255 171 85
255 171 85
255 171 85
255 171 85
255 171 85
255 171 85
255 171 85
255 171 85
255 171 85
255 171 85
255 171 85
255 171 85
255 171 85
255 171 85
255 171 85
255 171 85
255 171 85
255 171 85
255 171 85
255 171 85
255 171 85
255 171 85
255 172 86
255 172 86
255 172 86
255 172 86
255 172 86
255 172 86
255 172 86
255 172 86
255 172 86
255 172 86
255 172 86
255 172 86
255 172 86
255 172 86
255 172 86
255 172 86
255 172 86
255 172 86
255 172 86
255 172 86
255 172 86
255 172 86
255 172 86
255 172 86
255 172 86
255 172 86
255 172 86
255 172 86
255 172 86
255 172 86
255 172 86
255 172 86
255 172 86
255 172 86
255 172 86
255 172 86
255 172 86
255 172 86
255 172 86
255 172 86
255 172 86
255 172 86
255 172 86
255 172 86
255 172 86
255 172 86
255 172 86
255 172 86
255 172 86
255 172 86
255 172 86
255 172 86
255 172 86
255 172 86
255 172 86
255 172 86
255 172 86
255 172 86
255 172 86
255 172 86
255 172 86
255 172 86
255 172 86
255 172 86
255 172 86
255 172 86
255 172 86
255 172 86
255 172 86
255 172 86
255 172 86
255 172 86
255 173 86
255 173 86
255 173 86
255 173 86
255 173 86
255 173 86
255 173 86
255 173 86
255 173 86
255 173 86
255 173 86
255 173 86
255 173 86
255 173 86
255 173 86
255 173 86
255 173 86
255 173 86
255 173 86
255 173 86
255 173 86
255 173 86
255 173 86
255 173 86
255 173 86
255 173 86
255 173 86
255 173 86
255 173 86
255 173 86
255 173 86
255 173 86
255 173 86
255 173 86
255 173 86
255 173 86
255 173 86
255 173 86
255 173 86
255 173 86
255 173 86
255 173 86
255 173 86
255 173 86
255 173 86
255 173 86
255 173 86
255 173 86
255 173 86
255 173 86
255 173 86
255 173 86
255 173 86
255 173 86
255 173 86
255 173 86
255 173 86
255 173 86
255 173 86
255 173 86
255 173 86
255 173 86
255 173 86
255 173 86
255 173 86
255 173 86
255 173 86
255 173 86
255 173 86
255 173 86
255 173 86
255 173 86
255 174 87
255 174 87
255 174 87
255 174 87
255 174 87
255 174 87
255 174 87
255 174 87
255 174 87
255 174 87
255 174 87
255 174 87
255 174 87
255 174 87
255 174 87
255 174 87
255 174 87
255 174 87
255 174 87
255 174 87
255 174 87
255 174 87
255 174 87
255 174 87
255 174 87
255 174 87
255 174 87
255 174 87
255 174 87
255 174 87
255 174 87
255 174 87
255 174 87
255 174 87
255 174 87
255 174 87
255 174 87
255 174 87
255 174 87
255 174 87
255 174 87
255 174 87
255 174 87
255 174 87
255 174 87
255 174 87
255 174 87
255 174 87
255 174 87
255 174 87
255 174 87
255 174 87
255 174 87
255 174 87
255 174 87
255 174 87
255 174 87
255 174 87
255 174 87
255 174 87
255 174 87
255 174 87
255 174 87
255 174 87
255 174 87
255 174 87
255 174 87
255 174 87
255 174 87
255 174 87
255 174 87
255 174 87
255 175 88
255 175 88
255 175 88
255 175 88
255 175 88
255 175 88
255 175 88
255 175 88
255 175 88
255 175 88
255 175 88
255 175 88
255 175 88
255 175 88
255 175 88
255 175 88
255 175 88
255 175 88
255 175 88
255 175 88
255 175 88
255 175 88
255 175 88
255 175 88
255 175 88
255 175 88
255 175 88
255 175 88
255 175 88
255 175 88
255 175 88
255 175 88
255 175 88
255 175 88
255 175 88
255 175 88
255 175 88
255 175 88
255 175 88
255 175 88
255 175 88
255 175 88
255 175 88
255 175 88
255 175 88
255 175 88
255 175 88
255 175 88
255 175 88
255 175 88
255 175 88
255 175 88
255 175 88
255 175 88
255 175 88
255 175 88
255 175 88
255 175 88
255 175 88
255 175 88
255 175 88
255 175 88
255 175 88
255 175 88
255 175 88
255 175 88
255 175 88
255 175 88
255 175 88
255 175 88
255 175 88
255 175 88
255 176 88
255 176 88
255 176 88
255 176 88
255 176 88
255 176 88
255 176 88
255 176 88
255 176 88
255 176 88
255 176 88
255 176 88
255 176 88
255 176 88
255 176 88
255 176 88
255 176 88
255 176 88
255 176 88
255 176 88
255 176 88
255 176 88
255 176 88
255 176 88
255 176 88
255 176 88
255 176 88
255 176 88
255 176 88
255 176 88
255 176 88
255 176 88
255 176 88
255 176 88
255 176 88
255 176 88
255 176 88
255 176 88
255 176 88
255 176 88
255 176 88
255 176 88
255 176 88
255 176 88
255 176 88
255 176 88
255 176 88
255 176 88
255 176 88
255 176 88
255 176 88
255 176 88
255 176 88
255 176 88
255 176 88
255 176 88
255 176 88
255 176 88
255 176 88
255 176 88
255 176 88
255 176 88
255 176 88
255 176 88
255 176 88
255 176 88
255 176 88
255 176 88
255 176 88
255 176 88
255 176 88
255 176 88
255 177 89
255 177 89
255 177 89
255 177 89
255 177 89
255 177 89
255 177 89
255 177 89
255 177 89
255 177 89
255 177 89
255 177 89
255 177 89
255 177 89
255 177 89
255 177 89
255 177 89
255 177 89
255 177 89
255 177 89
255 177 89
255 177 89
255 177 89
255 177 89
255 177 89
255 177 89
255 177 89
255 177 89
255 177 89
255 177 89
255 177 89
255 177 89
255 177 89
255 177 89
255 177 89
255 177 89
255 177 89
255 177 89
255 177 89
255 177 89
255 177 89
255 177 89
255 177 89
255 177 89
255 177 89
255 177 89
255 177 89
255 177 89
255 177 89
255 177 89
255 177 89
255 177 89
255 177 89
255 177 89
255 177 89
255 177 89
255 177 89
255 177 89
255 177 89
255 177 89
255 177 89
255 177 89
255 177 89
255 177 89
255 177 89
255 177 89
255 177 89
255 177 89
255 177 89
255 177 89
255 177 89
255 177 89
255 178 89
255 178 89
255 178 89
255 178 89
255 178 89
255 178 89
255 178 89
255 178 89
255 178 89
255 178 89
255 178 89
255 178 89
255 178 89
255 178 89
255 178 89
255 178 89
255 178 89
255 178 89
255 178 89
255 178 89
255 178 89
255 178 89
255 178 89
255 178 89
255 178 89
255 178 89
255 178 89
255 178 89
255 178 89
255 178 89
255 178 89
255 178 89
255 178 89
255 178 89
255 178 89
255 178 89
255 178 89
255 178 89
255 178 89
255 178 89
255 178 89
255 178 89
255 178 89
255 178 89
255 178 89
255 178 89
255 178 89
255 178 89
255 178 89
255 178 89
255 178 89
255 178 89
255 178 89
255 178 89
255 178 89
255 178 89
255 178 89
255 178 89
255 178 89
255 178 89
255 178 89
255 178 89
255 178 89
255 178 89
255 178 89
255 178 89
255 178 89
255 178 89
255 178 89
255 178 89
255 178 89
255 178 89
255 179 90
255 179 90
255 179 90
255 179 90
255 179 90
255 179 90
255 179 90
255 179 90
255 179 90
255 179 90
255 179 90
255 179 90
255 179 90
255 179 90
255 179 90
255 179 90
255 179 90
255 179 90
255 179 90
255 179 90
255 179 90
255 179 90
255 179 90
255 179 90
255 179 90
255 179 90
255 179 90
255 179 90
255 179 90
255 179 90
255 179 90
255 179 90
255 179 90
255 179 90
255 179 90
255 179 90
255 179 90
255 179 90
255 179 90
255 179 90
255 179 90
255 179 90
255 179 90
255 179 90
255 179 90
255 179 90
255 179 90
255 179 90
255 179 90
255 179 90
255 179 90
255 179 90
255 179 90
255 179 90
255 179 90
255 179 90
255 179 90
255 179 90
255 179 90
255 179 90
255 179 90
255 179 90
255 179 90
255 179 90
255 179 90
255 179 90
255 179 90
255 179 90
255 179 90
255 179 90
255 179 90
255 179 90
255 181 90
255 181 90
255 181 90
255 181 90
255 181 90
255 181 90
255 181 90
255 181 90
255 181 90
255 181 90
255 181 90
255 181 90
255 181 90
255 181 90
255 181 90
255 181 90
255 181 90
255 181 90
255 181 90
255 181 90
255 181 90
255 181 90
255 181 90
255 181 90
255 181 90
255 181 90
255 181 90
255 181 90
255 181 90
255 181 90
255 181 90
255 181 90
255 181 90
255 181 90
255 181 90
255 181 90
255 181 90
255 181 90
255 181 90
255 181 90
255 181 90
255 181 90
255 181 90
255 181 90
255 181 90
255 181 90
255 181 90
255 181 90
255 181 90
255 181 90
255 181 90
255 181 90
255 181 90
255 181 90
255 181 90
255 181 90
255 181 90
255 181 90
255 181 90
255 181 90
255 181 90
255 181 90
255 181 90
255 181 90
255 181 90
255 181 90
255 181 90
255 181 90
255 181 90
255 181 90
255 181 90
255 181 90
255 182 91
255 182 91
255 182 91
255 182 91
255 182 91
255 182 91
255 182 91
255 182 91
255 182 91
255 182 91
255 182 91
255 182 91
255 182 91
255 182 91
255 182 91
255 182 91
255 182 91
255 182 91
255 182 91
255 182 91
255 182 91
255 182 91
255 182 91
255 182 91
255 182 91
255 182 91
255 182 91
255 182 91
255 182 91
255 182 91
255 182 91
255 182 91
255 182 91
255 182 91
255 182 91
255 182 91
255 182 91
255 182 91
255 182 91
255 182 91
255 182 91
255 182 91
255 182 91
255 182 91
255 182 91
255 182 91
255 182 91
255 182 91
255 182 91
255 182 91
255 182 91
255 182 91
255 182 91
255 182 91
255 182 91
255 182 91
255 182 91
255 182 91
255 182 91
255 182 91
255 182 91
255 182 91
255 182 91
255 182 91
255 182 91
255 182 91
255 182 91
255 182 91
255 182 91
255 182 91
255 182 91
255 182 91
255 183 91
255 183 91
255 183 91
255 183 91
255 183 91
255 183 91
255 183 91
255 183 91
255 183 91
255 183 91
255 183 91
255 183 91
255 183 91
255 183 91
255 183 91
255 183 91
255 183 91
255 183 91
255 183 91
255 183 91
255 183 91
255 183 91
255 183 91
255 183 91
255 183 91
255 183 91
255 183 91
255 183 91
255 183 91
255 183 91
255 183 91
255 183 91
255 183 91
255 183 91
255 183 91
255 183 91
255 183 91
255 183 91
255 183 91
255 183 91
255 183 91
255 183 91
255 183 91
255 183 91
255 183 91
255 183 91
255 183 91
255 183 91
255 183 91
255 183 91
255 183 91
255 183 91
255 183 91
255 183 91
255 183 91
255 183 91
255 183 91
255 183 91
255 183 91
255 183 91
255 183 91
255 183 91
255 183 91
255 183 91
255 183 91
255 183 91
255 183 91
255 183 91
255 183 91
255 183 91
255 183 91
255 183 91
255 184 92
255 184 92
255 184 92
255 184 92
255 184 92
255 184 92
255 184 92
255 184 92
255 184 92
255 184 92
255 184 92
255 184 92
255 184 92
255 184 92
255 184 92
255 184 92
255 184 92
255 184 92
255 184 92
255 184 92
255 184 92
255 184 92
255 184 92
255 184 92
255 184 92
255 184 92
255 184 92
255 184 92
255 184 92
255 184 92
255 184 92
255 184 92
255 184 92
255 184 92
255 184 92
255 184 92
255 184 92
255 184 92
255 184 92
255 184 92
255 184 92
255 184 92
255 184 92
255 184 92
255 184 92
255 184 92
255 184 92
255 184 92
255 184 92
255 184 92
255 184 92
255 184 92
255 184 92
255 184 92
255 184 92
255 184 92
255 184 92
255 184 92
255 184 92
255 184 92
255 184 92
255 184 92
255 184 92
255 184 92
255 184 92
255 184 92
255 184 92
255 184 92
255 184 92
255 184 92
255 184 92
255 184 92
255 185 92
255 185 92
255 185 92
255 185 92
255 185 92
255 185 92
255 185 92
255 185 92
255 185 92
255 185 92
255 185 92
255 185 92
255 185 92
255 185 92
255 185 92
255 185 92
255 185 92
255 185 92
255 185 92
255 185 92
255 185 92
255 185 92
255 185 92
255 185 92
255 185 92
255 185 92
255 185 92
255 185 92
255 185 92
255 185 92
255 185 92
255 185 92
255 185 92
255 185 92
255 185 92
255 185 92
255 185 92
255 185 92
255 185 92
255 185 92
255 185 92
255 185 92
255 185 92
255 185 92
255 185 92
255 185 92
255 185 92
255 185 92
255 185 92
255 185 92
255 185 92
255 185 92
255 185 92
255 185 92
255 185 92
255 185 92
255 185 92
255 185 92
255 185 92
255 185 92
255 185 92
255 185 92
255 185 92
255 185 92
255 185 92
255 185 92
255 185 92
255 185 92
255 185 92
255 185 92
255 185 92
255 185 92
255 186 93
255 186 93
255 186 93
255 186 93
255 186 93
255 186 93
255 186 93
255 186 93
255 186 93
255 186 93
255 186 93
255 186 93
255 186 93
255 186 93
255 186 93
255 186 93
255 186 93
255 186 93
255 186 93
255 186 93
255 186 93
255 186 93
255 186 93
255 186 93
255 186 93
255 186 93
255 186 93
255 186 93
255 186 93
255 186 93
255 186 93
255 186 93
255 186 93
255 186 93
255 186 93
255 186 93
255 186 93
255 186 93
255 186 93
255 186 93
255 186 93
255 186 93
255 186 93
255 186 93
255 186 93
255 186 93
255 186 93
255 186 93
255 186 93
255 186 93
255 186 93
255 186 93
255 186 93
255 186 93
255 186 93
255 186 93
255 186 93
255 186 93
255 186 93
255 186 93
255 186 93
255 186 93
255 186 93
255 186 93
255 186 93
255 186 93
255 186 93
255 186 93
255 186 93
255 186 93
255 186 93
255 186 93
255 187 94
255 187 94
255 187 94
255 187 94
255 187 94
255 187 94
255 187 94
255 187 94
255 187 94
255 187 94
255 187 94
255 187 94
255 187 94
255 187 94
255 187 94
255 187 94
255 187 94
255 187 94
255 187 94
255 187 94
255 187 94
255 187 94
255 187 94
255 187 94
255 187 94
255 187 94
255 187 94
255 187 94
255 187 94
255 187 94
255 187 94
255 187 94
255 187 94
255 187 94
255 187 94
255 187 94
255 187 94
255 187 94
255 187 94
255 187 94
255 187 94
255 187 94
255 187 94
255 187 94
255 187 94
255 187 94
255 187 94
255 187 94
255 187 94
255 187 94
255 187 94
255 187 94
255 187 94
255 187 94
255 187 94
255 187 94
255 187 94
255 187 94
255 187 94
255 187 94
255 187 94
255 187 94
255 187 94
255 187 94
255 187 94
255 187 94
255 187 94
255 187 94
255 187 94
255 187 94
255 187 94
255 187 94
255 188 94
255 188 94
255 188 94
255 188 94
255 188 94
255 188 94
255 188 94
255 188 94
255 188 94
255 188 94
255 188 94
255 188 94
255 188 94
255 188 94
255 188 94
255 188 94
255 188 94
255 188 94
255 188 94
255 188 94
255 188 94
255 188 94
255 188 94
255 188 94
255 188 94
255 188 94
255 188 94
255 188 94
255 188 94
255 188 94
255 188 94
255 188 94
255 188 94
255 188 94
255 188 94
255 188 94
255 188 94
255 188 94
255 188 94
255 188 94
255 188 94
255 188 94
255 188 94
255 188 94
255 188 94
255 188 94
255 188 94
255 188 94
255 188 94
255 188 94
255 188 94
255 188 94
255 188 94
255 188 94
255 188 94
255 188 94
255 188 94
255 188 94
255 188 94
255 188 94
255 188 94
255 188 94
255 188 94
255 188 94
255 188 94
255 188 94
255 188 94
255 188 94
255 188 94
255 188 94
255 188 94
255 188 94
255 189 95
255 189 95
255 189 95
255 189 95
255 189 95
255 189 95
255 189 95
255 189 95
255 189 95
255 189 95
255 189 95
255 189 95
255 189 95
255 189 95
255 189 95
255 189 95
255 189 95
255 189 95
255 189 95
255 189 95
255 189 95
255 189 95
255 189 95
255 189 95
255 189 95
255 189 95
255 189 95
255 189 95
255 189 95
255 189 95
255 189 95
255 189 95
255 189 95
255 189 95
255 189 95
255 189 95
255 189 95
255 189 95
255 189 95
255 189 95
255 189 95
255 189 95
255 189 95
255 189 95
255 189 95
255 189 95
255 189 95
255 189 95
255 189 95
255 189 95
255 189 95
255 189 95
255 189 95
255 189 95
255 189 95
255 189 95
255 189 95
255 189 95
255 189 95
255 189 95
255 189 95
255 189 95
255 189 95
255 189 95
255 189 95
255 189 95
255 189 95
255 189 95
255 189 95
255 189 95
255 189 95
255 189 95
255 190 95
255 190 95
255 190 95
255 190 95
255 190 95
255 190 95
255 190 95
255 190 95
255 190 95
255 190 95
255 190 95
255 190 95
255 190 95
255 190 95
255 190 95
255 190 95
255 190 95
255 190 95
255 190 95
255 190 95
255 190 95
255 190 95
255 190 95
255 190 95
255 190 95
255 190 95
255 190 95
255 190 95
255 190 95
255 190 95
255 190 95
255 190 95
255 190 95
255 190 95
255 190 95
255 190 95
255 190 95
255 190 95
255 190 95
255 190 95
255 190 95
255 190 95
255 190 95
255 190 95
255 190 95
255 190 95
255 190 95
255 190 95
255 190 95
255 190 95
255 190 95
255 190 95
255 190 95
255 190 95
255 190 95
255 190 95
255 190 95
255 190 95
255 190 95
255 190 95
255 190 95
255 190 95
255 190 95
255 190 95
255 190 95
255 190 95
255 190 95
255 190 95
255 190 95
255 190 95
255 190 95
255 190 95
255 192 96
255 192 96
255 192 96
255 192 96
255 192 96
255 192 96
255 192 96
255 192 96
255 192 96
255 192 96
255 192 96
255 192 96
255 192 96
255 192 96
255 192 96
255 192 96
255 192 96
255 192 96
255 192 96
255 192 96
255 192 96
255 192 96
255 192 96
255 192 96
255 192 96
255 192 96
255 192 96
255 192 96
255 192 96
255 192 96
255 192 96
255 192 96
255 192 96
255 192 96
255 192 96
255 192 96
255 192 96
255 192 96
255 192 96
255 192 96
255 192 96
255 192 96
255 192 96
255 192 96
255 192 96
255 192 96
255 192 96
255 192 96
255 192 96
255 192 96
255 192 96
255 192 96
255 192 96
255 192 96
255 192 96
255 192 96
255 192 96
255 192 96
255 192 96
255 192 96
255 192 96
255 192 96
255 192 96
255 192 96
255 192 96
255 192 96
255 192 96
255 192 96
255 192 96
255 192 96
255 192 96
255 192 96
255 193 96
255 193 96
255 193 96
255 193 96
255 193 96
255 193 96
255 193 96
255 193 96
255 193 96
255 193 96
255 193 96
255 193 96
255 193 96
255 193 96
255 193 96
255 193 96
255 193 96
255 193 96
255 193 96
255 193 96
255 193 96
255 193 96
255 193 96
255 193 96
255 193 96
255 193 96
255 193 96
255 193 96
255 193 96
255 193 96
255 193 96
255 193 96
255 193 96
255 193 96
255 193 96
255 193 96
255 193 96
255 193 96
255 193 96
255 193 96
255 193 96
255 193 96
255 193 96
255 193 96
255 193 96
255 193 96
255 193 96
255 193 96
255 193 96
255 193 96
255 193 96
255 193 96
255 193 96
255 193 96
255 193 96
255 193 96
255 193 96
255 193 96
255 193 96
255 193 96
255 193 96
255 193 96
255 193 96
255 193 96
255 193 96
255 193 96
255 193 96
255 193 96
255 193 96
255 193 96
255 193 96
255 193 96
255 194 97
255 194 97
255 194 97
255 194 97
255 194 97
255 194 97
255 194 97
255 194 97
255 194 97
255 194 97
255 194 97
255 194 97
255 194 97
255 194 97
255 194 97
255 194 97
255 194 97
255 194 97
255 194 97
255 194 97
255 194 97
255 194 97
255 194 97
255 194 97
255 194 97
255 194 97
255 194 97
255 194 97
255 194 97
255 194 97
255 194 97
255 194 97
255 194 97
255 194 97
255 194 97
255 194 97
255 194 97
255 194 97
255 194 97
255 194 97
255 194 97
255 194 97
255 194 97
255 194 97
255 194 97
255 194 97
255 194 97
255 194 97
255 194 97
255 194 97
255 194 97
255 194 97
255 194 97
255 194 97
255 194 97
255 194 97
255 194 97
255 194 97
255 194 97
255 194 97
255 194 97
255 194 97
255 194 97
255 194 97
255 194 97
255 194 97
255 194 97
255 194 97
255 194 97
255 194 97
255 194 97
255 194 97
255 195 97
255 195 97
255 195 97
255 195 97
255 195 97
255 195 97
255 195 97
255 195 97
255 195 97
255 195 97
255 195 97
255 195 97
255 195 97
255 195 97
255 195 97
255 195 97
255 195 97
255 195 97
255 195 97
255 195 97
255 195 97
255 195 97
255 195 97
255 195 97
255 195 97
255 195 97
255 195 97
255 195 97
255 195 97
255 195 97
255 195 97
255 195 97
255 195 97
255 195 97
255 195 97
255 195 97
255 195 97
255 195 97
255 195 97
255 195 97
255 195 97
255 195 97
255 195 97
255 195 97
255 195 97
255 195 97
255 195 97
255 195 97
255 195 97
255 195 97
255 195 97
255 195 97
255 195 97
255 195 97
255 195 97
255 195 97
255 195 97
255 195 97
255 195 97
255 195 97
255 195 97
255 195 97
255 195 97
255 195 97
255 195 97
255 195 97
255 195 97
255 195 97
255 195 97
255 195 97
255 195 97
255 195 97
255 196 98
255 196 98
255 196 98
255 196 98
255 196 98
255 196 98
255 196 98
255 196 98
255 196 98
255 196 98
255 196 98
255 196 98
255 196 98
255 196 98
255 196 98
255 196 98
255 196 98
255 196 98
255 196 98
255 196 98
255 196 98
255 196 98
255 196 98
255 196 98
255 196 98
255 196 98
255 196 98
255 196 98
255 196 98
255 196 98
255 196 98
255 196 98
255 196 98
255 196 98
255 196 98
255 196 98
255 196 98
255 196 98
255 196 98
255 196 98
255 196 98
255 196 98
255 196 98
255 196 98
255 196 98
255 196 98
255 196 98
255 196 98
255 196 98
255 196 98
255 196 98
255 196 98
255 196 98
255 196 98
255 196 98
255 196 98
255 196 98
255 196 98
255 196 98
255 196 98
255 196 98
255 196 98
255 196 98
255 196 98
255 196 98
255 196 98
255 196 98
255 196 98
255 196 98
255 196 98
255 196 98
255 196 98
255 197 98
255 197 98
255 197 98
255 197 98
255 197 98
255 197 98
255 197 98
255 197 98
255 197 98
255 197 98
255 197 98
255 197 98
255 197 98
255 197 98
255 197 98
255 197 98
255 197 98
255 197 98
255 197 98
255 197 98
255 197 98
255 197 98
255 197 98
255 197 98
255 197 98
255 197 98
255 197 98
255 197 98
255 197 98
255 197 98
255 197 98
255 197 98
255 197 98
255 197 98
255 197 98
255 197 98
255 197 98
255 197 98
255 197 98
255 197 98
255 197 98
255 197 98
255 197 98
255 197 98
255 197 98
255 197 98
255 197 98
255 197 98
255 197 98
255 197 98
255 197 98
255 197 98
255 197 98
255 197 98
255 197 98
255 197 98
255 197 98
255 197 98
255 197 98
255 197 98
255 197 98
255 197 98
255 197 98
255 197 98
255 197 98
255 197 98
255 197 98
255 197 98
255 197 98
255 197 98
255 197 98
255 197 98
255 198 99
255 198 99
255 198 99
255 198 99
255 198 99
255 198 99
255 198 99
255 198 99
255 198 99
255 198 99
255 198 99
255 198 99
255 198 99
255 198 99
255 198 99
255 198 99
255 198 99
255 198 99
255 198 99
255 198 99
255 198 99
255 198 99
255 198 99
255 198 99
255 198 99
255 198 99
255 198 99
255 198 99
255 198 99
255 198 99
255 198 99
255 198 99
255 198 99
255 198 99
255 198 99
255 198 99
255 198 99
255 198 99
255 198 99
255 198 99
255 198 99
255 198 99
255 198 99
255 198 99
255 198 99
255 198 99
255 198 99
255 198 99
255 198 99
255 198 99
255 198 99
255 198 99
255 198 99
255 198 99
255 198 99
255 198 99
255 198 99
255 198 99
255 198 99
255 198 99
255 198 99
255 198 99
255 198 99
255 198 99
255 198 99
255 198 99
255 198 99
255 198 99
255 198 99
255 198 99
255 198 99
255 198 99
255 199 100
255 199 100
255 199 100
255 199 100
255 199 100
255 199 100
255 199 100
255 199 100
255 199 100
255 199 100
255 199 100
255 199 100
255 199 100
255 199 100
255 199 100
255 199 100
255 199 100
255 199 100
255 199 100
255 199 100
255 199 100
255 199 100
255 199 100
255 199 100
255 199 100
255 199 100
255 199 100
255 199 100
255 199 100
255 199 100
255 199 100
255 199 100
255 199 100
255 199 100
255 199 100
255 199 100
255 199 100
255 199 100
255 199 100
255 199 100
255 199 100
255 199 100
255 199 100
255 199 100
255 199 100
255 199 100
255 199 100
255 199 100
255 199 100
255 199 100
255 199 100
255 199 100
255 199 100
255 199 100
255 199 100
255 199 100
255 199 100
255 199 100
255 199 100
255 199 100
255 199 100
255 199 100
255 199 100
255 199 100
255 199 100
255 199 100
255 199 100
255 199 100
255 199 100
255 199 100
255 199 100
255 199 100
255 200 100
255 200 100
255 200 100
255 200 100
255 200 100
255 200 100
255 200 100
255 200 100
255 200 100
255 200 100
255 200 100
255 200 100
255 200 100
255 200 100
255 200 100
255 200 100
255 200 100
255 200 100
255 200 100
255 200 100
255 200 100
255 200 100
255 200 100
255 200 100
255 200 100
255 200 100
255 200 100
255 200 100
255 200 100
255 200 100
255 200 100
255 200 100
255 200 100
255 200 100
255 200 100
255 200 100
255 200 100
255 200 100
255 200 100
255 200 100
255 200 100
255 200 100
255 200 100
255 200 100
255 200 100
255 200 100
255 200 100
255 200 100
255 200 100
255 200 100
255 200 100
255 200 100
255 200 100
255 200 100
255 200 100
255 200 100
255 200 100
255 200 100
255 200 100
255 200 100
255 200 100
255 200 100
255 200 100
255 200 100
255 200 100
255 200 100
255 200 100
255 200 100
255 200 100
255 200 100
255 200 100
255 200 100
255 201 101
255 201 101
255 201 101
255 201 101
255 201 101
255 201 101
255 201 101
255 201 101
255 201 101
255 201 101
255 201 101
255 201 101
255 201 101
255 201 101
255 201 101
255 201 101
255 201 101
255 201 101
255 201 101
255 201 101
255 201 101
255 201 101
255 201 101
255 201 101
255 201 101
255 201 101
255 201 101
255 201 101
255 201 101
255 201 101
255 201 101
255 201 101
255 201 101
255 201 101
255 201 101
255 201 101
255 201 101
255 201 101
255 201 101
255 201 101
255 201 101
255 201 101
255 201 101
255 201 101
255 201 101
255 201 101
255 201 101
255 201 101
255 201 101
255 201 101
255 201 101
255 201 101
255 201 101
255 201 101
255 201 101
255 201 101
255 201 101
255 201 101
255 201 101
255 201 101
255 201 101
255 201 101
255 201 101
255 201 101
255 201 101
255 201 101
255 201 101
255 201 101
255 201 101
255 201 101
255 201 101
255 201 101
255 202 101
255 202 101
255 202 101
255 202 101
255 202 101
255 202 101
255 202 101
255 202 101
255 202 101
255 202 101
255 202 101
255 202 101
255 202 101
255 202 101
255 202 101
255 202 101
255 202 101
255 202 101
255 202 101
255 202 101
255 202 101
255 202 101
255 202 101
255 202 101
255 202 101
255 202 101
255 202 101
255 202 101
255 202 101
255 202 101
255 202 101
255 202 101
255 202 101
255 202 101
255 202 101
255 202 101
255 202 101
255 202 101
255 202 101
255 202 101
255 202 101
255 202 101
255 202 101
255 202 101
255 202 101
255 202 101
255 202 101
255 202 101
255 202 101
255 202 101
255 202 101
255 202 101
255 202 101
255 202 101
255 202 101
255 202 101
255 202 101
255 202 101
255 202 101
255 202 101
255 202 101
255 202 101
255 202 101
255 202 101
255 202 101
255 202 101
255 202 101
255 202 101
255 202 101
255 202 101
255 202 101
255 202 101
255 204 102
255 204 102
255 204 102
255 204 102
255 204 102
255 204 102
255 204 102
255 204 102
255 204 102
255 204 102
255 204 102
255 204 102
255 204 102
255 204 102
255 204 102
255 204 102
255 204 102
255 204 102
255 204 102
255 204 102
255 204 102
255 204 102
255 204 102
255 204 102
255 204 102
255 204 102
255 204 102
255 204 102
255 204 102
255 204 102
255 204 102
255 204 102
255 204 102
255 204 102
255 204 102
255 204 102
255 204 102
255 204 102
255 204 102
255 204 102
255 204 102
255 204 102
255 204 102
255 204 102
255 204 102
255 204 102
255 204 102
255 204 102
255 204 102
255 204 102
255 204 102
255 204 102
255 204 102
255 204 102
255 204 102
255 204 102
255 204 102
255 204 102
255 204 102
255 204 102
255 204 102
255 204 102
255 204 102
255 204 102
255 204 102
255 204 102
255 204 102
255 204 102
255 204 102
255 204 102
255 204 102
255 204 102
255 205 102
255 205 102
255 205 102
255 205 102
255 205 102
255 205 102
255 205 102
255 205 102
255 205 102
255 205 102
255 205 102
255 205 102
255 205 102
255 205 102
255 205 102
255 205 102
255 205 102
255 205 102
255 205 102
255 205 102
255 205 102
255 205 102
255 205 102
255 205 102
255 205 102
255 205 102
255 205 102
255 205 102
255 205 102
255 205 102
255 205 102
255 205 102
255 205 102
255 205 102
255 205 102
255 205 102
255 205 102
255 205 102
255 205 102
255 205 102
255 205 102
255 205 102
255 205 102
255 205 102
255 205 102
255 205 102
255 205 102
255 205 102
255 205 102
255 205 102
255 205 102
255 205 102
255 205 102
255 205 102
255 205 102
255 205 102
255 205 102
255 205 102
255 205 102
255 205 102
255 205 102
255 205 102
255 205 102
255 205 102
255 205 102
255 205 102
255 205 102
255 205 102
255 205 102
255 205 102
255 205 102
255 205 102
255 206 103
255 206 103
255 206 103
255 206 103
255 206 103
255 206 103
255 206 103
255 206 103
255 206 103
255 206 103
255 206 103
255 206 103
255 206 103
255 206 103
255 206 103
255 206 103
255 206 103
255 206 103
255 206 103
255 206 103
255 206 103
255 206 103
255 206 103
255 206 103
255 206 103
255 206 103
255 206 103
255 206 103
255 206 103
255 206 103
255 206 103
255 206 103
255 206 103
255 206 103
255 206 103
255 206 103
255 206 103
255 206 103
255 206 103
255 206 103
255 206 103
255 206 103
255 206 103
255 206 103
255 206 103
255 206 103
255 206 103
255 206 103
255 206 103
255 206 103
255 206 103
255 206 103
255 206 103
255 206 103
255 206 103
255 206 103
255 206 103
255 206 103
255 206 103
255 206 103
255 206 103
255 206 103
255 206 103
255 206 103
255 206 103
255 206 103
255 206 103
255 206 103
255 206 103
255 206 103
255 206 103
255 206 103
255 207 103
255 207 103
255 207 103
255 207 103
255 207 103
255 207 103
255 207 103
255 207 103
255 207 103
255 207 103
255 207 103
255 207 103
255 207 103
255 207 103
255 207 103
255 207 103
255 207 103
255 207 103
255 207 103
255 207 103
255 207 103
255 207 103
255 207 103
255 207 103
255 207 103
255 207 103
255 207 103
255 207 103
255 207 103
255 207 103
255 207 103
255 207 103
255 207 103
255 207 103
255 207 103
255 207 103
255 207 103
255 207 103
255 207 103
255 207 103
255 207 103
255 207 103
255 207 103
255 207 103
255 207 103
255 207 103
255 207 103
255 207 103
255 207 103
255 207 103
255 207 103
255 207 103
255 207 103
255 207 103
255 207 103
255 207 103
255 207 103
255 207 103
255 207 103
255 207 103
255 207 103
255 207 103
255 207 103
255 207 103
255 207 103
255 207 103
255 207 103
255 207 103
255 207 103
255 207 103
255 207 103
255 207 103
255 208 104
255 208 104
255 208 104
255 208 104
255 208 104
255 208 104
255 208 104
255 208 104
255 208 104
255 208 104
255 208 104
255 208 104
255 208 104
255 208 104
255 208 104
255 208 104
255 208 104
255 208 104
255 208 104
255 208 104
255 208 104
255 208 104
255 208 104
255 208 104
255 208 104
255 208 104
255 208 104
255 208 104
255 208 104
255 208 104
255 208 104
255 208 104
255 208 104
255 208 104
255 208 104
255 208 104
255 208 104
255 208 104
255 208 104
255 208 104
255 208 104
255 208 104
255 208 104
255 208 104
255 208 104
255 208 104
255 208 104
255 208 104
255 208 104
255 208 104
255 208 104
255 208 104
255 208 104
255 208 104
255 208 104
255 208 104
255 208 104
255 208 104
255 208 104
255 208 104
255 208 104
255 208 104
255 208 104
255 208 104
255 208 104
255 208 104
255 208 104
255 208 104
255 208 104
255 208 104
255 208 104
255 208 104
255 209 105
255 209 105
255 209 105
255 209 105
255 209 105
255 209 105
255 209 105
255 209 105
255 209 105
255 209 105
255 209 105
255 209 105
255 209 105
255 209 105
255 209 105
255 209 105
255 209 105
255 209 105
255 209 105
255 209 105
255 209 105
255 209 105
255 209 105
255 209 105
255 209 105
255 209 105
255 209 105
255 209 105
255 209 105
255 209 105
255 209 105
255 209 105
255 209 105
255 209 105
255 209 105
255 209 105
255 209 105
255 209 105
255 209 105
255 209 105
255 209 105
255 209 105
255 209 105
255 209 105
255 209 105
255 209 105
255 209 105
255 209 105
255 209 105
255 209 105
255 209 105
255 209 105
255 209 105
255 209 105
255 209 105
255 209 105
255 209 105
255 209 105
255 209 105
255 209 105
255 209 105
255 209 105
255 209 105
255 209 105
255 209 105
255 209 105
255 209 105
255 209 105
255 209 105
255 209 105
255 209 105
255 209 105
255 210 105
255 210 105
255 210 105
255 210 105
255 210 105
255 210 105
255 210 105
255 210 105
255 210 105
255 210 105
255 210 105
255 210 105
255 210 105
255 210 105
255 210 105
255 210 105
255 210 105
255 210 105
255 210 105
255 210 105
255 210 105
255 210 105
255 210 105
255 210 105
255 210 105
255 210 105
255 210 105
255 210 105
255 210 105
255 210 105
255 210 105
255 210 105
255 210 105
255 210 105
255 210 105
255 210 105
255 210 105
255 210 105
255 210 105
255 210 105
255 210 105
255 210 105
255 210 105
255 210 105
255 210 105
255 210 105
255 210 105
255 210 105
255 210 105
255 210 105
255 210 105
255 210 105
255 210 105
255 210 105
255 210 105
255 210 105
255 210 105
255 210 105
255 210 105
255 210 105
255 210 105
255 210 105
255 210 105
255 210 105
255 210 105
255 210 105
255 210 105
255 210 105
255 210 105
255 210 105
255 210 105
255 210 105
255 211 106
255 211 106
255 211 106
255 211 106
255 211 106
255 211 106
255 211 106
255 211 106
255 211 106
255 211 106
255 211 106
255 211 106
255 211 106
255 211 106
255 211 106
255 211 106
255 211 106
255 211 106
255 211 106
255 211 106
255 211 106
255 211 106
255 211 106
255 211 106
255 211 106
255 211 106
255 211 106
255 211 106
255 211 106
255 211 106
255 211 106
255 211 106
255 211 106
255 211 106
255 211 106
255 211 106
255 211 106
255 211 106
255 211 106
255 211 106
255 211 106
255 211 106
255 211 106
255 211 106
255 211 106
255 211 106
255 211 106
255 211 106
255 211 106
255 211 106
255 211 106
255 211 106
255 211 106
255 211 106
255 211 106
255 211 106
255 211 106
255 211 106
255 211 106
255 211 106
255 211 106
255 211 106
255 211 106
255 211 106
255 211 106
255 211 106
255 211 106
255 211 106
255 211 106
255 211 106
255 211 106
255 211 106
255 212 106
255 212 106
255 212 106
255 212 106
255 212 106
255 212 106
255 212 106
255 212 106
255 212 106
255 212 106
255 212 106
255 212 106
255 212 106
255 212 106
255 212 106
255 212 106
255 212 106
255 212 106
255 212 106
255 212 106
255 212 106
255 212 106
255 212 106
255 212 106
255 212 106
255 212 106
255 212 106
255 212 106
255 212 106
255 212 106
255 212 106
255 212 106
255 212 106
255 212 106
255 212 106
255 212 106
255 212 106
255 212 106
255 212 106
255 212 106
255 212 106
255 212 106
255 212 106
255 212 106
255 212 106
255 212 106
255 212 106
255 212 106
255 212 106
255 212 106
255 212 106
255 212 106
255 212 106
255 212 106
255 212 106
255 212 106
255 212 106
255 212 106
255 212 106
255 212 106
255 212 106
255 212 106
255 212 106
255 212 106
255 212 106
255 212 106
255 212 106
255 212 106
255 212 106
255 212 106
255 212 106
255 212 106
255 213 107
255 213 107
255 213 107
255 213 107
255 213 107
255 213 107
255 213 107
255 213 107
255 213 107
255 213 107
255 213 107
255 213 107
255 213 107
255 213 107
255 213 107
255 213 107
255 213 107
255 213 107
255 213 107
255 213 107
255 213 107
255 213 107
255 213 107
255 213 107
255 213 107
255 213 107
255 213 107
255 213 107
255 213 107
255 213 107
255 213 107
255 213 107
255 213 107
255 213 107
255 213 107
255 213 107
255 213 107
255 213 107
255 213 107
255 213 107
255 213 107
255 213 107
255 213 107
255 213 107
255 213 107
255 213 107
255 213 107
255 213 107
255 213 107
255 213 107
255 213 107
255 213 107
255 213 107
255 213 107
255 213 107
255 213 107
255 213 107
255 213 107
255 213 107
255 213 107
255 213 107
255 213 107
255 213 107
255 213 107
255 213 107
255 213 107
255 213 107
255 213 107
255 213 107
255 213 107
255 213 107
255 213 107
255 215 107
255 215 107
255 215 107
255 215 107
255 215 107
255 215 107
255 215 107
255 215 107
255 215 107
255 215 107
255 215 107
255 215 107
255 215 107
255 215 107
255 215 107
255 215 107
255 215 107
255 215 107
255 215 107
255 215 107
255 215 107
255 215 107
255 215 107
255 215 107
255 215 107
255 215 107
255 215 107
255 215 107
255 215 107
255 215 107
255 215 107
255 215 107
255 215 107
255 215 107
255 215 107
255 215 107
255 215 107
255 215 107
255 215 107
255 215 107
255 215 107
255 215 107
255 215 107
255 215 107
255 215 107
255 215 107
255 215 107
255 215 107
255 215 107
255 215 107
255 215 107
255 215 107
255 215 107
255 215 107
255 215 107
255 215 107
255 215 107
255 215 107
255 215 107
255 215 107
255 215 107
255 215 107
255 215 107
255 215 107
255 215 107
255 215 107
255 215 107
255 215 107
255 215 107
255 215 107
255 215 107
255 215 107
255 216 108
255 216 108
255 216 108
255 216 108
255 216 108
255 216 108
255 216 108
255 216 108
255 216 108
255 216 108
255 216 108
255 216 108
255 216 108
255 216 108
255 216 108
255 216 108
255 216 108
255 216 108
255 216 108
255 216 108
255 216 108
255 216 108
255 216 108
255 216 108
255 216 108
255 216 108
255 216 108
255 216 108
255 216 108
255 216 108
255 216 108
255 216 108
255 216 108
255 216 108
255 216 108
255 216 108
255 216 108
255 216 108
255 216 108
255 216 108
255 216 108
255 216 108
255 216 108
255 216 108
255 216 108
255 216 108
255 216 108
255 216 108
255 216 108
255 216 108
255 216 108
255 216 108
255 216 108
255 216 108
255 216 108
255 216 108
255 216 108
255 216 108
255 216 108
255 216 108
255 216 108
255 216 108
255 216 108
255 216 108
255 216 108
255 216 108
255 216 108
255 216 108
255 216 108
255 216 108
255 216 108
255 216 108
255 217 108
255 217 108
255 217 108
255 217 108
255 217 108
255 217 108
255 217 108
255 217 108
255 217 108
255 217 108
255 217 108
255 217 108
255 217 108
255 217 108
255 217 108
255 217 108
255 217 108
255 217 108
255 217 108
255 217 108
255 217 108
255 217 108
255 217 108
255 217 108
255 217 108
255 217 108
255 217 108
255 217 108
255 217 108
255 217 108
255 217 108
255 217 108
255 217 108
255 217 108
255 217 108
255 217 108
255 217 108
255 217 108
255 217 108
255 217 108
255 217 108
255 217 108
255 217 108
255 217 108
255 217 108
255 217 108
255 217 108
255 217 108
255 217 108
255 217 108
255 217 108
255 217 108
255 217 108
255 217 108
255 217 108
255 217 108
255 217 108
255 217 108
255 217 108
255 217 108
255 217 108
255 217 108
255 217 108
255 217 108
255 217 108
255 217 108
255 217 108
255 217 108
255 217 108
255 217 108
255 217 108
255 217 108
255 218 109
255 218 109
255 218 109
255 218 109
255 218 109
255 218 109
255 218 109
255 218 109
255 218 109
255 218 109
255 218 109
255 218 109
255 218 109
255 218 109
255 218 109
255 218 109
255 218 109
255 218 109
255 218 109
255 218 109
255 218 109
255 218 109
255 218 109
255 218 109
255 218 109
255 218 109
255 218 109
255 218 109
255 218 109
255 218 109
255 218 109
255 218 109
255 218 109
255 218 109
255 218 109
255 218 109
255 218 109
255 218 109
255 218 109
255 218 109
255 218 109
255 218 109
255 218 109
255 218 109
255 218 109
255 218 109
255 218 109
255 218 109
255 218 109
255 218 109
255 218 109
255 218 109
255 218 109
255 218 109
255 218 109
255 218 109
255 218 109
255 218 109
255 218 109
255 218 109
255 218 109
255 218 109
255 218 109
255 218 109
255 218 109
255 218 109
255 218 109
255 218 109
255 218 109
255 218 109
255 218 109
255 218 109
255 219 109
255 219 109
255 219 109
255 219 109
255 219 109
255 219 109
255 219 109
255 219 109
255 219 109
255 219 109
255 219 109
255 219 109
255 219 109
255 219 109
255 219 109
255 219 109
255 219 109
255 219 109
255 219 109
255 219 109
255 219 109
255 219 109
255 219 109
255 219 109
255 219 109
255 219 109
255 219 109
255 219 109
255 219 109
255 219 109
255 219 109
255 219 109
255 219 109
255 219 109
255 219 109
255 219 109
255 219 109
255 219 109
255 219 109
255 219 109
255 219 109
255 219 109
255 219 109
255 219 109
255 219 109
255 219 109
255 219 109
255 219 109
255 219 109
255 219 109
255 219 109
255 219 109
255 219 109
255 219 109
255 219 109
255 219 109
255 219 109
255 219 109
255 219 109
255 219 109
255 219 109
255 219 109
255 219 109
255 219 109
255 219 109
255 219 109
255 219 109
255 219 109
255 219 109
255 219 109
255 219 109
255 219 109
255 220 110
255 220 110
255 220 110
255 220 110
255 220 110
255 220 110
255 220 110
255 220 110
255 220 110
255 220 110
255 220 110
255 220 110
255 220 110
255 220 110
255 220 110
255 220 110
255 220 110
255 220 110
255 220 110
255 220 110
255 220 110
255 220 110
255 220 110
255 220 110
255 220 110
255 220 110
255 220 110
255 220 110
255 220 110
255 220 110
255 220 110
255 220 110
255 220 110
255 220 110
255 220 110
255 220 110
255 220 110
255 220 110
255 220 110
255 220 110
255 220 110
255 220 110
255 220 110
255 220 110
255 220 110
255 220 110
255 220 110
255 220 110
255 220 110
255 220 110
255 220 110
255 220 110
255 220 110
255 220 110
255 220 110
255 220 110
255 220 110
255 220 110
255 220 110
255 220 110
255 220 110
255 220 110
255 220 110
255 220 110
255 220 110
255 220 110
255 220 110
255 220 110
255 220 110
255 220 110
255 220 110
255 220 110
255 221 111
255 221 111
255 221 111
255 221 111
255 221 111
255 221 111
255 221 111
255 221 111
255 221 111
255 221 111
255 221 111
255 221 111
255 221 111
255 221 111
255 221 111
255 221 111
255 221 111
255 221 111
255 221 111
255 221 111
255 221 111
255 221 111
255 221 111
255 221 111
255 221 111
255 221 111
255 221 111
255 221 111
255 221 111
255 221 111
255 221 111
255 221 111
255 221 111
255 221 111
255 221 111
255 221 111
255 221 111
255 221 111
255 221 111
255 221 111
255 221 111
255 221 111
255 221 111
255 221 111
255 221 111
255 221 111
255 221 111
255 221 111
255 221 111
255 221 111
255 221 111
255 221 111
255 221 111
255 221 111
255 221 111
255 221 111
255 221 111
255 221 111
255 221 111
255 221 111
255 221 111
255 221 111
255 221 111
255 221 111
255 221 111
255 221 111
255 221 111
255 221 111
255 221 111
255 221 111
255 221 111
255 221 111
255 222 111
255 222 111
255 222 111
255 222 111
255 222 111
255 222 111
255 222 111
255 222 111
255 222 111
255 222 111
255 222 111
255 222 111
255 222 111
255 222 111
255 222 111
255 222 111
255 222 111
255 222 111
255 222 111
255 222 111
255 222 111
255 222 111
255 222 111
255 222 111
255 222 111
255 222 111
255 222 111
255 222 111
255 222 111
255 222 111
255 222 111
255 222 111
255 222 111
255 222 111
255 222 111
255 222 111
255 222 111
255 222 111
255 222 111
255 222 111
255 222 111
255 222 111
255 222 111
255 222 111
255 222 111
255 222 111
255 222 111
255 222 111
255 222 111
255 222 111
255 222 111
255 222 111
255 222 111
255 222 111
255 222 111
255 222 111
255 222 111
255 222 111
255 222 111
255 222 111
255 222 111
255 222 111
255 222 111
255 222 111
255 222 111
255 222 111
255 222 111
255 222 111
255 222 111
255 222 111
255 222 111
255 222 111
255 223 112
255 223 112
255 223 112
255 223 112
255 223 112
255 223 112
255 223 112
255 223 112
255 223 112
255 223 112
255 223 112
255 223 112
255 223 112
255 223 112
255 223 112
255 223 112
255 223 112
255 223 112
255 223 112
255 223 112
255 223 112
255 223 112
255 223 112
255 223 112
255 223 112
255 223 112
255 223 112
255 223 112
255 223 112
255 223 112
255 223 112
255 223 112
255 223 112
255 223 112
255 223 112
255 223 112
255 223 112
255 223 112
255 223 112
255 223 112
255 223 112
255 223 112
255 223 112
255 223 112
255 223 112
255 223 112
255 223 112
255 223 112
255 223 112
255 223 112
255 223 112
255 223 112
255 223 112
255 223 112
255 223 112
255 223 112
255 223 112
255 223 112
255 223 112
255 223 112
255 223 112
255 223 112
255 223 112
255 223 112
255 223 112
255 223 112
255 223 112
255 223 112
255 223 112
255 223 112
255 223 112
255 223 112
255 224 112
255 224 112
255 224 112
255 224 112
255 224 112
255 224 112
255 224 112
255 224 112
255 224 112
255 224 112
255 224 112
255 224 112
255 224 112
255 224 112
255 224 112
255 224 112
255 224 112
255 224 112
255 224 112
255 224 112
255 224 112
255 224 112
255 224 112
255 224 112
255 224 112
255 224 112
255 224 112
255 224 112
255 224 112
255 224 112
255 224 112
255 224 112
255 224 112
255 224 112
255 224 112
255 224 112
255 224 112
255 224 112
255 224 112
255 224 112
255 224 112
255 224 112
255 224 112
255 224 112
255 224 112
255 224 112
255 224 112
255 224 112
255 224 112
255 224 112
255 224 112
255 224 112
255 224 112
255 224 112
255 224 112
255 224 112
255 224 112
255 224 112
255 224 112
255 224 112
255 224 112
255 224 112
255 224 112
255 224 112
255 224 112
255 224 112
255 224 112
255 224 112
255 224 112
255 224 112
255 224 112
255 224 112
255 225 113
255 225 113
255 225 113
255 225 113
255 225 113
255 225 113
255 225 113
255 225 113
255 225 113
255 225 113
255 225 113
255 225 113
255 225 113
255 225 113
255 225 113
255 225 113
255 225 113
255 225 113
255 225 113
255 225 113
255 225 113
255 225 113
255 225 113
255 225 113
255 225 113
255 225 113
255 225 113
255 225 113
255 225 113
255 225 113
255 225 113
255 225 113
255 225 113
255 225 113
255 225 113
255 225 113
255 225 113
255 225 113
255 225 113
255 225 113
255 225 113
255 225 113
255 225 113
255 225 113
255 225 113
255 225 113
255 225 113
255 225 113
255 225 113
255 225 113
255 225 113
255 225 113
255 225 113
255 225 113
255 225 113
255 225 113
255 225 113
255 225 113
255 225 113
255 225 113
255 225 113
255 225 113
255 225 113
255 225 113
255 225 113
255 225 113
255 225 113
255 225 113
255 225 113
255 225 113
255 225 113
255 225 113
255 227 113
255 227 113
255 227 113
255 227 113
255 227 113
255 227 113
255 227 113
255 227 113
255 227 113
255 227 113
255 227 113
255 227 113
255 227 113
255 227 113
255 227 113
255 227 113
255 227 113
255 227 113
255 227 113
255 227 113
255 227 113
255 227 113
255 227 113
255 227 113
255 227 113
255 227 113
255 227 113
255 227 113
255 227 113
255 227 113
255 227 113
255 227 113
255 227 113
255 227 113
255 227 113
255 227 113
255 227 113
255 227 113
255 227 113
255 227 113
255 227 113
255 227 113
255 227 113
255 227 113
255 227 113
255 227 113
255 227 113
255 227 113
255 227 113
255 227 113
255 227 113
255 227 113
255 227 113
255 227 113
255 227 113
255 227 113
255 227 113
255 227 113
255 227 113
255 227 113
255 227 113
255 227 113
255 227 113
255 227 113
255 227 113
255 227 113
255 227 113
255 227 113
255 227 113
255 227 113
255 227 113
255 227 113
255 228 114
255 228 114
255 228 114
255 228 114
255 228 114
255 228 114
255 228 114
255 228 114
255 228 114
255 228 114
255 228 114
255 228 114
255 228 114
255 228 114
255 228 114
255 228 114
255 228 114
255 228 114
255 228 114
255 228 114
255 228 114
255 228 114
255 228 114
255 228 114
255 228 114
255 228 114
255 228 114
255 228 114
255 228 114
255 228 114
255 228 114
255 228 114
255 228 114
255 228 114
255 228 114
255 228 114
255 228 114
255 228 114
255 228 114
255 228 114
255 228 114
255 228 114
255 228 114
255 228 114
255 228 114
255 228 114
255 228 114
255 228 114
255 228 114
255 228 114
255 228 114
255 228 114
255 228 114
255 228 114
255 228 114
255 228 114
255 228 114
255 228 114
255 228 114
255 228 114
255 228 114
255 228 114
255 228 114
255 228 114
255 228 114
255 228 114
255 228 114
255 228 114
255 228 114
255 228 114
255 228 114
255 228 114
255 229 114
255 229 114
255 229 114
255 229 114
255 229 114
255 229 114
255 229 114
255 229 114
255 229 114
255 229 114
255 229 114
255 229 114
255 229 114
255 229 114
255 229 114
255 229 114
255 229 114
255 229 114
255 229 114
255 229 114
255 229 114
255 229 114
255 229 114
255 229 114
255 229 114
255 229 114
255 229 114
255 229 114
255 229 114
255 229 114
255 229 114
255 229 114
255 229 114
255 229 114
255 229 114
255 229 114
255 229 114
255 229 114
255 229 114
255 229 114
255 229 114
255 229 114
255 229 114
255 229 114
255 229 114
255 229 114
255 229 114
255 229 114
255 229 114
255 229 114
255 229 114
255 229 114
255 229 114
255 229 114
255 229 114
255 229 114
255 229 114
255 229 114
255 229 114
255 229 114
255 229 114
255 229 114
255 229 114
255 229 114
255 229 114
255 229 114
255 229 114
255 229 114
255 229 114
255 229 114
255 229 114
255 229 114
255 230 115
255 230 115
255 230 115
255 230 115
255 230 115
255 230 115
255 230 115
255 230 115
255 230 115
255 230 115
255 230 115
255 230 115
255 230 115
255 230 115
255 230 115
255 230 115
255 230 115
255 230 115
255 230 115
255 230 115
255 230 115
255 230 115
255 230 115
255 230 115
255 230 115
255 230 115
255 230 115
255 230 115
255 230 115
255 230 115
255 230 115
255 230 115
255 230 115
255 230 115
255 230 115
255 230 115
255 230 115
255 230 115
255 230 115
255 230 115
255 230 115
255 230 115
255 230 115
255 230 115
255 230 115
255 230 115
255 230 115
255 230 115
255 230 115
255 230 115
255 230 115
255 230 115
255 230 115
255 230 115
255 230 115
255 230 115
255 230 115
255 230 115
255 230 115
255 230 115
255 230 115
255 230 115
255 230 115
255 230 115
255 230 115
255 230 115
255 230 115
255 230 115
255 230 115
255 230 115
255 230 115
255 230 115
255 231 115
255 231 115
255 231 115
255 231 115
255 231 115
255 231 115
255 231 115
255 231 115
255 231 115
255 231 115
255 231 115
255 231 115
255 231 115
255 231 115
255 231 115
255 231 115
255 231 115
255 231 115
255 231 115
255 231 115
255 231 115
255 231 115
255 231 115
255 231 115
255 231 115
255 231 115
255 231 115
255 231 115
255 231 115
255 231 115
255 231 115
255 231 115
255 231 115
255 231 115
255 231 115
255 231 115
255 231 115
255 231 115
255 231 115
255 231 115
255 231 115
255 231 115
255 231 115
255 231 115
255 231 115
255 231 115
255 231 115
255 231 115
255 231 115
255 231 115
255 231 115
255 231 115
255 231 115
255 231 115
255 231 115
255 231 115
255 231 115
255 231 115
255 231 115
255 231 115
255 231 115
255 231 115
255 231 115
255 231 115
255 231 115
255 231 115
255 231 115
255 231 115
255 231 115
255 231 115
255 231 115
255 231 115
255 232 116
255 232 116
255 232 116
255 232 116
255 232 116
255 232 116
255 232 116
255 232 116
255 232 116
255 232 116
255 232 116
255 232 116
255 232 116
255 232 116
255 232 116
255 232 116
255 232 116
255 232 116
255 232 116
255 232 116
255 232 116
255 232 116
255 232 116
255 232 116
255 232 116
255 232 116
255 232 116
255 232 116
255 232 116
255 232 116
255 232 116
255 232 116
255 232 116
255 232 116
255 232 116
255 232 116
255 232 116
255 232 116
255 232 116
255 232 116
255 232 116
255 232 116
255 232 116
255 232 116
255 232 116
255 232 116
255 232 116
255 232 116
255 232 116
255 232 116
255 232 116
255 232 116
255 232 116
255 232 116
255 232 116
255 232 116
255 232 116
255 232 116
255 232 116
255 232 116
255 232 116
255 232 116
255 232 116
255 232 116
255 232 116
255 232 116
255 232 116
255 232 116
255 232 116
255 232 116
255 232 116
255 232 116
255 233 117
255 233 117
255 233 117
255 233 117
255 233 117
255 233 117
255 233 117
255 233 117
255 233 117
255 233 117
255 233 117
255 233 117
255 233 117
255 233 117
255 233 117
255 233 117
255 233 117
255 233 117
255 233 117
255 233 117
255 233 117
255 233 117
255 233 117
255 233 117
255 233 117
255 233 117
255 233 117
255 233 117
255 233 117
255 233 117
255 233 117
255 233 117
255 233 117
255 233 117
255 233 117
255 233 117
255 233 117
255 233 117
255 233 117
255 233 117
255 233 117
255 233 117
255 233 117
255 233 117
255 233 117
255 233 117
255 233 117
255 233 117
255 233 117
255 233 117
255 233 117
255 233 117
255 233 117
255 233 117
255 233 117
255 233 117
255 233 117
255 233 117
255 233 117
255 233 117
255 233 117
255 233 117
255 233 117
255 233 117
255 233 117
255 233 117
255 233 117
255 233 117
255 233 117
255 233 117
255 233 117
255 233 117
255 234 117
255 234 117
255 234 117
255 234 117
255 234 117
255 234 117
255 234 117
255 234 117
255 234 117
255 234 117
255 234 117
255 234 117
255 234 117
255 234 117
255 234 117
255 234 117
255 234 117
255 234 117
255 234 117
255 234 117
255 234 117
255 234 117
255 234 117
255 234 117
255 234 117
255 234 117
255 234 117
255 234 117
255 234 117
255 234 117
255 234 117
255 234 117
255 234 117
255 234 117
255 234 117
255 234 117
255 234 117
255 234 117
255 234 117
255 234 117
255 234 117
255 234 117
255 234 117
255 234 117
255 234 117
255 234 117
255 234 117
255 234 117
255 234 117
255 234 117
255 234 117
255 234 117
255 234 117
255 234 117
255 234 117
255 234 117
255 234 117
255 234 117
255 234 117
255 234 117
255 234 117
255 234 117
255 234 117
255 234 117
255 234 117
255 234 117
255 234 117
255 234 117
255 234 117
255 234 117
255 234 117
255 234 117
255 235 118
255 235 118
255 235 118
255 235 118
255 235 118
255 235 118
255 235 118
255 235 118
255 235 118
255 235 118
255 235 118
255 235 118
255 235 118
255 235 118
255 235 118
255 235 118
255 235 118
255 235 118
255 235 118
255 235 118
255 235 118
255 235 118
255 235 118
255 235 118
255 235 118
255 235 118
255 235 118
255 235 118
255 235 118
255 235 118
255 235 118
255 235 118
255 235 118
255 235 118
255 235 118
255 235 118
255 235 118
255 235 118
255 235 118
255 235 118
255 235 118
255 235 118
255 235 118
255 235 118
255 235 118
255 235 118
255 235 118
255 235 118
255 235 118
255 235 118
255 235 118
255 235 118
255 235 118
255 235 118
255 235 118
255 235 118
255 235 118
255 235 118
255 235 118
255 235 118
255 235 118
255 235 118
255 235 118
255 235 118
255 235 118
255 235 118
255 235 118
255 235 118
255 235 118
255 235 118
255 235 118
255 235 118
255 236 118
255 236 118
255 236 118
255 236 118
255 236 118
255 236 118
255 236 118
255 236 118
255 236 118
255 236 118
255 236 118
255 236 118
255 236 118
255 236 118
255 236 118
255 236 118
255 236 118
255 236 118
255 236 118
255 236 118
255 236 118
255 236 118
255 236 118
255 236 118
255 236 118
255 236 118
255 236 118
255 236 118
255 236 118
255 236 118
255 236 118
255 236 118
255 236 118
255 236 118
255 236 118
255 236 118
255 236 118
255 236 118
255 236 118
255 236 118
255 236 118
255 236 118
255 236 118
255 236 118
255 236 118
255 236 118
255 236 118
255 236 118
255 236 118
255 236 118
255 236 118
255 236 118
255 236 118
255 236 118
255 236 118
255 236 118
255 236 118
255 236 118
255 236 118
255 236 118
255 236 118
255 236 118
255 236 118
255 236 118
255 236 118
255 236 118
255 236 118
255 236 118
255 236 118
255 236 118
255 236 118
255 236 118
255 237 119
255 237 119
255 237 119
255 237 119
255 237 119
255 237 119
255 237 119
255 237 119
255 237 119
255 237 119
255 237 119
255 237 119
255 237 119
255 237 119
255 237 119
255 237 119
255 237 119
255 237 119
255 237 119
255 237 119
255 237 119
255 237 119
255 237 119
255 237 119
255 237 119
255 237 119
255 237 119
255 237 119
255 237 119
255 237 119
255 237 119
255 237 119
255 237 119
255 237 119
255 237 119
255 237 119
255 237 119
255 237 119
255 237 119
255 237 119
255 237 119
255 237 119
255 237 119
255 237 119
255 237 119
255 237 119
255 237 119
255 237 119
255 237 119
255 237 119
255 237 119
255 237 119
255 237 119
255 237 119
255 237 119
255 237 119
255 237 119
255 237 119
255 237 119
255 237 119
255 237 119
255 237 119
255 237 119
255 237 119
255 237 119
255 237 119
255 237 119
255 237 119
255 237 119
255 237 119
255 237 119
255 237 119
255 239 119
255 239 119
255 239 119
255 239 119
255 239 119
255 239 119
255 239 119
255 239 119
255 239 119
255 239 119
255 239 119
255 239 119
255 239 119
255 239 119
255 239 119
255 239 119
255 239 119
255 239 119
255 239 119
255 239 119
255 239 119
255 239 119
255 239 119
255 239 119
255 239 119
255 239 119
255 239 119
255 239 119
255 239 119
255 239 119
255 239 119
255 239 119
255 239 119
255 239 119
255 239 119
255 239 119
255 239 119
255 239 119
255 239 119
255 239 119
255 239 119
255 239 119
255 239 119
255 239 119
255 239 119
255 239 119
255 239 119
255 239 119
255 239 119
255 239 119
255 239 119
255 239 119
255 239 119
255 239 119
255 239 119
255 239 119
255 239 119
255 239 119
255 239 119
255 239 119
255 239 119
255 239 119
255 239 119
255 239 119
255 239 119
255 239 119
255 239 119
255 239 119
255 239 119
255 239 119
255 239 119
255 239 119
255 240 120
255 240 120
255 240 120
255 240 120
255 240 120
255 240 120
255 240 120
255 240 120
255 240 120
255 240 120
255 240 120
255 240 120
255 240 120
255 240 120
255 240 120
255 240 120
255 240 120
255 240 120
255 240 120
255 240 120
255 240 120
255 240 120
255 240 120
255 240 120
255 240 120
255 240 120
255 240 120
255 240 120
255 240 120
255 240 120
255 240 120
255 240 120
255 240 120
255 240 120
255 240 120
255 240 120
255 240 120
255 240 120
255 240 120
255 240 120
255 240 120
255 240 120
255 240 120
255 240 120
255 240 120
255 240 120
255 240 120
255 240 120
255 240 120
255 240 120
255 240 120
255 240 120
255 240 120
255 240 120
255 240 120
255 240 120
255 240 120
255 240 120
255 240 120
255 240 120
255 240 120
255 240 120
255 240 120
255 240 120
255 240 120
255 240 120
255 240 120
255 240 120
255 240 120
255 240 120
255 240 120
255 240 120
255 241 120
255 241 120
255 241 120
255 241 120
255 241 120
255 241 120
255 241 120
255 241 120
255 241 120
255 241 120
255 241 120
255 241 120
255 241 120
255 241 120
255 241 120
255 241 120
255 241 120
255 241 120
255 241 120
255 241 120
255 241 120
255 241 120
255 241 120
255 241 120
255 241 120
255 241 120
255 241 120
255 241 120
255 241 120
255 241 120
255 241 120
255 241 120
255 241 120
255 241 120
255 241 120
255 241 120
255 241 120
255 241 120
255 241 120
255 241 120
255 241 120
255 241 120
255 241 120
255 241 120
255 241 120
255 241 120
255 241 120
255 241 120
255 241 120
255 241 120
255 241 120
255 241 120
255 241 120
255 241 120
255 241 120
255 241 120
255 241 120
255 241 120
255 241 120
255 241 120
255 241 120
255 241 120
255 241 120
255 241 120
255 241 120
255 241 120
255 241 120
255 241 120
255 241 120
255 241 120
255 241 120
255 241 120
255 242 121
255 242 121
255 242 121
255 242 121
255 242 121
255 242 121
255 242 121
255 242 121
255 242 121
255 242 121
255 242 121
255 242 121
255 242 121
255 242 121
255 242 121
255 242 121
255 242 121
255 242 121
255 242 121
255 242 121
255 242 121
255 242 121
255 242 121
255 242 121
255 242 121
255 242 121
255 242 121
255 242 121
255 242 121
255 242 121
255 242 121
255 242 121
255 242 121
255 242 121
255 242 121
255 242 121
255 242 121
255 242 121
255 242 121
255 242 121
255 242 121
255 242 121
255 242 121
255 242 121
255 242 121
255 242 121
255 242 121
255 242 121
255 242 121
255 242 121
255 242 121
255 242 121
255 242 121
255 242 121
255 242 121
255 242 121
255 242 121
255 242 121
255 242 121
255 242 121
255 242 121
255 242 121
255 242 121
255 242 121
255 242 121
255 242 121
255 242 121
255 242 121
255 242 121
255 242 121
255 242 121
255 242 121
255 243 121
255 243 121
255 243 121
255 243 121
255 243 121
255 243 121
255 243 121
255 243 121
255 243 121
255 243 121
255 243 121
255 243 121
255 243 121
255 243 121
255 243 121
255 243 121
255 243 121
255 243 121
255 243 121
255 243 121
255 243 121
255 243 121
255 243 121
255 243 121
255 243 121
255 243 121
255 243 121
255 243 121
255 243 121
255 243 121
255 243 121
255 243 121
255 243 121
255 243 121
255 243 121
255 243 121
255 243 121
255 243 121
255 243 121
255 243 121
255 243 121
255 243 121
255 243 121
255 243 121
255 243 121
255 243 121
255 243 121
255 243 121
255 243 121
255 243 121
255 243 121
255 243 121
255 243 121
255 243 121
255 243 121
255 243 121
255 243 121
255 243 121
255 243 121
255 243 121
255 243 121
255 243 121
255 243 121
255 243 121
255 243 121
255 243 121
255 243 121
255 243 121
255 243 121
255 243 121
255 243 121
255 243 121
255 244 122
255 244 122
255 244 122
255 244 122
255 244 122
255 244 122
255 244 122
255 244 122
255 244 122
255 244 122
255 244 122
255 244 122
255 244 122
255 244 122
255 244 122
255 244 122
255 244 122
255 244 122
255 244 122
255 244 122
255 244 122
255 244 122
255 244 122
255 244 122
255 244 122
255 244 122
255 244 122
255 244 122
255 244 122
255 244 122
255 244 122
255 244 122
255 244 122
255 244 122
255 244 122
255 244 122
255 244 122
255 244 122
255 244 122
255 244 122
255 244 122
255 244 122
255 244 122
255 244 122
255 244 122
255 244 122
255 244 122
255 244 122
255 244 122
255 244 122
255 244 122
255 244 122
255 244 122
255 244 122
255 244 122
255 244 122
255 244 122
255 244 122
255 244 122
255 244 122
255 244 122
255 244 122
255 244 122
255 244 122
255 244 122
255 244 122
255 244 122
255 244 122
255 244 122
255 244 122
255 244 122
255 244 122
255 245 123
255 245 123
255 245 123
255 245 123
255 245 123
255 245 123
255 245 123
255 245 123
255 245 123
255 245 123
255 245 123
255 245 123
255 245 123
255 245 123
255 245 123
255 245 123
255 245 123
255 245 123
255 245 123
255 245 123
255 245 123
255 245 123
255 245 123
255 245 123
255 245 123
255 245 123
255 245 123
255 245 123
255 245 123
255 245 123
255 245 123
255 245 123
255 245 123
255 245 123
255 245 123
255 245 123
255 245 123
255 245 123
255 245 123
255 245 123
255 245 123
255 245 123
255 245 123
255 245 123
255 245 123
255 245 123
255 245 123
255 245 123
255 245 123
255 245 123
255 245 123
255 245 123
255 245 123
255 245 123
255 245 123
255 245 123
255 245 123
255 245 123
255 245 123
255 245 123
255 245 123
255 245 123
255 245 123
255 245 123
255 245 123
255 245 123
255 245 123
255 245 123
255 245 123
255 245 123
255 245 123
255 245 123
255 246 123
255 246 123
255 246 123
255 246 123
255 246 123
255 246 123
255 246 123
255 246 123
255 246 123
255 246 123
255 246 123
255 246 123
255 246 123
255 246 123
255 246 123
255 246 123
255 246 123
255 246 123
255 246 123
255 246 123
255 246 123
255 246 123
255 246 123
255 246 123
255 246 123
255 246 123
255 246 123
255 246 123
255 246 123
255 246 123
255 246 123
255 246 123
255 246 123
255 246 123
255 246 123
255 246 123
255 246 123
255 246 123
255 246 123
255 246 123
255 246 123
255 246 123
255 246 123
255 246 123
255 246 123
255 246 123
255 246 123
255 246 123
255 246 123
255 246 123
255 246 123
255 246 123
255 246 123
255 246 123
255 246 123
255 246 123
255 246 123
255 246 123
255 246 123
255 246 123
255 246 123
255 246 123
255 246 123
255 246 123
255 246 123
255 246 123
255 246 123
255 246 123
255 246 123
255 246 123
255 246 123
255 246 123
255 247 124
255 247 124
255 247 124
255 247 124
255 247 124
255 247 124
255 247 124
255 247 124
255 247 124
255 247 124
255 247 124
255 247 124
255 247 124
255 247 124
255 247 124
255 247 124
255 247 124
255 247 124
255 247 124
255 247 124
255 247 124
255 247 124
255 247 124
255 247 124
255 247 124
255 247 124
255 247 124
255 247 124
255 247 124
255 247 124
255 247 124
255 247 124
255 247 124
255 247 124
255 247 124
255 247 124
255 247 124
255 247 124
255 247 124
255 247 124
255 247 124
255 247 124
255 247 124
255 247 124
255 247 124
255 247 124
255 247 124
255 247 124
255 247 124
255 247 124
255 247 124
255 247 124
255 247 124
255 247 124
255 247 124
255 247 124
255 247 124
255 247 124
255 247 124
255 247 124
255 247 124
255 247 124
255 247 124
255 247 124
255 247 124
255 247 124
255 247 124
255 247 124
255 247 124
255 247 124
255 247 124
255 247 124
255 248 124
255 248 124
255 248 124
255 248 124
255 248 124
255 248 124
255 248 124
255 248 124
255 248 124
255 248 124
255 248 124
255 248 124
255 248 124
255 248 124
255 248 124
255 248 124
255 248 124
255 248 124
255 248 124
255 248 124
255 248 124
255 248 124
255 248 124
255 248 124
255 248 124
255 248 124
255 248 124
255 248 124
255 248 124
255 248 124
255 248 124
255 248 124
255 248 124
255 248 124
255 248 124
255 248 124
255 248 124
255 248 124
255 248 124
255 248 124
255 248 124
255 248 124
255 248 124
255 248 124
255 248 124
255 248 124
255 248 124
255 248 124
255 248 124
255 248 124
255 248 124
255 248 124
255 248 124
255 248 124
255 248 124
255 248 124
255 248 124
255 248 124
255 248 124
255 248 124
255 248 124
255 248 124
255 248 124
255 248 124
255 248 124
255 248 124
255 248 124
255 248 124
255 248 124
255 248 124
255 248 124
255 248 124
255 250 125
255 250 125
255 250 125
255 250 125
255 250 125
255 250 125
255 250 125
255 250 125
255 250 125
255 250 125
255 250 125
255 250 125
255 250 125
255 250 125
255 250 125
255 250 125
255 250 125
255 250 125
255 250 125
255 250 125
255 250 125
255 250 125
255 250 125
255 250 125
255 250 125
255 250 125
255 250 125
255 250 125
255 250 125
255 250 125
255 250 125
255 250 125
255 250 125
255 250 125
255 250 125
255 250 125
255 250 125
255 250 125
255 250 125
255 250 125
255 250 125
255 250 125
255 250 125
255 250 125
255 250 125
255 250 125
255 250 125
255 250 125
255 250 125
255 250 125
255 250 125
255 250 125
255 250 125
255 250 125
255 250 125
255 250 125
255 250 125
255 250 125
255 250 125
255 250 125
255 250 125
255 250 125
255 250 125
255 250 125
255 250 125
255 250 125
255 250 125
255 250 125
255 250 125
255 250 125
255 250 125
255 250 125
255 251 125
255 251 125
255 251 125
255 251 125
255 251 125
255 251 125
255 251 125
255 251 125
255 251 125
255 251 125
255 251 125
255 251 125
255 251 125
255 251 125
255 251 125
255 251 125
255 251 125
255 251 125
255 251 125
255 251 125
255 251 125
255 251 125
255 251 125
255 251 125
255 251 125
255 251 125
255 251 125
255 251 125
255 251 125
255 251 125
255 251 125
255 251 125
255 251 125
255 251 125
255 251 125
255 251 125
255 251 125
255 251 125
255 251 125
255 251 125
255 251 125
255 251 125
255 251 125
255 251 125
255 251 125
255 251 125
255 251 125
255 251 125
255 251 125
255 251 125
255 251 125
255 251 125
255 251 125
255 251 125
255 251 125
255 251 125
255 251 125
255 251 125
255 251 125
255 251 125
255 251 125
255 251 125
255 251 125
255 251 125
255 251 125
255 251 125
255 251 125
255 251 125
255 251 125
255 251 125
255 251 125
255 251 125
255 252 126
255 252 126
255 252 126
255 252 126
255 252 126
255 252 126
255 252 126
255 252 126
255 252 126
255 252 126
255 252 126
255 252 126
255 252 126
255 252 126
255 252 126
255 252 126
255 252 126
255 252 126
255 252 126
255 252 126
255 252 126
255 252 126
255 252 126
255 252 126
255 252 126
255 252 126
255 252 126
255 252 126
255 252 126
255 252 126
255 252 126
255 252 126
255 252 126
255 252 126
255 252 126
255 252 126
255 252 126
255 252 126
255 252 126
255 252 126
255 252 126
255 252 126
255 252 126
255 252 126
255 252 126
255 252 126
255 252 126
255 252 126
255 252 126
255 252 126
255 252 126
255 252 126
255 252 126
255 252 126
255 252 126
255 252 126
255 252 126
255 252 126
255 252 126
255 252 126
255 252 126
255 252 126
255 252 126
255 252 126
255 252 126
255 252 126
255 252 126
255 252 126
255 252 126
255 252 126
255 252 126
255 252 126
255 253 126
255 253 126
255 253 126
255 253 126
255 253 126
255 253 126
255 253 126
255 253 126
255 253 126
255 253 126
255 253 126
255 253 126
255 253 126
255 253 126
255 253 126
255 253 126
255 253 126
255 253 126
255 253 126
255 253 126
255 253 126
255 253 126
255 253 126
255 253 126
255 253 126
255 253 126
255 253 126
255 253 126
255 253 126
255 253 126
255 253 126
255 253 126
255 253 126
255 253 126
255 253 126
255 253 126
255 253 126
255 253 126
255 253 126
255 253 126
255 253 126
255 253 126
255 253 126
255 253 126
255 253 126
255 253 126
255 253 126
255 253 126
255 253 126
255 253 126
255 253 126
255 253 126
255 253 126
255 253 126
255 253 126
255 253 126
255 253 126
255 253 126
255 253 126
255 253 126
255 253 126
255 253 126
255 253 126
255 253 126
255 253 126
255 253 126
255 253 126
255 253 126
255 253 126
255 253 126
255 253 126
255 253 126
255 254 127
255 254 127
255 254 127
255 254 127
255 254 127
255 254 127
255 254 127
255 254 127
255 254 127
255 254 127
255 254 127
255 254 127
255 254 127
255 254 127
255 254 127
255 254 127
255 254 127
255 254 127
255 254 127
255 254 127
255 254 127
255 254 127
255 254 127
255 254 127
255 254 127
255 254 127
255 254 127
255 254 127
255 254 127
255 254 127
255 254 127
255 254 127
255 254 127
255 254 127
255 254 127
255 254 127
255 254 127
255 254 127
255 254 127
255 254 127
255 254 127
255 254 127
255 254 127
255 254 127
255 254 127
255 254 127
255 254 127
255 254 127
255 254 127
255 254 127
255 254 127
255 254 127
255 254 127
255 254 127
255 254 127
255 254 127
255 254 127
255 254 127
255 254 127
255 254 127
255 254 127
255 254 127
255 254 127
255 254 127
255 254 127
255 254 127
255 254 127
255 254 127
255 254 127
255 254 127
255 254 127
255 254 127
255 255 128
255 255 128
255 255 128
255 255 128
255 255 128
255 255 128
255 255 128
255 255 128
255 255 128
255 255 128
255 255 128
255 255 128
255 255 128
255 255 128
255 255 128
255 255 128
255 255 128
255 255 128
255 255 128
255 255 128
255 255 128
255 255 128
255 255 128
255 255 128
255 255 128
255 255 128
255 255 128
255 255 128
255 255 128
255 255 128
255 255 128
255 255 128
255 255 128
255 255 128
255 255 128
255 255 128
255 255 128
255 255 128
255 255 128
255 255 128
255 255 128
255 255 128
255 255 128
255 255 128
255 255 128
255 255 128
255 255 128
255 255 128
255 255 128
255 255 128
255 255 128
255 255 128
255 255 128
255 255 128
255 255 128
255 255 128
255 255 128
255 255 128
255 255 128
255 255 128
255 255 128
255 255 128
255 255 128
255 255 128
255 255 128
255 255 128
255 255 128
255 255 128
255 255 128
255 255 128
255 255 128
255 255 128
254 255 128
254 255 128
254 255 128
254 255 128
254 255 128
254 255 128
254 255 128
254 255 128
254 255 128
254 255 128
254 255 128
254 255 128
254 255 128
254 255 128
254 255 128
254 255 128
254 255 128
254 255 128
254 255 128
254 255 128
254 255 128
254 255 128
254 255 128
254 255 128
254 255 128
254 255 128
254 255 128
254 255 128
254 255 128
254 255 128
254 255 128
254 255 128
254 255 128
254 255 128
254 255 128
254 255 128
254 255 128
254 255 128
254 255 128
254 255 128
254 255 128
254 255 128
254 255 128
254 255 128
254 255 128
254 255 128
254 255 128
254 255 128
254 255 128
254 255 128
254 255 128
254 255 128
254 255 128
254 255 128
254 255 128
254 255 128
254 255 128
254 255 128
254 255 128
254 255 128
254 255 128
254 255 128
254 255 128
254 255 128
254 255 128
254 255 128
254 255 128
254 255 128
254 255 128
254 255 128
254 255 128
254 255 128
254 255 129
254 255 129
254 255 129
254 255 129
254 255 129
254 255 129
254 255 129
254 255 129
254 255 129
254 255 129
254 255 129
254 255 129
254 255 129
254 255 129
254 255 129
254 255 129
254 255 129
254 255 129
254 255 129
254 255 129
254 255 129
254 255 129
254 255 129
254 255 129
254 255 129
254 255 129
254 255 129
254 255 129
254 255 129
254 255 129
254 255 129
254 255 129
254 255 129
254 255 129
254 255 129
254 255 129
254 255 129
254 255 129
254 255 129
254 255 129
254 255 129
254 255 129
254 255 129
254 255 129
254 255 129
254 255 129
254 255 129
254 255 129
254 255 129
254 255 129
254 255 129
254 255 129
254 255 129
254 255 129
254 255 129
254 255 129
254 255 129
254 255 129
254 255 129
254 255 129
254 255 129
254 255 129
254 255 129
254 255 129
254 255 129
254 255 129
254 255 129
254 255 129
254 255 129
254 255 129
254 255 129
254 255 129
253 255 129
253 255 129
253 255 129
253 255 129
253 255 129
253 255 129
253 255 129
253 255 129
253 255 129
253 255 129
253 255 129
253 255 129
253 255 129
253 255 129
253 255 129
253 255 129
253 255 129
253 255 129
253 255 129
253 255 129
253 255 129
253 255 129
253 255 129
253 255 129
253 255 129
253 255 129
253 255 129
253 255 129
253 255 129
253 255 129
253 255 129
253 255 129
253 255 129
253 255 129
253 255 129
253 255 129
253 255 129
253 255 129
253 255 129
253 255 129
253 255 129
253 255 129
253 255 129
253 255 129
253 255 129
253 255 129
253 255 129
253 255 129
253 255 129
253 255 129
253 255 129
253 255 129
253 255 129
253 255 129
253 255 129
253 255 129
253 255 129
253 255 129
253 255 129
253 255 129
253 255 129
253 255 129
253 255 129
253 255 129
253 255 129
253 255 129
253 255 129
253 255 129
253 255 129
253 255 129
253 255 129
253 255 129
253 255 130
253 255 130
253 255 130
253 255 130
253 255 130
253 255 130
253 255 130
253 255 130
253 255 130
253 255 130
253 255 130
253 255 130
253 255 130
253 255 130
253 255 130
253 255 130
253 255 130
253 255 130
253 255 130
253 255 130
253 255 130
253 255 130
253 255 130
253 255 130
253 255 130
253 255 130
253 255 130
253 255 130
253 255 130
253 255 130
253 255 130
253 255 130
253 255 130
253 255 130
253 255 130
253 255 130
253 255 130
253 255 130
253 255 130
253 255 130
253 255 130
253 255 130
253 255 130
253 255 130
253 255 130
253 255 130
253 255 130
253 255 130
253 255 130
253 255 130
253 255 130
253 255 130
253 255 130
253 255 130
253 255 130
253 255 130
253 255 130
253 255 130
253 255 130
253 255 130
253 255 130
253 255 130
253 255 130
253 255 130
253 255 130
253 255 130
253 255 130
253 255 130
253 255 130
253 255 130
253 255 130
253 255 130
252 255 130
252 255 130
252 255 130
252 255 130
252 255 130
252 255 130
252 255 130
252 255 130
252 255 130
252 255 130
252 255 130
252 255 130
252 255 130
252 255 130
252 255 130
252 255 130
252 255 130
252 255 130
252 255 130
252 255 130
252 255 130
252 255 130
252 255 130
252 255 130
252 255 130
252 255 130
252 255 130
252 255 130
252 255 130
252 255 130
252 255 130
252 255 130
252 255 130
252 255 130
252 255 130
252 255 130
252 255 130
252 255 130
252 255 130
252 255 130
252 255 130
252 255 130
252 255 130
252 255 130
252 255 130
252 255 130
252 255 130
252 255 130
252 255 130
252 255 130
252 255 130
252 255 130
252 255 130
252 255 130
252 255 130
252 255 130
252 255 130
252 255 130
252 255 130
252 255 130
252 255 130
252 255 130
252 255 130
252 255 130
252 255 130
252 255 130
252 255 130
252 255 130
252 255 130
252 255 130
252 255 130
252 255 130
252 255 131
252 255 131
252 255 131
252 255 131
252 255 131
252 255 131
252 255 131
252 255 131
252 255 131
252 255 131
252 255 131
252 255 131
252 255 131
252 255 131
252 255 131
252 255 131
252 255 131
252 255 131
252 255 131
252 255 131
252 255 131
252 255 131
252 255 131
252 255 131
252 255 131
252 255 131
252 255 131
252 255 131
252 255 131
252 255 131
252 255 131
252 255 131
252 255 131
252 255 131
252 255 131
252 255 131
252 255 131
252 255 131
252 255 131
252 255 131
252 255 131
252 255 131
252 255 131
252 255 131
252 255 131
252 255 131
252 255 131
252 255 131
252 255 131
252 255 131
252 255 131
252 255 131
252 255 131
252 255 131
252 255 131
252 255 131
252 255 131
252 255 131
252 255 131
252 255 131
252 255 131
252 255 131
252 255 131
252 255 131
252 255 131
252 255 131
252 255 131
252 255 131
252 255 131
252 255 131
252 255 131
252 255 131
251 255 131
251 255 131
251 255 131
251 255 131
251 255 131
251 255 131
251 255 131
251 255 131
251 255 131
251 255 131
251 255 131
251 255 131
251 255 131
251 255 131
251 255 131
251 255 131
251 255 131
251 255 131
251 255 131
251 255 131
251 255 131
251 255 131
251 255 131
251 255 131
251 255 131
251 255 131
251 255 131
251 255 131
251 255 131
251 255 131
251 255 131
251 255 131
251 255 131
251 255 131
251 255 131
251 255 131
251 255 131
251 255 131
251 255 131
251 255 131
251 255 131
251 255 131
251 255 131
251 255 131
251 255 131
251 255 131
251 255 131
251 255 131
251 255 131
251 255 131
251 255 131
251 255 131
251 255 131
251 255 131
251 255 131
251 255 131
251 255 131
251 255 131
251 255 131
251 255 131
251 255 131
251 255 131
251 255 131
251 255 131
251 255 131
251 255 131
251 255 131
251 255 131
251 255 131
251 255 131
251 255 131
251 255 131
251 255 132
251 255 132
251 255 132
251 255 132
251 255 132
251 255 132
251 255 132
251 255 132
251 255 132
251 255 132
251 255 132
251 255 132
251 255 132
251 255 132
251 255 132
251 255 132
251 255 132
251 255 132
251 255 132
251 255 132
251 255 132
251 255 132
251 255 132
251 255 132
251 255 132
251 255 132
251 255 132
251 255 132
251 255 132
251 255 132
251 255 132
251 255 132
251 255 132
251 255 132
251 255 132
251 255 132
251 255 132
251 255 132
251 255 132
251 255 132
251 255 132
251 255 132
251 255 132
251 255 132
251 255 132
251 255 132
251 255 132
251 255 132
251 255 132
251 255 132
251 255 132
251 255 132
251 255 132
251 255 132
251 255 132
251 255 132
251 255 132
251 255 132
251 255 132
251 255 132
251 255 132
251 255 132
251 255 132
251 255 132
251 255 132
251 255 132
251 255 132
251 255 132
251 255 132
251 255 132
251 255 132
251 255 132
250 255 132
250 255 132
250 255 132
250 255 132
250 255 132
250 255 132
250 255 132
250 255 132
250 255 132
250 255 132
250 255 132
250 255 132
250 255 132
250 255 132
250 255 132
250 255 132
250 255 132
250 255 132
250 255 132
250 255 132
250 255 132
250 255 132
250 255 132
250 255 132
250 255 132
250 255 132
250 255 132
250 255 132
250 255 132
250 255 132
250 255 132
250 255 132
250 255 132
250 255 132
250 255 132
250 255 132
250 255 132
250 255 132
250 255 132
250 255 132
250 255 132
250 255 132
250 255 132
250 255 132
250 255 132
250 255 132
250 255 132
250 255 132
250 255 132
250 255 132
250 255 132
250 255 132
250 255 132
250 255 132
250 255 132
250 255 132
250 255 132
250 255 132
250 255 132
250 255 132
250 255 132
250 255 132
250 255 132
250 255 132
250 255 132
250 255 132
250 255 132
250 255 132
250 255 132
250 255 132
250 255 132
250 255 132
250 255 133
250 255 133
250 255 133
250 255 133
250 255 133
250 255 133
250 255 133
250 255 133
250 255 133
250 255 133
250 255 133
250 255 133
250 255 133
250 255 133
250 255 133
250 255 133
250 255 133
250 255 133
250 255 133
250 255 133
250 255 133
250 255 133
250 255 133
250 255 133
250 255 133
250 255 133
250 255 133
250 255 133
250 255 133
250 255 133
250 255 133
250 255 133
250 255 133
250 255 133
250 255 133
250 255 133
250 255 133
250 255 133
250 255 133
250 255 133
250 255 133
250 255 133
250 255 133
250 255 133
250 255 133
250 255 133
250 255 133
250 255 133
250 255 133
250 255 133
250 255 133
250 255 133
250 255 133
250 255 133
250 255 133
250 255 133
250 255 133
250 255 133
250 255 133
250 255 133
250 255 133
250 255 133
250 255 133
250 255 133
250 255 133
250 255 133
250 255 133
250 255 133
250 255 133
250 255 133
250 255 133
250 255 133
249 255 134
249 255 134
249 255 134
249 255 134
249 255 134
249 255 134
249 255 134
249 255 134
249 255 134
249 255 134
249 255 134
249 255 134
249 255 134
249 255 134
249 255 134
249 255 134
249 255 134
249 255 134
249 255 134
249 255 134
249 255 134
249 255 134
249 255 134
249 255 134
249 255 134
249 255 134
249 255 134
249 255 134
249 255 134
249 255 134
249 255 134
249 255 134
249 255 134
249 255 134
249 255 134
249 255 134
249 255 134
249 255 134
249 255 134
249 255 134
249 255 134
249 255 134
249 255 134
249 255 134
249 255 134
249 255 134
249 255 134
249 255 134
249 255 134
249 255 134
249 255 134
249 255 134
249 255 134
249 255 134
249 255 134
249 255 134
249 255 134
249 255 134
249 255 134
249 255 134
249 255 134
249 255 134
249 255 134
249 255 134
249 255 134
249 255 134
249 255 134
249 255 134
249 255 134
249 255 134
249 255 134
249 255 134
248 255 134
248 255 134
248 255 134
248 255 134
248 255 134
248 255 134
248 255 134
248 255 134
248 255 134
248 255 134
248 255 134
248 255 134
248 255 134
248 255 134
248 255 134
248 255 134
248 255 134
248 255 134
248 255 134
248 255 134
248 255 134
248 255 134
248 255 134
248 255 134
248 255 134
248 255 134
248 255 134
248 255 134
248 255 134
248 255 134
248 255 134
248 255 134
248 255 134
248 255 134
248 255 134
248 255 134
248 255 134
248 255 134
248 255 134
248 255 134
248 255 134
248 255 134
248 255 134
248 255 134
248 255 134
248 255 134
248 255 134
248 255 134
248 255 134
248 255 134
248 255 134
248 255 134
248 255 134
248 255 134
248 255 134
248 255 134
248 255 134
248 255 134
248 255 134
248 255 134
248 255 134
248 255 134
248 255 134
248 255 134
248 255 134
248 255 134
248 255 134
248 255 134
248 255 134
248 255 134
248 255 134
248 255 134
248 255 135
248 255 135
248 255 135
248 255 135
248 255 135
248 255 135
248 255 135
248 255 135
248 255 135
248 255 135
248 255 135
248 255 135
248 255 135
248 255 135
248 255 135
248 255 135
248 255 135
248 255 135
248 255 135
248 255 135
248 255 135
248 255 135
248 255 135
248 255 135
248 255 135
248 255 135
248 255 135
248 255 135
248 255 135
248 255 135
248 255 135
248 255 135
248 255 135
248 255 135
248 255 135
248 255 135
248 255 135
248 255 135
248 255 135
248 255 135
248 255 135
248 255 135
248 255 135
248 255 135
248 255 135
248 255 135
248 255 135
248 255 135
248 255 135
248 255 135
248 255 135
248 255 135
248 255 135
248 255 135
248 255 135
248 255 135
248 255 135
248 255 135
248 255 135
248 255 135
248 255 135
248 255 135
248 255 135
248 255 135
248 255 135
248 255 135
248 255 135
248 255 135
248 255 135
248 255 135
248 255 135
248 255 135
247 255 135
247 255 135
247 255 135
247 255 135
247 255 135
247 255 135
247 255 135
247 255 135
247 255 135
247 255 135
247 255 135
247 255 135
247 255 135
247 255 135
247 255 135
247 255 135
247 255 135
247 255 135
247 255 135
247 255 135
247 255 135
247 255 135
247 255 135
247 255 135
247 255 135
247 255 135
247 255 135
247 255 135
247 255 135
247 255 135
247 255 135
247 255 135
247 255 135
247 255 135
247 255 135
247 255 135
247 255 135
247 255 135
247 255 135
247 255 135
247 255 135
247 255 135
247 255 135
247 255 135
247 255 135
247 255 135
247 255 135
247 255 135
247 255 135
247 255 135
247 255 135
247 255 135
247 255 135
247 255 135
247 255 135
247 255 135
247 255 135
247 255 135
247 255 135
247 255 135
247 255 135
247 255 135
247 255 135
247 255 135
247 255 135
247 255 135
247 255 135
247 255 135
247 255 135
247 255 135
247 255 135
247 255 135
247 255 136
247 255 136
247 255 136
247 255 136
247 255 136
247 255 136
247 255 136
247 255 136
247 255 136
247 255 136
247 255 136
247 255 136
247 255 136
247 255 136
247 255 136
247 255 136
247 255 136
247 255 136
247 255 136
247 255 136
247 255 136
247 255 136
247 255 136
247 255 136
247 255 136
247 255 136
247 255 136
247 255 136
247 255 136
247 255 136
247 255 136
247 255 136
247 255 136
247 255 136
247 255 136
247 255 136
247 255 136
247 255 136
247 255 136
247 255 136
247 255 136
247 255 136
247 255 136
247 255 136
247 255 136
247 255 136
247 255 136
247 255 136
247 255 136
247 255 136
247 255 136
247 255 136
247 255 136
247 255 136
247 255 136
247 255 136
247 255 136
247 255 136
247 255 136
247 255 136
247 255 136
247 255 136
247 255 136
247 255 136
247 255 136
247 255 136
247 255 136
247 255 136
247 255 136
247 255 136
247 255 136
247 255 136
246 255 136
246 255 136
246 255 136
246 255 136
246 255 136
246 255 136
246 255 136
246 255 136
246 255 136
246 255 136
246 255 136
246 255 136
246 255 136
246 255 136
246 255 136
246 255 136
246 255 136
246 255 136
246 255 136
246 255 136
246 255 136
246 255 136
246 255 136
246 255 136
246 255 136
246 255 136
246 255 136
246 255 136
246 255 136
246 255 136
246 255 136
246 255 136
246 255 136
246 255 136
246 255 136
246 255 136
246 255 136
246 255 136
246 255 136
246 255 136
246 255 136
246 255 136
246 255 136
246 255 136
246 255 136
246 255 136
246 255 136
246 255 136
246 255 136
246 255 136
246 255 136
246 255 136
246 255 136
246 255 136
246 255 136
246 255 136
246 255 136
246 255 136
246 255 136
246 255 136
246 255 136
246 255 136
246 255 136
246 255 136
246 255 136
246 255 136
246 255 136
246 255 136
246 255 136
246 255 136
246 255 136
246 255 136
246 255 137
246 255 137
246 255 137
246 255 137
246 255 137
246 255 137
246 255 137
246 255 137
246 255 137
246 255 137
246 255 137
246 255 137
246 255 137
246 255 137
246 255 137
246 255 137
246 255 137
246 255 137
246 255 137
246 255 137
246 255 137
246 255 137
246 255 137
246 255 137
246 255 137
246 255 137
246 255 137
246 255 137
246 255 137
246 255 137
246 255 137
246 255 137
246 255 137
246 255 137
246 255 137
246 255 137
246 255 137
246 255 137
246 255 137
246 255 137
246 255 137
246 255 137
246 255 137
246 255 137
246 255 137
246 255 137
246 255 137
246 255 137
246 255 137
246 255 137
246 255 137
246 255 137
246 255 137
246 255 137
246 255 137
246 255 137
246 255 137
246 255 137
246 255 137
246 255 137
246 255 137
246 255 137
246 255 137
246 255 137
246 255 137
246 255 137
246 255 137
246 255 137
246 255 137
246 255 137
246 255 137
246 255 137
245 255 137
245 255 137
245 255 137
245 255 137
245 255 137
245 255 137
245 255 137
245 255 137
245 255 137
245 255 137
245 255 137
245 255 137
245 255 137
245 255 137
245 255 137
245 255 137
245 255 137
245 255 137
245 255 137
245 255 137
245 255 137
245 255 137
245 255 137
245 255 137
245 255 137
245 255 137
245 255 137
245 255 137
245 255 137
245 255 137
245 255 137
245 255 137
245 255 137
245 255 137
245 255 137
245 255 137
245 255 137
245 255 137
245 255 137
245 255 137
245 255 137
245 255 137
245 255 137
245 255 137
245 255 137
245 255 137
245 255 137
245 255 137
245 255 137
245 255 137
245 255 137
245 255 137
245 255 137
245 255 137
245 255 137
245 255 137
245 255 137
245 255 137
245 255 137
245 255 137
245 255 137
245 255 137
245 255 137
245 255 137
245 255 137
245 255 137
245 255 137
245 255 137
245 255 137
245 255 137
245 255 137
245 255 137
245 255 138
245 255 138
245 255 138
245 255 138
245 255 138
245 255 138
245 255 138
245 255 138
245 255 138
245 255 138
245 255 138
245 255 138
245 255 138
245 255 138
245 255 138
245 255 138
245 255 138
245 255 138
245 255 138
245 255 138
245 255 138
245 255 138
245 255 138
245 255 138
245 255 138
245 255 138
245 255 138
245 255 138
245 255 138
245 255 138
245 255 138
245 255 138
245 255 138
245 255 138
245 255 138
245 255 138
245 255 138
245 255 138
245 255 138
245 255 138
245 255 138
245 255 138
245 255 138
245 255 138
245 255 138
245 255 138
245 255 138
245 255 138
245 255 138
245 255 138
245 255 138
245 255 138
245 255 138
245 255 138
245 255 138
245 255 138
245 255 138
245 255 138
245 255 138
245 255 138
245 255 138
245 255 138
245 255 138
245 255 138
245 255 138
245 255 138
245 255 138
245 255 138
245 255 138
245 255 138
245 255 138
245 255 138
244 255 138
244 255 138
244 255 138
244 255 138
244 255 138
244 255 138
244 255 138
244 255 138
244 255 138
244 255 138
244 255 138
244 255 138
244 255 138
244 255 138
244 255 138
244 255 138
244 255 138
244 255 138
244 255 138
244 255 138
244 255 138
244 255 138
244 255 138
244 255 138
244 255 138
244 255 138
244 255 138
244 255 138
244 255 138
244 255 138
244 255 138
244 255 138
244 255 138
244 255 138
244 255 138
244 255 138
244 255 138
244 255 138
244 255 138
244 255 138
244 255 138
244 255 138
244 255 138
244 255 138
244 255 138
244 255 138
244 255 138
244 255 138
244 255 138
244 255 138
244 255 138
244 255 138
244 255 138
244 255 138
244 255 138
244 255 138
244 255 138
244 255 138
244 255 138
244 255 138
244 255 138
244 255 138
244 255 138
244 255 138
244 255 138
244 255 138
244 255 138
244 255 138
244 255 138
244 255 138
244 255 138
244 255 138
244 255 139
244 255 139
244 255 139
244 255 139
244 255 139
244 255 139
244 255 139
244 255 139
244 255 139
244 255 139
244 255 139
244 255 139
244 255 139
244 255 139
244 255 139
244 255 139
244 255 139
244 255 139
244 255 139
244 255 139
244 255 139
244 255 139
244 255 139
244 255 139
244 255 139
244 255 139
244 255 139
244 255 139
244 255 139
244 255 139
244 255 139
244 255 139
244 255 139
244 255 139
244 255 139
244 255 139
244 255 139
244 255 139
244 255 139
244 255 139
244 255 139
244 255 139
244 255 139
244 255 139
244 255 139
244 255 139
244 255 139
244 255 139
244 255 139
244 255 139
244 255 139
244 255 139
244 255 139
244 255 139
244 255 139
244 255 139
244 255 139
244 255 139
244 255 139
244 255 139
244 255 139
244 255 139
244 255 139
244 255 139
244 255 139
244 255 139
244 255 139
244 255 139
244 255 139
244 255 139
244 255 139
244 255 139
243 255 140
243 255 140
243 255 140
243 255 140
243 255 140
243 255 140
243 255 140
243 255 140
243 255 140
243 255 140
243 255 140
243 255 140
243 255 140
243 255 140
243 255 140
243 255 140
243 255 140
243 255 140
243 255 140
243 255 140
243 255 140
243 255 140
243 255 140
243 255 140
243 255 140
243 255 140
243 255 140
243 255 140
243 255 140
243 255 140
243 255 140
243 255 140
243 255 140
243 255 140
243 255 140
243 255 140
243 255 140
243 255 140
243 255 140
243 255 140
243 255 140
243 255 140
243 255 140
243 255 140
243 255 140
243 255 140
243 255 140
243 255 140
243 255 140
243 255 140
243 255 140
243 255 140
243 255 140
243 255 140
243 255 140
243 255 140
243 255 140
243 255 140
243 255 140
243 255 140
243 255 140
243 255 140
243 255 140
243 255 140
243 255 140
243 255 140
243 255 140
243 255 140
243 255 140
243 255 140
243 255 140
243 255 140
242 255 140
242 255 140
242 255 140
242 255 140
242 255 140
242 255 140
242 255 140
242 255 140
242 255 140
242 255 140
242 255 140
242 255 140
242 255 140
242 255 140
242 255 140
242 255 140
242 255 140
242 255 140
242 255 140
242 255 140
242 255 140
242 255 140
242 255 140
242 255 140
242 255 140
242 255 140
242 255 140
242 255 140
242 255 140
242 255 140
242 255 140
242 255 140
242 255 140
242 255 140
242 255 140
242 255 140
242 255 140
242 255 140
242 255 140
242 255 140
242 255 140
242 255 140
242 255 140
242 255 140
242 255 140
242 255 140
242 255 140
242 255 140
242 255 140
242 255 140
242 255 140
242 255 140
242 255 140
242 255 140
242 255 140
242 255 140
242 255 140
242 255 140
242 255 140
242 255 140
242 255 140
242 255 140
242 255 140
242 255 140
242 255 140
242 255 140
242 255 140
242 255 140
242 255 140
242 255 140
242 255 140
242 255 140
242 255 141
242 255 141
242 255 141
242 255 141
242 255 141
242 255 141
242 255 141
242 255 141
242 255 141
242 255 141
242 255 141
242 255 141
242 255 141
242 255 141
242 255 141
242 255 141
242 255 141
242 255 141
242 255 141
242 255 141
242 255 141
242 255 141
242 255 141
242 255 141
242 255 141
242 255 141
242 255 141
242 255 141
242 255 141
242 255 141
242 255 141
242 255 141
242 255 141
242 255 141
242 255 141
242 255 141
242 255 141
242 255 141
242 255 141
242 255 141
242 255 141
242 255 141
242 255 141
242 255 141
242 255 141
242 255 141
242 255 141
242 255 141
242 255 141
242 255 141
242 255 141
242 255 141
242 255 141
242 255 141
242 255 141
242 255 141
242 255 141
242 255 141
242 255 141
242 255 141
242 255 141
242 255 141
242 255 141
242 255 141
242 255 141
242 255 141
242 255 141
242 255 141
242 255 141
242 255 141
242 255 141
242 255 141
241 255 141
241 255 141
241 255 141
241 255 141
241 255 141
241 255 141
241 255 141
241 255 141
241 255 141
241 255 141
241 255 141
241 255 141
241 255 141
241 255 141
241 255 141
241 255 141
241 255 141
241 255 141
241 255 141
241 255 141
241 255 141
241 255 141
241 255 141
241 255 141
241 255 141
241 255 141
241 255 141
241 255 141
241 255 141
241 255 141
241 255 141
241 255 141
241 255 141
241 255 141
241 255 141
241 255 141
241 255 141
241 255 141
241 255 141
241 255 141
241 255 141
241 255 141
241 255 141
241 255 141
241 255 141
241 255 141
241 255 141
241 255 141
241 255 141
241 255 141
241 255 141
241 255 141
241 255 141
241 255 141
241 255 141
241 255 141
241 255 141
241 255 141
241 255 141
241 255 141
241 255 141
241 255 141
241 255 141
241 255 141
241 255 141
241 255 141
241 255 141
241 255 141
241 255 141
241 255 141
241 255 141
241 255 141
241 255 142
241 255 142
241 255 142
241 255 142
241 255 142
241 255 142
241 255 142
241 255 142
241 255 142
241 255 142
241 255 142
241 255 142
241 255 142
241 255 142
241 255 142
241 255 142
241 255 142
241 255 142
241 255 142
241 255 142
241 255 142
241 255 142
241 255 142
241 255 142
241 255 142
241 255 142
241 255 142
241 255 142
241 255 142
241 255 142
241 255 142
241 255 142
241 255 142
241 255 142
241 255 142
241 255 142
241 255 142
241 255 142
241 255 142
241 255 142
241 255 142
241 255 142
241 255 142
241 255 142
241 255 142
241 255 142
241 255 142
241 255 142
241 255 142
241 255 142
241 255 142
241 255 142
241 255 142
241 255 142
241 255 142
241 255 142
241 255 142
241 255 142
241 255 142
241 255 142
241 255 142
241 255 142
241 255 142
241 255 142
241 255 142
241 255 142
241 255 142
241 255 142
241 255 142
241 255 142
241 255 142
241 255 142
240 255 142
240 255 142
240 255 142
240 255 142
240 255 142
240 255 142
240 255 142
240 255 142
240 255 142
240 255 142
240 255 142
240 255 142
240 255 142
240 255 142
240 255 142
240 255 142
240 255 142
240 255 142
240 255 142
240 255 142
240 255 142
240 255 142
240 255 142
240 255 142
240 255 142
240 255 142
240 255 142
240 255 142
240 255 142
240 255 142
240 255 142
240 255 142
240 255 142
240 255 142
240 255 142
240 255 142
240 255 142
240 255 142
240 255 142
240 255 142
240 255 142
240 255 142
240 255 142
240 255 142
240 255 142
240 255 142
240 255 142
240 255 142
240 255 142
240 255 142
240 255 142
240 255 142
240 255 142
240 255 142
240 255 142
240 255 142
240 255 142
240 255 142
240 255 142
240 255 142
240 255 142
240 255 142
240 255 142
240 255 142
240 255 142
240 255 142
240 255 142
240 255 142
240 255 142
240 255 142
240 255 142
240 255 142
240 255 143
240 255 143
240 255 143
240 255 143
240 255 143
240 255 143
240 255 143
240 255 143
240 255 143
240 255 143
240 255 143
240 255 143
240 255 143
240 255 143
240 255 143
240 255 143
240 255 143
240 255 143
240 255 143
240 255 143
240 255 143
240 255 143
240 255 143
240 255 143
240 255 143
240 255 143
240 255 143
240 255 143
240 255 143
240 255 143
240 255 143
240 255 143
240 255 143
240 255 143
240 255 143
240 255 143
240 255 143
240 255 143
240 255 143
240 255 143
240 255 143
240 255 143
240 255 143
240 255 143
240 255 143
240 255 143
240 255 143
240 255 143
240 255 143
240 255 143
240 255 143
240 255 143
240 255 143
240 255 143
240 255 143
240 255 143
240 255 143
240 255 143
240 255 143
240 255 143
240 255 143
240 255 143
240 255 143
240 255 143
240 255 143
240 255 143
240 255 143
240 255 143
240 255 143
240 255 143
240 255 143
240 255 143
239 255 143
239 255 143
239 255 143
239 255 143
239 255 143
239 255 143
239 255 143
239 255 143
239 255 143
239 255 143
239 255 143
239 255 143
239 255 143
239 255 143
239 255 143
239 255 143
239 255 143
239 255 143
239 255 143
239 255 143
239 255 143
239 255 143
239 255 143
239 255 143
239 255 143
239 255 143
239 255 143
239 255 143
239 255 143
239 255 143
239 255 143
239 255 143
239 255 143
239 255 143
239 255 143
239 255 143
239 255 143
239 255 143
239 255 143
239 255 143
239 255 143
239 255 143
239 255 143
239 255 143
239 255 143
239 255 143
239 255 143
239 255 143
239 255 143
239 255 143
239 255 143
239 255 143
239 255 143
239 255 143
239 255 143
239 255 143
239 255 143
239 255 143
239 255 143
239 255 143
239 255 143
239 255 143
239 255 143
239 255 143
239 255 143
239 255 143
239 255 143
239 255 143
239 255 143
239 255 143
239 255 143
239 255 143
239 255 144
239 255 144
239 255 144
239 255 144
239 255 144
239 255 144
239 255 144
239 255 144
239 255 144
239 255 144
239 255 144
239 255 144
239 255 144
239 255 144
239 255 144
239 255 144
239 255 144
239 255 144
239 255 144
239 255 144
239 255 144
239 255 144
239 255 144
239 255 144
239 255 144
239 255 144
239 255 144
239 255 144
239 255 144
239 255 144
239 255 144
239 255 144
239 255 144
239 255 144
239 255 144
239 255 144
239 255 144
239 255 144
239 255 144
239 255 144
239 255 144
239 255 144
239 255 144
239 255 144
239 255 144
239 255 144
239 255 144
239 255 144
239 255 144
239 255 144
239 255 144
239 255 144
239 255 144
239 255 144
239 255 144
239 255 144
239 255 144
239 255 144
239 255 144
239 255 144
239 255 144
239 255 144
239 255 144
239 255 144
239 255 144
239 255 144
239 255 144
239 255 144
239 255 144
239 255 144
239 255 144
239 255 144
238 255 144
238 255 144
238 255 144
238 255 144
238 255 144
238 255 144
238 255 144
238 255 144
238 255 144
238 255 144
238 255 144
238 255 144
238 255 144
238 255 144
238 255 144
238 255 144
238 255 144
238 255 144
238 255 144
238 255 144
238 255 144
238 255 144
238 255 144
238 255 144
238 255 144
238 255 144
238 255 144
238 255 144
238 255 144
238 255 144
238 255 144
238 255 144
238 255 144
238 255 144
238 255 144
238 255 144
238 255 144
238 255 144
238 255 144
238 255 144
238 255 144
238 255 144
238 255 144
238 255 144
238 255 144
238 255 144
238 255 144
238 255 144
238 255 144
238 255 144
238 255 144
238 255 144
238 255 144
238 255 144
238 255 144
238 255 144
238 255 144
238 255 144
238 255 144
238 255 144
238 255 144
238 255 144
238 255 144
238 255 144
238 255 144
238 255 144
238 255 144
238 255 144
238 255 144
238 255 144
238 255 144
238 255 144
237 255 145
237 255 145
237 255 145
237 255 145
237 255 145
237 255 145
237 255 145
237 255 145
237 255 145
237 255 145
237 255 145
237 255 145
237 255 145
237 255 145
237 255 145
237 255 145
237 255 145
237 255 145
237 255 145
237 255 145
237 255 145
237 255 145
237 255 145
237 255 145
237 255 145
237 255 145
237 255 145
237 255 145
237 255 145
237 255 145
237 255 145
237 255 145
237 255 145
237 255 145
237 255 145
237 255 145
237 255 145
237 255 145
237 255 145
237 255 145
237 255 145
237 255 145
237 255 145
237 255 145
237 255 145
237 255 145
237 255 145
237 255 145
237 255 145
237 255 145
237 255 145
237 255 145
237 255 145
237 255 145
237 255 145
237 255 145
237 255 145
237 255 145
237 255 145
237 255 145
237 255 145
237 255 145
237 255 145
237 255 145
237 255 145
237 255 145
237 255 145
237 255 145
237 255 145
237 255 145
237 255 145
237 255 145
237 255 146
237 255 146
237 255 146
237 255 146
237 255 146
237 255 146
237 255 146
237 255 146
237 255 146
237 255 146
237 255 146
237 255 146
237 255 146
237 255 146
237 255 146
237 255 146
237 255 146
237 255 146
237 255 146
237 255 146
237 255 146
237 255 146
237 255 146
237 255 146
237 255 146
237 255 146
237 255 146
237 255 146
237 255 146
237 255 146
237 255 146
237 255 146
237 255 146
237 255 146
237 255 146
237 255 146
237 255 146
237 255 146
237 255 146
237 255 146
237 255 146
237 255 146
237 255 146
237 255 146
237 255 146
237 255 146
237 255 146
237 255 146
237 255 146
237 255 146
237 255 146
237 255 146
237 255 146
237 255 146
237 255 146
237 255 146
237 255 146
237 255 146
237 255 146
237 255 146
237 255 146
237 255 146
237 255 146
237 255 146
237 255 146
237 255 146
237 255 146
237 255 146
237 255 146
237 255 146
237 255 146
237 255 146
236 255 146
236 255 146
236 255 146
236 255 146
236 255 146
236 255 146
236 255 146
236 255 146
236 255 146
236 255 146
236 255 146
236 255 146
236 255 146
236 255 146
236 255 146
236 255 146
236 255 146
236 255 146
236 255 146
236 255 146
236 255 146
236 255 146
236 255 146
236 255 146
236 255 146
236 255 146
236 255 146
236 255 146
236 255 146
236 255 146
236 255 146
236 255 146
236 255 146
236 255 146
236 255 146
236 255 146
236 255 146
236 255 146
236 255 146
236 255 146
236 255 146
236 255 146
236 255 146
236 255 146
236 255 146
236 255 146
236 255 146
236 255 146
236 255 146
236 255 146
236 255 146
236 255 146
236 255 146
236 255 146
236 255 146
236 255 146
236 255 146
236 255 146
236 255 146
236 255 146
236 255 146
236 255 146
236 255 146
236 255 146
236 255 146
236 255 146
236 255 146
236 255 146
236 255 146
236 255 146
236 255 146
236 255 146
236 255 147
236 255 147
236 255 147
236 255 147
236 255 147
236 255 147
236 255 147
236 255 147
236 255 147
236 255 147
236 255 147
236 255 147
236 255 147
236 255 147
236 255 147
236 255 147
236 255 147
236 255 147
236 255 147
236 255 147
236 255 147
236 255 147
236 255 147
236 255 147
236 255 147
236 255 147
236 255 147
236 255 147
236 255 147
236 255 147
236 255 147
236 255 147
236 255 147
236 255 147
236 255 147
236 255 147
236 255 147
236 255 147
236 255 147
236 255 147
236 255 147
236 255 147
236 255 147
236 255 147
236 255 147
236 255 147
236 255 147
236 255 147
236 255 147
236 255 147
236 255 147
236 255 147
236 255 147
236 255 147
236 255 147
236 255 147
236 255 147
236 255 147
236 255 147
236 255 147
236 255 147
236 255 147
236 255 147
236 255 147
236 255 147
236 255 147
236 255 147
236 255 147
236 255 147
236 255 147
236 255 147
236 255 147
235 255 147
235 255 147
235 255 147
235 255 147
235 255 147
235 255 147
235 255 147
235 255 147
235 255 147
235 255 147
235 255 147
235 255 147
235 255 147
235 255 147
235 255 147
235 255 147
235 255 147
235 255 147
235 255 147
235 255 147
235 255 147
235 255 147
235 255 147
235 255 147
235 255 147
235 255 147
235 255 147
235 255 147
235 255 147
235 255 147
235 255 147
235 255 147
235 255 147
235 255 147
235 255 147
235 255 147
235 255 147
235 255 147
235 255 147
235 255 147
235 255 147
235 255 147
235 255 147
235 255 147
235 255 147
235 255 147
235 255 147
235 255 147
235 255 147
235 255 147
235 255 147
235 255 147
235 255 147
235 255 147
235 255 147
235 255 147
235 255 147
235 255 147
235 255 147
235 255 147
235 255 147
235 255 147
235 255 147
235 255 147
235 255 147
235 255 147
235 255 147
235 255 147
235 255 147
235 255 147
235 255 147
235 255 147
235 255 148
235 255 148
235 255 148
235 255 148
235 255 148
235 255 148
235 255 148
235 255 148
235 255 148
235 255 148
235 255 148
235 255 148
235 255 148
235 255 148
235 255 148
235 255 148
235 255 148
235 255 148
235 255 148
235 255 148
235 255 148
235 255 148
235 255 148
235 255 148
235 255 148
235 255 148
235 255 148
235 255 148
235 255 148
235 255 148
235 255 148
235 255 148
235 255 148
235 255 148
235 255 148
235 255 148
235 255 148
235 255 148
235 255 148
235 255 148
235 255 148
235 255 148
235 255 148
235 255 148
235 255 148
235 255 148
235 255 148
235 255 148
235 255 148
235 255 148
235 255 148
235 255 148
235 255 148
235 255 148
235 255 148
235 255 148
235 255 148
235 255 148
235 255 148
235 255 148
235 255 148
235 255 148
235 255 148
235 255 148
235 255 148
235 255 148
235 255 148
235 255 148
235 255 148
235 255 148
235 255 148
235 255 148
234 255 148
234 255 148
234 255 148
234 255 148
234 255 148
234 255 148
234 255 148
234 255 148
234 255 148
234 255 148
234 255 148
234 255 148
234 255 148
234 255 148
234 255 148
234 255 148
234 255 148
234 255 148
234 255 148
234 255 148
234 255 148
234 255 148
234 255 148
234 255 148
234 255 148
234 255 148
234 255 148
234 255 148
234 255 148
234 255 148
234 255 148
234 255 148
234 255 148
234 255 148
234 255 148
234 255 148
234 255 148
234 255 148
234 255 148
234 255 148
234 255 148
234 255 148
234 255 148
234 255 148
234 255 148
234 255 148
234 255 148
234 255 148
234 255 148
234 255 148
234 255 148
234 255 148
234 255 148
234 255 148
234 255 148
234 255 148
234 255 148
234 255 148
234 255 148
234 255 148
234 255 148
234 255 148
234 255 148
234 255 148
234 255 148
234 255 148
234 255 148
234 255 148
234 255 148
234 255 148
234 255 148
234 255 148
234 255 149
234 255 149
234 255 149
234 255 149
234 255 149
234 255 149
234 255 149
234 255 149
234 255 149
234 255 149
234 255 149
234 255 149
234 255 149
234 255 149
234 255 149
234 255 149
234 255 149
234 255 149
234 255 149
234 255 149
234 255 149
234 255 149
234 255 149
234 255 149
234 255 149
234 255 149
234 255 149
234 255 149
234 255 149
234 255 149
234 255 149
234 255 149
234 255 149
234 255 149
234 255 149
234 255 149
234 255 149
234 255 149
234 255 149
234 255 149
234 255 149
234 255 149
234 255 149
234 255 149
234 255 149
234 255 149
234 255 149
234 255 149
234 255 149
234 255 149
234 255 149
234 255 149
234 255 149
234 255 149
234 255 149
234 255 149
234 255 149
234 255 149
234 255 149
234 255 149
234 255 149
234 255 149
234 255 149
234 255 149
234 255 149
234 255 149
234 255 149
234 255 149
234 255 149
234 255 149
234 255 149
234 255 149
233 255 149
233 255 149
233 255 149
233 255 149
233 255 149
233 255 149
233 255 149
233 255 149
233 255 149
233 255 149
233 255 149
233 255 149
233 255 149
233 255 149
233 255 149
233 255 149
233 255 149
233 255 149
233 255 149
233 255 149
233 255 149
233 255 149
233 255 149
233 255 149
233 255 149
233 255 149
233 255 149
233 255 149
233 255 149
233 255 149
233 255 149
233 255 149
233 255 149
233 255 149
233 255 149
233 255 149
233 255 149
233 255 149
233 255 149
233 255 149
233 255 149
233 255 149
233 255 149
233 255 149
233 255 149
233 255 149
233 255 149
233 255 149
233 255 149
233 255 149
233 255 149
233 255 149
233 255 149
233 255 149
233 255 149
233 255 149
233 255 149
233 255 149
233 255 149
233 255 149
233 255 149
233 255 149
233 255 149
233 255 149
233 255 149
233 255 149
233 255 149
233 255 149
233 255 149
233 255 149
233 255 149
233 255 149
233 255 150
233 255 150
233 255 150
233 255 150
233 255 150
233 255 150
233 255 150
233 255 150
233 255 150
233 255 150
233 255 150
233 255 150
233 255 150
233 255 150
233 255 150
233 255 150
233 255 150
233 255 150
233 255 150
233 255 150
233 255 150
233 255 150
233 255 150
233 255 150
233 255 150
233 255 150
233 255 150
233 255 150
233 255 150
233 255 150
233 255 150
233 255 150
233 255 150
233 255 150
233 255 150
233 255 150
233 255 150
233 255 150
233 255 150
233 255 150
233 255 150
233 255 150
233 255 150
233 255 150
233 255 150
233 255 150
233 255 150
233 255 150
233 255 150
233 255 150
233 255 150
233 255 150
233 255 150
233 255 150
233 255 150
233 255 150
233 255 150
233 255 150
233 255 150
233 255 150
233 255 150
233 255 150
233 255 150
233 255 150
233 255 150
233 255 150
233 255 150
233 255 150
233 255 150
233 255 150
233 255 150
233 255 150
232 255 150
232 255 150
232 255 150
232 255 150
232 255 150
232 255 150
232 255 150
232 255 150
232 255 150
232 255 150
232 255 150
232 255 150
232 255 150
232 255 150
232 255 150
232 255 150
232 255 150
232 255 150
232 255 150
232 255 150
232 255 150
232 255 150
232 255 150
232 255 150
232 255 150
232 255 150
232 255 150
232 255 150
232 255 150
232 255 150
232 255 150
232 255 150
232 255 150
232 255 150
232 255 150
232 255 150
232 255 150
232 255 150
232 255 150
232 255 150
232 255 150
232 255 150
232 255 150
232 255 150
232 255 150
232 255 150
232 255 150
232 255 150
232 255 150
232 255 150
232 255 150
232 255 150
232 255 150
232 255 150
232 255 150
232 255 150
232 255 150
232 255 150
232 255 150
232 255 150
232 255 150
232 255 150
232 255 150
232 255 150
232 255 150
232 255 150
232 255 150
232 255 150
232 255 150
232 255 150
232 255 150
232 255 150
231 255 151
231 255 151
231 255 151
231 255 151
231 255 151
231 255 151
231 255 151
231 255 151
231 255 151
231 255 151
231 255 151
231 255 151
231 255 151
231 255 151
231 255 151
231 255 151
231 255 151
231 255 151
231 255 151
231 255 151
231 255 151
231 255 151
231 255 151
231 255 151
231 255 151
231 255 151
231 255 151
231 255 151
231 255 151
231 255 151
231 255 151
231 255 151
231 255 151
231 255 151
231 255 151
231 255 151
231 255 151
231 255 151
231 255 151
231 255 151
231 255 151
231 255 151
231 255 151
231 255 151
231 255 151
231 255 151
231 255 151
231 255 151
231 255 151
231 255 151
231 255 151
231 255 151
231 255 151
231 255 151
231 255 151
231 255 151
231 255 151
231 255 151
231 255 151
231 255 151
231 255 151
231 255 151
231 255 151
231 255 151
231 255 151
231 255 151
231 255 151
231 255 151
231 255 151
231 255 151
231 255 151
231 255 151
231 255 152
231 255 152
231 255 152
231 255 152
231 255 152
231 255 152
231 255 152
231 255 152
231 255 152
231 255 152
231 255 152
231 255 152
231 255 152
231 255 152
231 255 152
231 255 152
231 255 152
231 255 152
231 255 152
231 255 152
231 255 152
231 255 152
231 255 152
231 255 152
231 255 152
231 255 152
231 255 152
231 255 152
231 255 152
231 255 152
231 255 152
231 255 152
231 255 152
231 255 152
231 255 152
231 255 152
231 255 152
231 255 152
231 255 152
231 255 152
231 255 152
231 255 152
231 255 152
231 255 152
231 255 152
231 255 152
231 255 152
231 255 152
231 255 152
231 255 152
231 255 152
231 255 152
231 255 152
231 255 152
231 255 152
231 255 152
231 255 152
231 255 152
231 255 152
231 255 152
231 255 152
231 255 152
231 255 152
231 255 152
231 255 152
231 255 152
231 255 152
231 255 152
231 255 152
231 255 152
231 255 152
231 255 152
230 255 152
230 255 152
230 255 152
230 255 152
230 255 152
230 255 152
230 255 152
230 255 152
230 255 152
230 255 152
230 255 152
230 255 152
230 255 152
230 255 152
230 255 152
230 255 152
230 255 152
230 255 152
230 255 152
230 255 152
230 255 152
230 255 152
230 255 152
230 255 152
230 255 152
230 255 152
230 255 152
230 255 152
230 255 152
230 255 152
230 255 152
230 255 152
230 255 152
230 255 152
230 255 152
230 255 152
230 255 152
230 255 152
230 255 152
230 255 152
230 255 152
230 255 152
230 255 152
230 255 152
230 255 152
230 255 152
230 255 152
230 255 152
230 255 152
230 255 152
230 255 152
230 255 152
230 255 152
230 255 152
230 255 152
230 255 152
230 255 152
230 255 152
230 255 152
230 255 152
230 255 152
230 255 152
230 255 152
230 255 152
230 255 152
230 255 152
230 255 152
230 255 152
230 255 152
230 255 152
230 255 152
230 255 152
230 255 153
230 255 153
230 255 153
230 255 153
230 255 153
230 255 153
230 255 153
230 255 153
230 255 153
230 255 153
230 255 153
230 255 153
230 255 153
230 255 153
230 255 153
230 255 153
230 255 153
230 255 153
230 255 153
230 255 153
230 255 153
230 255 153
230 255 153
230 255 153
230 255 153
230 255 153
230 255 153
230 255 153
230 255 153
230 255 153
230 255 153
230 255 153
230 255 153
230 255 153
230 255 153
230 255 153
230 255 153
230 255 153
230 255 153
230 255 153
230 255 153
230 255 153
230 255 153
230 255 153
230 255 153
230 255 153
230 255 153
230 255 153
230 255 153
230 255 153
230 255 153
230 255 153
230 255 153
230 255 153
230 255 153
230 255 153
230 255 153
230 255 153
230 255 153
230 255 153
230 255 153
230 255 153
230 255 153
230 255 153
230 255 153
230 255 153
230 255 153
230 255 153
230 255 153
230 255 153
230 255 153
230 255 153
229 255 153
229 255 153
229 255 153
229 255 153
229 255 153
229 255 153
229 255 153
229 255 153
229 255 153
229 255 153
229 255 153
229 255 153
229 255 153
229 255 153
229 255 153
229 255 153
229 255 153
229 255 153
229 255 153
229 255 153
229 255 153
229 255 153
229 255 153
229 255 153
229 255 153
229 255 153
229 255 153
229 255 153
229 255 153
229 255 153
229 255 153
229 255 153
229 255 153
229 255 153
229 255 153
229 255 153
229 255 153
229 255 153
229 255 153
229 255 153
229 255 153
229 255 153
229 255 153
229 255 153
229 255 153
229 255 153
229 255 153
229 255 153
229 255 153
229 255 153
229 255 153
229 255 153
229 255 153
229 255 153
229 255 153
229 255 153
229 255 153
229 255 153
229 255 153
229 255 153
229 255 153
229 255 153
229 255 153
229 255 153
229 255 153
229 255 153
229 255 153
229 255 153
229 255 153
229 255 153
229 255 153
229 255 153
0 0 0
0 0 0
0 0 0
0 0 0
0 0 0
0 0 0
0 0 0
0 0 0
0 0 0
0 0 0
0 0 0
0 0 0
0 0 0
0 0 0
229 255 154
229 255 154
229 255 154
229 255 154
229 255 154
229 255 154
229 255 154
229 255 154
229 255 154
229 255 154
229 255 154
229 255 154
229 255 154
229 255 154
229 255 154
229 255 154
229 255 154
229 255 154
229 255 154
229 255 154
229 255 154
229 255 154
229 255 154
229 255 154
229 255 154
229 255 154
229 255 154
229 255 154
229 255 154
229 255 154
229 255 154
229 255 154
229 255 154
229 255 154
229 255 154
229 255 154
229 255 154
229 255 154
229 255 154
229 255 154
229 255 154
229 255 154
229 255 154
229 255 154
229 255 154
229 255 154
229 255 154
229 255 154
229 255 154
229 255 154
229 255 154
229 255 154
229 255 154
229 255 154
229 255 154
229 255 154
229 255 154
229 255 154
0 0 0
0 0 0
0 0 0
0 0 0
0 0 0
0 0 0
0 0 0
0 0 0
0 0 0
0 0 0
0 0 0
0 0 0
0 0 0
0 0 0
228 255 154
228 255 154
228 255 154
228 255 154
228 255 154
228 255 154
228 255 154
228 255 154
228 255 154
228 255 154
228 255 154
228 255 154
228 255 154
228 255 154
228 255 154
228 255 154
228 255 154
228 255 154
228 255 154
228 255 154
228 255 154
228 255 154
228 255 154
228 255 154
228 255 154
228 255 154
228 255 154
228 255 154
228 255 154
228 255 154
228 255 154
228 255 154
228 255 154
228 255 154
228 255 154
228 255 154
228 255 154
228 255 154
228 255 154
228 255 154
228 255 154
228 255 154
228 255 154
228 255 154
228 255 154
228 255 154
228 255 154
228 255 154
228 255 154
228 255 154
228 255 154
228 255 154
228 255 154
228 255 154
228 255 154
228 255 154
228 255 154
228 255 154
0 0 0
0 0 0
0 0 0
0 0 0
0 0 0
0 0 0
0 0 0
0 0 0
0 0 0
0 0 0
0 0 0
0 0 0
0 0 0
0 0 0
228 255 155
228 255 155
228 255 155
228 255 155
228 255 155
228 255 155
228 255 155
228 255 155
228 255 155
228 255 155
228 255 155
228 255 155
228 255 155
228 255 155
228 255 155
228 255 155
228 255 155
228 255 155
228 255 155
228 255 155
228 255 155
228 255 155
228 255 155
228 255 155
228 255 155
228 255 155
228 255 155
228 255 155
228 255 155
228 255 155
228 255 155
228 255 155
228 255 155
228 255 155
228 255 155
228 255 155
228 255 155
228 255 155
228 255 155
228 255 155
228 255 155
228 255 155
228 255 155
228 255 155
228 255 155
228 255 155
228 255 155
228 255 155
228 255 155
228 255 155
228 255 155
228 255 155
228 255 155
228 255 155
228 255 155
228 255 155
228 255 155
228 255 155
227 255 155
227 255 155
227 255 155
227 255 155
227 255 155
227 255 155
227 255 155
227 255 155
227 255 155
227 255 155
227 255 155
227 255 155
227 255 155
227 255 155
227 255 155
227 255 155
227 255 155
227 255 155
227 255 155
227 255 155
227 255 155
227 255 155
227 255 155
227 255 155
227 255 155
227 255 155
227 255 155
227 255 155
227 255 155
227 255 155
227 255 155
227 255 155
227 255 155
227 255 155
227 255 155
227 255 155
227 255 155
227 255 155
227 255 155
227 255 155
227 255 155
227 255 155
227 255 155
227 255 155
227 255 155
227 255 155
227 255 155
227 255 155
227 255 155
227 255 155
227 255 155
227 255 155
227 255 155
227 255 155
227 255 155
227 255 155
227 255 155
227 255 155
227 255 155
227 255 155
227 255 155
227 255 155
227 255 155
227 255 155
227 255 155
227 255 155
227 255 155
227 255 155
227 255 155
227 255 155
227 255 155
227 255 155
227 255 156
227 255 156
227 255 156
227 255 156
227 255 156
227 255 156
227 255 156
227 255 156
227 255 156
227 255 156
227 255 156
227 255 156
227 255 156
227 255 156
227 255 156
227 255 156
227 255 156
227 255 156
227 255 156
227 255 156
227 255 156
227 255 156
227 255 156
227 255 156
227 255 156
227 255 156
227 255 156
227 255 156
227 255 156
227 255 156
227 255 156
227 255 156
227 255 156
227 255 156
227 255 156
227 255 156
227 255 156
227 255 156
227 255 156
227 255 156
227 255 156
227 255 156
227 255 156
227 255 156
227 255 156
227 255 156
227 255 156
227 255 156
227 255 156
227 255 156
227 255 156
227 255 156
227 255 156
227 255 156
227 255 156
227 255 156
227 255 156
227 255 156
227 255 156
227 255 156
227 255 156
227 255 156
227 255 156
227 255 156
227 255 156
227 255 156
227 255 156
227 255 156
227 255 156
227 255 156
227 255 156
227 255 156
226 255 157
226 255 157
226 255 157
226 255 157
226 255 157
226 255 157
226 255 157
226 255 157
226 255 157
226 255 157
226 255 157
226 255 157
226 255 157
226 255 157
226 255 157
226 255 157
226 255 157
226 255 157
226 255 157
226 255 157
226 255 157
226 255 157
226 255 157
226 255 157
226 255 157
226 255 157
226 255 157
226 255 157
226 255 157
226 255 157
226 255 157
226 255 157
226 255 157
226 255 157
226 255 157
226 255 157
226 255 157
226 255 157
226 255 157
226 255 157
226 255 157
226 255 157
226 255 157
226 255 157
226 255 157
226 255 157
226 255 157
226 255 157
226 255 157
226 255 157
226 255 157
226 255 157
226 255 157
226 255 157
226 255 157
226 255 157
226 255 157
226 255 157
226 255 157
226 255 157
226 255 157
226 255 157
226 255 157
226 255 157
226 255 157
226 255 157
226 255 157
226 255 157
226 255 157
226 255 157
226 255 157
226 255 157
225 255 157
225 255 157
225 255 157
225 255 157
225 255 157
225 255 157
225 255 157
225 255 157
225 255 157
225 255 157
225 255 157
225 255 157
225 255 157
225 255 157
225 255 157
225 255 157
225 255 157
225 255 157
225 255 157
225 255 157
225 255 157
225 255 157
225 255 157
225 255 157
225 255 157
225 255 157
225 255 157
225 255 157
225 255 157
225 255 157
225 255 157
225 255 157
225 255 157
225 255 157
225 255 157
225 255 157
225 255 157
225 255 157
225 255 157
225 255 157
225 255 157
225 255 157
225 255 157
225 255 157
225 255 157
225 255 157
225 255 157
225 255 157
225 255 157
225 255 157
225 255 157
225 255 157
225 255 157
225 255 157
225 255 157
225 255 157
225 255 157
225 255 157
225 255 157
225 255 157
225 255 157
225 255 157
225 255 157
225 255 157
225 255 157
225 255 157
225 255 157
225 255 157
225 255 157
225 255 157
225 255 157
225 255 157
225 255 158
225 255 158
225 255 158
225 255 158
225 255 158
225 255 158
225 255 158
225 255 158
225 255 158
225 255 158
225 255 158
225 255 158
225 255 158
225 255 158
225 255 158
225 255 158
225 255 158
225 255 158
225 255 158
225 255 158
225 255 158
225 255 158
225 255 158
225 255 158
225 255 158
225 255 158
225 255 158
225 255 158
225 255 158
225 255 158
225 255 158
225 255 158
225 255 158
225 255 158
225 255 158
225 255 158
225 255 158
225 255 158
225 255 158
225 255 158
225 255 158
225 255 158
225 255 158
225 255 158
225 255 158
225 255 158
225 255 158
225 255 158
225 255 158
225 255 158
225 255 158
225 255 158
225 255 158
225 255 158
225 255 158
225 255 158
225 255 158
225 255 158
225 255 158
225 255 158
225 255 158
225 255 158
225 255 158
225 255 158
225 255 158
225 255 158
225 255 158
225 255 158
225 255 158
225 255 158
225 255 158
225 255 158
224 255 158
224 255 158
224 255 158
224 255 158
224 255 158
224 255 158
224 255 158
224 255 158
224 255 158
224 255 158
224 255 158
224 255 158
224 255 158
224 255 158
224 255 158
224 255 158
224 255 158
224 255 158
224 255 158
224 255 158
224 255 158
224 255 158
224 255 158
224 255 158
224 255 158
224 255 158
224 255 158
224 255 158
224 255 158
224 255 158
224 255 158
224 255 158
224 255 158
224 255 158
224 255 158
224 255 158
224 255 158
224 255 158
224 255 158
224 255 158
224 255 158
224 255 158
224 255 158
224 255 158
224 255 158
224 255 158
224 255 158
224 255 158
224 255 158
224 255 158
224 255 158
224 255 158
224 255 158
224 255 158
224 255 158
224 255 158
224 255 158
224 255 158
224 255 158
224 255 158
224 255 158
224 255 158
224 255 158
224 255 158
224 255 158
224 255 158
224 255 158
224 255 158
224 255 158
224 255 158
224 255 158
224 255 158
224 255 159
224 255 159
224 255 159
224 255 159
224 255 159
224 255 159
224 255 159
224 255 159
224 255 159
224 255 159
224 255 159
224 255 159
224 255 159
224 255 159
224 255 159
224 255 159
224 255 159
224 255 159
224 255 159
224 255 159
224 255 159
224 255 159
224 255 159
224 255 159
224 255 159
224 255 159
224 255 159
224 255 159
224 255 159
224 255 159
224 255 159
224 255 159
224 255 159
224 255 159
224 255 159
224 255 159
224 255 159
224 255 159
224 255 159
224 255 159
224 255 159
224 255 159
224 255 159
224 255 159
224 255 159
224 255 159
224 255 159
224 255 159
224 255 159
224 255 159
224 255 159
224 255 159
224 255 159
224 255 159
224 255 159
224 255 159
224 255 159
224 255 159
224 255 159
224 255 159
224 255 159
224 255 159
224 255 159
224 255 159
224 255 159
224 255 159
224 255 159
224 255 159
224 255 159
224 255 159
224 255 159
224 255 159
223 255 159
223 255 159
223 255 159
223 255 159
223 255 159
223 255 159
223 255 159
223 255 159
223 255 159
223 255 159
223 255 159
223 255 159
223 255 159
223 255 159
223 255 159
223 255 159
223 255 159
223 255 159
223 255 159
223 255 159
223 255 159
223 255 159
223 255 159
223 255 159
223 255 159
223 255 159
223 255 159
223 255 159
223 255 159
223 255 159
223 255 159
223 255 159
223 255 159
223 255 159
223 255 159
223 255 159
223 255 159
223 255 159
223 255 159
223 255 159
223 255 159
223 255 159
223 255 159
223 255 159
223 255 159
223 255 159
223 255 159
223 255 159
223 255 159
223 255 159
223 255 159
223 255 159
223 255 159
223 255 159
223 255 159
223 255 159
223 255 159
223 255 159
223 255 159
223 255 159
223 255 159
223 255 159
223 255 159
223 255 159
223 255 159
223 255 159
223 255 159
223 255 159
223 255 159
223 255 159
223 255 159
223 255 159
223 255 160
223 255 160
223 255 160
223 255 160
223 255 160
223 255 160
223 255 160
223 255 160
223 255 160
223 255 160
223 255 160
223 255 160
223 255 160
223 255 160
223 255 160
223 255 160
223 255 160
223 255 160
223 255 160
223 255 160
223 255 160
223 255 160
223 255 160
223 255 160
223 255 160
223 255 160
223 255 160
223 255 160
223 255 160
223 255 160
223 255 160
223 255 160
223 255 160
223 255 160
223 255 160
223 255 160
223 255 160
223 255 160
223 255 160
223 255 160
223 255 160
223 255 160
223 255 160
223 255 160
223 255 160
223 255 160
223 255 160
223 255 160
223 255 160
223 255 160
223 255 160
223 255 160
223 255 160
223 255 160
223 255 160
223 255 160
223 255 160
223 255 160
223 255 160
223 255 160
223 255 160
223 255 160
223 255 160
223 255 160
223 255 160
223 255 160
223 255 160
223 255 160
223 255 160
223 255 160
223 255 160
223 255 160
222 255 160
222 255 160
222 255 160
222 255 160
222 255 160
222 255 160
222 255 160
222 255 160
222 255 160
222 255 160
222 255 160
222 255 160
222 255 160
222 255 160
222 255 160
222 255 160
222 255 160
222 255 160
222 255 160
222 255 160
222 255 160
222 255 160
222 255 160
222 255 160
222 255 160
222 255 160
222 255 160
222 255 160
222 255 160
222 255 160
222 255 160
222 255 160
222 255 160
222 255 160
222 255 160
222 255 160
222 255 160
222 255 160
222 255 160
222 255 160
222 255 160
222 255 160
222 255 160
222 255 160
222 255 160
222 255 160
222 255 160
222 255 160
222 255 160
222 255 160
222 255 160
222 255 160
222 255 160
222 255 160
222 255 160
222 255 160
222 255 160
222 255 160
222 255 160
222 255 160
222 255 160
222 255 160
222 255 160
222 255 160
222 255 160
222 255 160
222 255 160
222 255 160
222 255 160
222 255 160
222 255 160
222 255 160
222 255 161
222 255 161
222 255 161
222 255 161
222 255 161
222 255 161
222 255 161
222 255 161
222 255 161
222 255 161
222 255 161
222 255 161
222 255 161
222 255 161
222 255 161
222 255 161
222 255 161
222 255 161
222 255 161
222 255 161
222 255 161
222 255 161
222 255 161
222 255 161
222 255 161
222 255 161
222 255 161
222 255 161
222 255 161
222 255 161
222 255 161
222 255 161
222 255 161
222 255 161
222 255 161
222 255 161
222 255 161
222 255 161
222 255 161
222 255 161
222 255 161
222 255 161
222 255 161
222 255 161
222 255 161
222 255 161
222 255 161
222 255 161
222 255 161
222 255 161
222 255 161
222 255 161
222 255 161
222 255 161
222 255 161
222 255 161
222 255 161
222 255 161
222 255 161
222 255 161
222 255 161
222 255 161
222 255 161
222 255 161
222 255 161
222 255 161
222 255 161
222 255 161
222 255 161
222 255 161
222 255 161
222 255 161
221 255 161
221 255 161
221 255 161
221 255 161
221 255 161
221 255 161
221 255 161
221 255 161
221 255 161
221 255 161
221 255 161
221 255 161
221 255 161
221 255 161
221 255 161
221 255 161
221 255 161
221 255 161
221 255 161
221 255 161
221 255 161
221 255 161
221 255 161
221 255 161
221 255 161
221 255 161
221 255 161
221 255 161
221 255 161
221 255 161
221 255 161
221 255 161
221 255 161
221 255 161
221 255 161
221 255 161
221 255 161
221 255 161
221 255 161
221 255 161
221 255 161
221 255 161
221 255 161
221 255 161
221 255 161
221 255 161
221 255 161
221 255 161
221 255 161
221 255 161
221 255 161
221 255 161
221 255 161
221 255 161
221 255 161
221 255 161
221 255 161
221 255 161
221 255 161
221 255 161
221 255 161
221 255 161
221 255 161
221 255 161
221 255 161
221 255 161
221 255 161
221 255 161
221 255 161
221 255 161
221 255 161
221 255 161
221 255 162
221 255 162
221 255 162
221 255 162
221 255 162
221 255 162
221 255 162
221 255 162
221 255 162
221 255 162
221 255 162
221 255 162
221 255 162
221 255 162
221 255 162
221 255 162
221 255 162
221 255 162
221 255 162
221 255 162
221 255 162
221 255 162
221 255 162
221 255 162
221 255 162
221 255 162
221 255 162
221 255 162
221 255 162
221 255 162
221 255 162
221 255 162
221 255 162
221 255 162
221 255 162
221 255 162
221 255 162
221 255 162
221 255 162
221 255 162
221 255 162
221 255 162
221 255 162
221 255 162
221 255 162
221 255 162
221 255 162
221 255 162
221 255 162
221 255 162
221 255 162
221 255 162
221 255 162
221 255 162
221 255 162
221 255 162
221 255 162
221 255 162
221 255 162
221 255 162
221 255 162
221 255 162
221 255 162
221 255 162
221 255 162
221 255 162
221 255 162
221 255 162
221 255 162
221 255 162
221 255 162
221 255 162
220 255 163
220 255 163
220 255 163
220 255 163
220 255 163
220 255 163
220 255 163
220 255 163
220 255 163
220 255 163
220 255 163
220 255 163
220 255 163
220 255 163
220 255 163
220 255 163
220 255 163
220 255 163
220 255 163
220 255 163
220 255 163
220 255 163
220 255 163
220 255 163
220 255 163
220 255 163
220 255 163
220 255 163
220 255 163
220 255 163
220 255 163
220 255 163
220 255 163
220 255 163
220 255 163
220 255 163
220 255 163
220 255 163
220 255 163
220 255 163
220 255 163
220 255 163
220 255 163
220 255 163
220 255 163
220 255 163
220 255 163
220 255 163
220 255 163
220 255 163
220 255 163
220 255 163
220 255 163
220 255 163
220 255 163
220 255 163
220 255 163
220 255 163
220 255 163
220 255 163
220 255 163
220 255 163
220 255 163
220 255 163
220 255 163
220 255 163
220 255 163
220 255 163
220 255 163
220 255 163
220 255 163
220 255 163
219 255 163
219 255 163
219 255 163
219 255 163
219 255 163
219 255 163
219 255 163
219 255 163
219 255 163
219 255 163
219 255 163
219 255 163
219 255 163
219 255 163
219 255 163
219 255 163
219 255 163
219 255 163
219 255 163
219 255 163
219 255 163
219 255 163
219 255 163
219 255 163
219 255 163
219 255 163
219 255 163
219 255 163
219 255 163
219 255 163
219 255 163
219 255 163
219 255 163
219 255 163
219 255 163
219 255 163
219 255 163
219 255 163
219 255 163
219 255 163
219 255 163
219 255 163
219 255 163
219 255 163
219 255 163
219 255 163
219 255 163
219 255 163
219 255 163
219 255 163
219 255 163
219 255 163
219 255 163
219 255 163
219 255 163
219 255 163
219 255 163
219 255 163
219 255 163
219 255 163
219 255 163
219 255 163
219 255 163
219 255 163
219 255 163
219 255 163
219 255 163
219 255 163
219 255 163
219 255 163
219 255 163
219 255 163
219 255 164
219 255 164
219 255 164
219 255 164
219 255 164
219 255 164
219 255 164
219 255 164
219 255 164
219 255 164
219 255 164
219 255 164
219 255 164
219 255 164
219 255 164
219 255 164
219 255 164
219 255 164
219 255 164
219 255 164
219 255 164
219 255 164
219 255 164
219 255 164
219 255 164
219 255 164
219 255 164
219 255 164
219 255 164
219 255 164
219 255 164
219 255 164
219 255 164
219 255 164
219 255 164
219 255 164
219 255 164
219 255 164
219 255 164
219 255 164
219 255 164
219 255 164
219 255 164
219 255 164
219 255 164
219 255 164
219 255 164
219 255 164
219 255 164
219 255 164
219 255 164
219 255 164
219 255 164
219 255 164
219 255 164
219 255 164
219 255 164
219 255 164
219 255 164
219 255 164
219 255 164
219 255 164
219 255 164
219 255 164
219 255 164
219 255 164
219 255 164
219 255 164
219 255 164
219 255 164
219 255 164
219 255 164
218 255 164
218 255 164
218 255 164
218 255 164
218 255 164
218 255 164
218 255 164
218 255 164
218 255 164
218 255 164
218 255 164
218 255 164
218 255 164
218 255 164
218 255 164
218 255 164
218 255 164
218 255 164
218 255 164
218 255 164
218 255 164
218 255 164
218 255 164
218 255 164
218 255 164
218 255 164
218 255 164
218 255 164
218 255 164
218 255 164
218 255 164
218 255 164
218 255 164
218 255 164
218 255 164
218 255 164
218 255 164
218 255 164
218 255 164
218 255 164
218 255 164
218 255 164
218 255 164
218 255 164
218 255 164
218 255 164
218 255 164
218 255 164
218 255 164
218 255 164
218 255 164
218 255 164
218 255 164
218 255 164
218 255 164
218 255 164
218 255 164
218 255 164
218 255 164
218 255 164
218 255 164
218 255 164
218 255 164
218 255 164
218 255 164
218 255 164
218 255 164
218 255 164
218 255 164
218 255 164
218 255 164
218 255 164
218 255 165
218 255 165
218 255 165
218 255 165
218 255 165
218 255 165
218 255 165
218 255 165
218 255 165
218 255 165
218 255 165
218 255 165
218 255 165
218 255 165
218 255 165
218 255 165
218 255 165
218 255 165
218 255 165
218 255 165
218 255 165
218 255 165
218 255 165
218 255 165
218 255 165
218 255 165
218 255 165
218 255 165
218 255 165
218 255 165
218 255 165
218 255 165
218 255 165
218 255 165
218 255 165
218 255 165
218 255 165
218 255 165
218 255 165
218 255 165
218 255 165
218 255 165
218 255 165
218 255 165
218 255 165
218 255 165
218 255 165
218 255 165
218 255 165
218 255 165
218 255 165
218 255 165
218 255 165
218 255 165
218 255 165
218 255 165
218 255 165
218 255 165
218 255 165
218 255 165
218 255 165
218 255 165
218 255 165
218 255 165
218 255 165
218 255 165
218 255 165
218 255 165
218 255 165
218 255 165
218 255 165
218 255 165
217 255 165
217 255 165
217 255 165
217 255 165
217 255 165
217 255 165
217 255 165
217 255 165
217 255 165
217 255 165
217 255 165
217 255 165
217 255 165
217 255 165
217 255 165
217 255 165
217 255 165
217 255 165
217 255 165
217 255 165
217 255 165
217 255 165
217 255 165
217 255 165
217 255 165
217 255 165
217 255 165
217 255 165
217 255 165
217 255 165
217 255 165
217 255 165
217 255 165
217 255 165
217 255 165
217 255 165
217 255 165
217 255 165
217 255 165
217 255 165
217 255 165
217 255 165
217 255 165
217 255 165
217 255 165
217 255 165
217 255 165
217 255 165
217 255 165
217 255 165
217 255 165
217 255 165
217 255 165
217 255 165
217 255 165
217 255 165
217 255 165
217 255 165
217 255 165
217 255 165
217 255 165
217 255 165
217 255 165
217 255 165
217 255 165
217 255 165
217 255 165
217 255 165
217 255 165
217 255 165
217 255 165
217 255 165
217 255 166
217 255 166
217 255 166
217 255 166
217 255 166
217 255 166
217 255 166
217 255 166
217 255 166
217 255 166
217 255 166
217 255 166
217 255 166
217 255 166
217 255 166
217 255 166
217 255 166
217 255 166
217 255 166
217 255 166
217 255 166
217 255 166
217 255 166
217 255 166
217 255 166
217 255 166
217 255 166
217 255 166
217 255 166
217 255 166
217 255 166
217 255 166
217 255 166
217 255 166
217 255 166
217 255 166
217 255 166
217 255 166
217 255 166
217 255 166
217 255 166
217 255 166
217 255 166
217 255 166
217 255 166
217 255 166
217 255 166
217 255 166
217 255 166
217 255 166
217 255 166
217 255 166
217 255 166
217 255 166
217 255 166
217 255 166
217 255 166
217 255 166
217 255 166
217 255 166
217 255 166
217 255 166
217 255 166
217 255 166
217 255 166
217 255 166
217 255 166
217 255 166
217 255 166
217 255 166
217 255 166
217 255 166
216 255 166
216 255 166
216 255 166
216 255 166
216 255 166
216 255 166
216 255 166
216 255 166
216 255 166
216 255 166
216 255 166
216 255 166
216 255 166
216 255 166
216 255 166
216 255 166
216 255 166
216 255 166
216 255 166
216 255 166
216 255 166
216 255 166
216 255 166
216 255 166
216 255 166
216 255 166
216 255 166
216 255 166
216 255 166
216 255 166
216 255 166
216 255 166
216 255 166
216 255 166
216 255 166
216 255 166
216 255 166
216 255 166
216 255 166
216 255 166
216 255 166
216 255 166
216 255 166
216 255 166
216 255 166
216 255 166
216 255 166
216 255 166
216 255 166
216 255 166
216 255 166
216 255 166
216 255 166
216 255 166
216 255 166
216 255 166
216 255 166
216 255 166
216 255 166
216 255 166
216 255 166
216 255 166
216 255 166
216 255 166
216 255 166
216 255 166
216 255 166
216 255 166
216 255 166
216 255 166
216 255 166
216 255 166
216 255 167
216 255 167
216 255 167
216 255 167
216 255 167
216 255 167
216 255 167
216 255 167
216 255 167
216 255 167
216 255 167
216 255 167
216 255 167
216 255 167
216 255 167
216 255 167
216 255 167
216 255 167
216 255 167
216 255 167
216 255 167
216 255 167
216 255 167
216 255 167
216 255 167
216 255 167
216 255 167
216 255 167
216 255 167
216 255 167
216 255 167
216 255 167
216 255 167
216 255 167
216 255 167
216 255 167
216 255 167
216 255 167
216 255 167
216 255 167
216 255 167
216 255 167
216 255 167
216 255 167
216 255 167
216 255 167
216 255 167
216 255 167
216 255 167
216 255 167
216 255 167
216 255 167
216 255 167
216 255 167
216 255 167
216 255 167
216 255 167
216 255 167
216 255 167
216 255 167
216 255 167
216 255 167
216 255 167
216 255 167
216 255 167
216 255 167
216 255 167
216 255 167
216 255 167
216 255 167
216 255 167
216 255 167
215 255 167
215 255 167
215 255 167
215 255 167
215 255 167
215 255 167
215 255 167
215 255 167
215 255 167
215 255 167
215 255 167
215 255 167
215 255 167
215 255 167
215 255 167
215 255 167
215 255 167
215 255 167
215 255 167
215 255 167
215 255 167
215 255 167
215 255 167
215 255 167
215 255 167
215 255 167
215 255 167
215 255 167
215 255 167
215 255 167
215 255 167
215 255 167
215 255 167
215 255 167
215 255 167
215 255 167
215 255 167
215 255 167
215 255 167
215 255 167
215 255 167
215 255 167
215 255 167
215 255 167
215 255 167
215 255 167
215 255 167
215 255 167
215 255 167
215 255 167
215 255 167
215 255 167
215 255 167
215 255 167
215 255 167
215 255 167
215 255 167
215 255 167
215 255 167
215 255 167
215 255 167
215 255 167
215 255 167
215 255 167
215 255 167
215 255 167
215 255 167
215 255 167
215 255 167
215 255 167
215 255 167
215 255 167
215 255 168
215 255 168
215 255 168
215 255 168
215 255 168
215 255 168
215 255 168
215 255 168
215 255 168
215 255 168
215 255 168
215 255 168
215 255 168
215 255 168
215 255 168
215 255 168
215 255 168
215 255 168
215 255 168
215 255 168
215 255 168
215 255 168
215 255 168
215 255 168
215 255 168
215 255 168
215 255 168
215 255 168
215 255 168
215 255 168
215 255 168
215 255 168
215 255 168
215 255 168
215 255 168
215 255 168
215 255 168
215 255 168
215 255 168
215 255 168
215 255 168
215 255 168
215 255 168
215 255 168
215 255 168
215 255 168
215 255 168
215 255 168
215 255 168
215 255 168
215 255 168
215 255 168
215 255 168
215 255 168
215 255 168
215 255 168
215 255 168
215 255 168
215 255 168
215 255 168
215 255 168
215 255 168
215 255 168
215 255 168
215 255 168
215 255 168
215 255 168
215 255 168
215 255 168
215 255 168
215 255 168
215 255 168
214 255 169
214 255 169
214 255 169
214 255 169
214 255 169
214 255 169
214 255 169
214 255 169
214 255 169
214 255 169
214 255 169
214 255 169
214 255 169
214 255 169
214 255 169
214 255 169
214 255 169
214 255 169
214 255 169
214 255 169
214 255 169
214 255 169
214 255 169
214 255 169
214 255 169
214 255 169
214 255 169
214 255 169
214 255 169
214 255 169
214 255 169
214 255 169
214 255 169
214 255 169
214 255 169
214 255 169
214 255 169
214 255 169
214 255 169
214 255 169
214 255 169
214 255 169
214 255 169
214 255 169
214 255 169
214 255 169
214 255 169
214 255 169
214 255 169
214 255 169
214 255 169
214 255 169
214 255 169
214 255 169
214 255 169
214 255 169
214 255 169
214 255 169
214 255 169
214 255 169
214 255 169
214 255 169
214 255 169
214 255 169
214 255 169
214 255 169
214 255 169
214 255 169
214 255 169
214 255 169
214 255 169
214 255 169
213 255 169
213 255 169
213 255 169
213 255 169
213 255 169
213 255 169
213 255 169
213 255 169
213 255 169
213 255 169
213 255 169
213 255 169
213 255 169
213 255 169
213 255 169
213 255 169
213 255 169
213 255 169
213 255 169
213 255 169
213 255 169
213 255 169
213 255 169
213 255 169
213 255 169
213 255 169
213 255 169
213 255 169
213 255 169
213 255 169
213 255 169
213 255 169
213 255 169
213 255 169
213 255 169
213 255 169
213 255 169
213 255 169
213 255 169
213 255 169
213 255 169
213 255 169
213 255 169
213 255 169
213 255 169
213 255 169
213 255 169
213 255 169
213 255 169
213 255 169
213 255 169
213 255 169
213 255 169
213 255 169
213 255 169
213 255 169
213 255 169
213 255 169
213 255 169
213 255 169
213 255 169
213 255 169
213 255 169
213 255 169
213 255 169
213 255 169
213 255 169
213 255 169
213 255 169
213 255 169
213 255 169
213 255 169
213 255 170
213 255 170
213 255 170
213 255 170
213 255 170
213 255 170
213 255 170
213 255 170
213 255 170
213 255 170
213 255 170
213 255 170
213 255 170
213 255 170
213 255 170
213 255 170
213 255 170
213 255 170
213 255 170
213 255 170
213 255 170
213 255 170
213 255 170
213 255 170
213 255 170
213 255 170
213 255 170
213 255 170
213 255 170
213 255 170
213 255 170
213 255 170
213 255 170
213 255 170
213 255 170
213 255 170
213 255 170
213 255 170
213 255 170
213 255 170
213 255 170
213 255 170
213 255 170
213 255 170
213 255 170
213 255 170
213 255 170
213 255 170
213 255 170
213 255 170
213 255 170
213 255 170
213 255 170
213 255 170
213 255 170
213 255 170
213 255 170
213 255 170
213 255 170
213 255 170
213 255 170
213 255 170
213 255 170
213 255 170
213 255 170
213 255 170
213 255 170
213 255 170
213 255 170
213 255 170
213 255 170
213 255 170
212 255 170
212 255 170
212 255 170
212 255 170
212 255 170
212 255 170
212 255 170
212 255 170
212 255 170
212 255 170
212 255 170
212 255 170
212 255 170
212 255 170
212 255 170
212 255 170
212 255 170
212 255 170
212 255 170
212 255 170
212 255 170
212 255 170
212 255 170
212 255 170
212 255 170
212 255 170
212 255 170
212 255 170
212 255 170
212 255 170
212 255 170
212 255 170
212 255 170
212 255 170
212 255 170
212 255 170
212 255 170
212 255 170
212 255 170
212 255 170
212 255 170
212 255 170
212 255 170
212 255 170
212 255 170
212 255 170
212 255 170
212 255 170
212 255 170
212 255 170
212 255 170
212 255 170
212 255 170
212 255 170
212 255 170
212 255 170
212 255 170
212 255 170
212 255 170
212 255 170
212 255 170
212 255 170
212 255 170
212 255 170
212 255 170
212 255 170
212 255 170
212 255 170
212 255 170
212 255 170
212 255 170
212 255 170
212 255 171
212 255 171
212 255 171
212 255 171
212 255 171
212 255 171
212 255 171
212 255 171
212 255 171
212 255 171
212 255 171
212 255 171
212 255 171
212 255 171
212 255 171
212 255 171
212 255 171
212 255 171
212 255 171
212 255 171
212 255 171
212 255 171
212 255 171
212 255 171
212 255 171
212 255 171
212 255 171
212 255 171
212 255 171
212 255 171
212 255 171
212 255 171
212 255 171
212 255 171
212 255 171
212 255 171
212 255 171
212 255 171
212 255 171
212 255 171
212 255 171
212 255 171
212 255 171
212 255 171
212 255 171
212 255 171
212 255 171
212 255 171
212 255 171
212 255 171
212 255 171
212 255 171
212 255 171
212 255 171
212 255 171
212 255 171
212 255 171
212 255 171
212 255 171
212 255 171
212 255 171
212 255 171
212 255 171
212 255 171
212 255 171
212 255 171
212 255 171
212 255 171
212 255 171
212 255 171
212 255 171
212 255 171
211 255 171
211 255 171
211 255 171
211 255 171
211 255 171
211 255 171
211 255 171
211 255 171
211 255 171
211 255 171
211 255 171
211 255 171
211 255 171
211 255 171
211 255 171
211 255 171
211 255 171
211 255 171
211 255 171
211 255 171
211 255 171
211 255 171
211 255 171
211 255 171
211 255 171
211 255 171
211 255 171
211 255 171
211 255 171
211 255 171
211 255 171
211 255 171
211 255 171
211 255 171
211 255 171
211 255 171
211 255 171
211 255 171
211 255 171
211 255 171
211 255 171
211 255 171
211 255 171
211 255 171
211 255 171
211 255 171
211 255 171
211 255 171
211 255 171
211 255 171
211 255 171
211 255 171
211 255 171
211 255 171
211 255 171
211 255 171
211 255 171
211 255 171
211 255 171
211 255 171
211 255 171
211 255 171
211 255 171
211 255 171
211 255 171
211 255 171
211 255 171
211 255 171
211 255 171
211 255 171
211 255 171
211 255 171
211 255 172
211 255 172
211 255 172
211 255 172
211 255 172
211 255 172
211 255 172
211 255 172
211 255 172
211 255 172
211 255 172
211 255 172
211 255 172
211 255 172
211 255 172
211 255 172
211 255 172
211 255 172
211 255 172
211 255 172
211 255 172
211 255 172
211 255 172
211 255 172
211 255 172
211 255 172
211 255 172
211 255 172
211 255 172
211 255 172
211 255 172
211 255 172
211 255 172
211 255 172
211 255 172
211 255 172
211 255 172
211 255 172
211 255 172
211 255 172
211 255 172
211 255 172
211 255 172
211 255 172
211 255 172
211 255 172
211 255 172
211 255 172
211 255 172
211 255 172
211 255 172
211 255 172
211 255 172
211 255 172
211 255 172
211 255 172
211 255 172
211 255 172
211 255 172
211 255 172
211 255 172
211 255 172
211 255 172
211 255 172
211 255 172
211 255 172
211 255 172
211 255 172
211 255 172
211 255 172
211 255 172
211 255 172
210 255 172
210 255 172
210 255 172
210 255 172
210 255 172
210 255 172
210 255 172
210 255 172
210 255 172
210 255 172
210 255 172
210 255 172
210 255 172
210 255 172
210 255 172
210 255 172
210 255 172
210 255 172
210 255 172
210 255 172
210 255 172
210 255 172
210 255 172
210 255 172
210 255 172
210 255 172
210 255 172
210 255 172
210 255 172
210 255 172
210 255 172
210 255 172
210 255 172
210 255 172
210 255 172
210 255 172
210 255 172
210 255 172
210 255 172
210 255 172
210 255 172
210 255 172
210 255 172
210 255 172
210 255 172
210 255 172
210 255 172
210 255 172
210 255 172
210 255 172
210 255 172
210 255 172
210 255 172
210 255 172
210 255 172
210 255 172
210 255 172
210 255 172
210 255 172
210 255 172
210 255 172
210 255 172
210 255 172
210 255 172
210 255 172
210 255 172
210 255 172
210 255 172
210 255 172
210 255 172
210 255 172
210 255 172
210 255 173
210 255 173
210 255 173
210 255 173
210 255 173
210 255 173
210 255 173
210 255 173
210 255 173
210 255 173
210 255 173
210 255 173
210 255 173
210 255 173
210 255 173
210 255 173
210 255 173
210 255 173
210 255 173
210 255 173
210 255 173
210 255 173
210 255 173
210 255 173
210 255 173
210 255 173
210 255 173
210 255 173
210 255 173
210 255 173
210 255 173
210 255 173
210 255 173
210 255 173
210 255 173
210 255 173
210 255 173
210 255 173
210 255 173
210 255 173
210 255 173
210 255 173
210 255 173
210 255 173
210 255 173
210 255 173
210 255 173
210 255 173
210 255 173
210 255 173
210 255 173
210 255 173
210 255 173
210 255 173
210 255 173
210 255 173
210 255 173
210 255 173
210 255 173
210 255 173
210 255 173
210 255 173
210 255 173
210 255 173
210 255 173
210 255 173
210 255 173
210 255 173
210 255 173
210 255 173
210 255 173
210 255 173
209 255 173
209 255 173
209 255 173
209 255 173
209 255 173
209 255 173
209 255 173
209 255 173
209 255 173
209 255 173
209 255 173
209 255 173
209 255 173
209 255 173
209 255 173
209 255 173
209 255 173
209 255 173
209 255 173
209 255 173
209 255 173
209 255 173
209 255 173
209 255 173
209 255 173
209 255 173
209 255 173
209 255 173
209 255 173
209 255 173
209 255 173
209 255 173
209 255 173
209 255 173
209 255 173
209 255 173
209 255 173
209 255 173
209 255 173
209 255 173
209 255 173
209 255 173
209 255 173
209 255 173
209 255 173
209 255 173
209 255 173
209 255 173
209 255 173
209 255 173
209 255 173
209 255 173
209 255 173
209 255 173
209 255 173
209 255 173
209 255 173
209 255 173
209 255 173
209 255 173
209 255 173
209 255 173
209 255 173
209 255 173
209 255 173
209 255 173
209 255 173
209 255 173
209 255 173
209 255 173
209 255 173
209 255 173
208 255 174
208 255 174
208 255 174
208 255 174
208 255 174
208 255 174
208 255 174
208 255 174
208 255 174
208 255 174
208 255 174
208 255 174
208 255 174
208 255 174
208 255 174
208 255 174
208 255 174
208 255 174
208 255 174
208 255 174
208 255 174
208 255 174
208 255 174
208 255 174
208 255 174
208 255 174
208 255 174
208 255 174
208 255 174
208 255 174
208 255 174
208 255 174
208 255 174
208 255 174
208 255 174
208 255 174
208 255 174
208 255 174
208 255 174
208 255 174
208 255 174
208 255 174
208 255 174
208 255 174
208 255 174
208 255 174
208 255 174
208 255 174
208 255 174
208 255 174
208 255 174
208 255 174
208 255 174
208 255 174
208 255 174
208 255 174
208 255 174
208 255 174
208 255 174
208 255 174
208 255 174
208 255 174
208 255 174
208 255 174
208 255 174
208 255 174
208 255 174
208 255 174
208 255 174
208 255 174
208 255 174
208 255 174
208 255 175
208 255 175
208 255 175
208 255 175
208 255 175
208 255 175
208 255 175
208 255 175
208 255 175
208 255 175
208 255 175
208 255 175
208 255 175
208 255 175
208 255 175
208 255 175
208 255 175
208 255 175
208 255 175
208 255 175
208 255 175
208 255 175
208 255 175
208 255 175
208 255 175
208 255 175
208 255 175
208 255 175
208 255 175
208 255 175
208 255 175
208 255 175
208 255 175
208 255 175
208 255 175
208 255 175
208 255 175
208 255 175
208 255 175
208 255 175
208 255 175
208 255 175
208 255 175
208 255 175
208 255 175
208 255 175
208 255 175
208 255 175
208 255 175
208 255 175
208 255 175
208 255 175
208 255 175
208 255 175
208 255 175
208 255 175
208 255 175
208 255 175
208 255 175
208 255 175
208 255 175
208 255 175
208 255 175
208 255 175
208 255 175
208 255 175
208 255 175
208 255 175
208 255 175
208 255 175
208 255 175
208 255 175
207 255 175
207 255 175
207 255 175
207 255 175
207 255 175
207 255 175
207 255 175
207 255 175
207 255 175
207 255 175
207 255 175
207 255 175
207 255 175
207 255 175
207 255 175
207 255 175
207 255 175
207 255 175
207 255 175
207 255 175
207 255 175
207 255 175
207 255 175
207 255 175
207 255 175
207 255 175
207 255 175
207 255 175
207 255 175
207 255 175
207 255 175
207 255 175
207 255 175
207 255 175
207 255 175
207 255 175
207 255 175
207 255 175
207 255 175
207 255 175
207 255 175
207 255 175
207 255 175
207 255 175
207 255 175
207 255 175
207 255 175
207 255 175
207 255 175
207 255 175
207 255 175
207 255 175
207 255 175
207 255 175
207 255 175
207 255 175
207 255 175
207 255 175
207 255 175
207 255 175
207 255 175
207 255 175
207 255 175
207 255 175
207 255 175
207 255 175
207 255 175
207 255 175
207 255 175
207 255 175
207 255 175
207 255 175
207 255 176
207 255 176
207 255 176
207 255 176
207 255 176
207 255 176
207 255 176
207 255 176
207 255 176
207 255 176
207 255 176
207 255 176
207 255 176
207 255 176
207 255 176
207 255 176
207 255 176
207 255 176
207 255 176
207 255 176
207 255 176
207 255 176
207 255 176
207 255 176
207 255 176
207 255 176
207 255 176
207 255 176
207 255 176
207 255 176
207 255 176
207 255 176
207 255 176
207 255 176
207 255 176
207 255 176
207 255 176
207 255 176
207 255 176
207 255 176
207 255 176
207 255 176
207 255 176
207 255 176
207 255 176
207 255 176
207 255 176
207 255 176
207 255 176
207 255 176
207 255 176
207 255 176
207 255 176
207 255 176
207 255 176
207 255 176
207 255 176
207 255 176
207 255 176
207 255 176
207 255 176
207 255 176
207 255 176
207 255 176
207 255 176
207 255 176
207 255 176
207 255 176
207 255 176
207 255 176
207 255 176
207 255 176
206 255 176
206 255 176
206 255 176
206 255 176
206 255 176
206 255 176
206 255 176
206 255 176
206 255 176
206 255 176
206 255 176
206 255 176
206 255 176
206 255 176
206 255 176
206 255 176
206 255 176
206 255 176
206 255 176
206 255 176
206 255 176
206 255 176
206 255 176
206 255 176
206 255 176
206 255 176
206 255 176
206 255 176
206 255 176
206 255 176
206 255 176
206 255 176
206 255 176
206 255 176
206 255 176
206 255 176
206 255 176
206 255 176
206 255 176
206 255 176
206 255 176
206 255 176
206 255 176
206 255 176
206 255 176
206 255 176
206 255 176
206 255 176
206 255 176
206 255 176
206 255 176
206 255 176
206 255 176
206 255 176
206 255 176
206 255 176
206 255 176
206 255 176
206 255 176
206 255 176
206 255 176
206 255 176
206 255 176
206 255 176
206 255 176
206 255 176
206 255 176
206 255 176
206 255 176
206 255 176
206 255 176
206 255 176
206 255 177
206 255 177
206 255 177
206 255 177
206 255 177
206 255 177
206 255 177
206 255 177
206 255 177
206 255 177
206 255 177
206 255 177
206 255 177
206 255 177
206 255 177
206 255 177
206 255 177
206 255 177
206 255 177
206 255 177
206 255 177
206 255 177
206 255 177
206 255 177
206 255 177
206 255 177
206 255 177
206 255 177
206 255 177
206 255 177
206 255 177
206 255 177
206 255 177
206 255 177
206 255 177
206 255 177
206 255 177
206 255 177
206 255 177
206 255 177
206 255 177
206 255 177
206 255 177
206 255 177
206 255 177
206 255 177
206 255 177
206 255 177
206 255 177
206 255 177
206 255 177
206 255 177
206 255 177
206 255 177
206 255 177
206 255 177
206 255 177
206 255 177
206 255 177
206 255 177
206 255 177
206 255 177
206 255 177
206 255 177
206 255 177
206 255 177
206 255 177
206 255 177
206 255 177
206 255 177
206 255 177
206 255 177
205 255 177
205 255 177
205 255 177
205 255 177
205 255 177
205 255 177
205 255 177
205 255 177
205 255 177
205 255 177
205 255 177
205 255 177
205 255 177
205 255 177
205 255 177
205 255 177
205 255 177
205 255 177
205 255 177
205 255 177
205 255 177
205 255 177
205 255 177
205 255 177
205 255 177
205 255 177
205 255 177
205 255 177
205 255 177
205 255 177
205 255 177
205 255 177
205 255 177
205 255 177
205 255 177
205 255 177
205 255 177
205 255 177
205 255 177
205 255 177
205 255 177
205 255 177
205 255 177
205 255 177
205 255 177
205 255 177
205 255 177
205 255 177
205 255 177
205 255 177
205 255 177
205 255 177
205 255 177
205 255 177
205 255 177
205 255 177
205 255 177
205 255 177
205 255 177
205 255 177
205 255 177
205 255 177
205 255 177
205 255 177
205 255 177
205 255 177
205 255 177
205 255 177
205 255 177
205 255 177
205 255 177
205 255 177
205 255 178
205 255 178
205 255 178
205 255 178
205 255 178
205 255 178
205 255 178
205 255 178
205 255 178
205 255 178
205 255 178
205 255 178
205 255 178
205 255 178
205 255 178
205 255 178
205 255 178
205 255 178
205 255 178
205 255 178
205 255 178
205 255 178
205 255 178
205 255 178
205 255 178
205 255 178
205 255 178
205 255 178
205 255 178
205 255 178
205 255 178
205 255 178
205 255 178
205 255 178
205 255 178
205 255 178
205 255 178
205 255 178
205 255 178
205 255 178
205 255 178
205 255 178
205 255 178
205 255 178
205 255 178
205 255 178
205 255 178
205 255 178
205 255 178
205 255 178
205 255 178
205 255 178
205 255 178
205 255 178
205 255 178
205 255 178
205 255 178
205 255 178
205 255 178
205 255 178
205 255 178
205 255 178
205 255 178
205 255 178
205 255 178
205 255 178
205 255 178
205 255 178
205 255 178
205 255 178
205 255 178
205 255 178
204 255 178
204 255 178
204 255 178
204 255 178
204 255 178
204 255 178
204 255 178
204 255 178
204 255 178
204 255 178
204 255 178
204 255 178
204 255 178
204 255 178
204 255 178
204 255 178
204 255 178
204 255 178
204 255 178
204 255 178
204 255 178
204 255 178
204 255 178
204 255 178
204 255 178
204 255 178
204 255 178
204 255 178
204 255 178
204 255 178
204 255 178
204 255 178
204 255 178
204 255 178
204 255 178
204 255 178
204 255 178
204 255 178
204 255 178
204 255 178
204 255 178
204 255 178
204 255 178
204 255 178
204 255 178
204 255 178
204 255 178
204 255 178
204 255 178
204 255 178
204 255 178
204 255 178
204 255 178
204 255 178
204 255 178
204 255 178
204 255 178
204 255 178
204 255 178
204 255 178
204 255 178
204 255 178
204 255 178
204 255 178
204 255 178
204 255 178
204 255 178
204 255 178
204 255 178
204 255 178
204 255 178
204 255 178
204 255 179
204 255 179
204 255 179
204 255 179
204 255 179
204 255 179
204 255 179
204 255 179
204 255 179
204 255 179
204 255 179
204 255 179
204 255 179
204 255 179
204 255 179
204 255 179
204 255 179
204 255 179
204 255 179
204 255 179
204 255 179
204 255 179
204 255 179
204 255 179
204 255 179
204 255 179
204 255 179
204 255 179
204 255 179
204 255 179
204 255 179
204 255 179
204 255 179
204 255 179
204 255 179
204 255 179
204 255 179
204 255 179
204 255 179
204 255 179
204 255 179
204 255 179
204 255 179
204 255 179
204 255 179
204 255 179
204 255 179
204 255 179
204 255 179
204 255 179
204 255 179
204 255 179
204 255 179
204 255 179
204 255 179
204 255 179
204 255 179
204 255 179
204 255 179
204 255 179
204 255 179
204 255 179
204 255 179
204 255 179
204 255 179
204 255 179
204 255 179
204 255 179
204 255 179
204 255 179
204 255 179
204 255 179
203 255 179
203 255 179
203 255 179
203 255 179
203 255 179
203 255 179
203 255 179
203 255 179
203 255 179
203 255 179
203 255 179
203 255 179
203 255 179
203 255 179
203 255 179
203 255 179
203 255 179
203 255 179
203 255 179
203 255 179
203 255 179
203 255 179
203 255 179
203 255 179
203 255 179
203 255 179
203 255 179
203 255 179
203 255 179
203 255 179
203 255 179
203 255 179
203 255 179
203 255 179
203 255 179
203 255 179
203 255 179
203 255 179
203 255 179
203 255 179
203 255 179
203 255 179
203 255 179
203 255 179
203 255 179
203 255 179
203 255 179
203 255 179
203 255 179
203 255 179
203 255 179
203 255 179
203 255 179
203 255 179
203 255 179
203 255 179
203 255 179
203 255 179
203 255 179
203 255 179
203 255 179
203 255 179
203 255 179
203 255 179
203 255 179
203 255 179
203 255 179
203 255 179
203 255 179
203 255 179
203 255 179
203 255 179
202 255 180
202 255 180
202 255 180
202 255 180
202 255 180
202 255 180
202 255 180
202 255 180
202 255 180
202 255 180
202 255 180
202 255 180
202 255 180
202 255 180
202 255 180
202 255 180
202 255 180
202 255 180
202 255 180
202 255 180
202 255 180
202 255 180
202 255 180
202 255 180
202 255 180
202 255 180
202 255 180
202 255 180
202 255 180
202 255 180
202 255 180
202 255 180
202 255 180
202 255 180
202 255 180
202 255 180
202 255 180
202 255 180
202 255 180
202 255 180
202 255 180
202 255 180
202 255 180
202 255 180
202 255 180
202 255 180
202 255 180
202 255 180
202 255 180
202 255 180
202 255 180
202 255 180
202 255 180
202 255 180
202 255 180
202 255 180
202 255 180
202 255 180
202 255 180
202 255 180
202 255 180
202 255 180
202 255 180
202 255 180
202 255 180
202 255 180
202 255 180
202 255 180
202 255 180
202 255 180
202 255 180
202 255 180
202 255 181
202 255 181
202 255 181
202 255 181
202 255 181
202 255 181
202 255 181
202 255 181
202 255 181
202 255 181
202 255 181
202 255 181
202 255 181
202 255 181
202 255 181
202 255 181
202 255 181
202 255 181
202 255 181
202 255 181
202 255 181
202 255 181
202 255 181
202 255 181
202 255 181
202 255 181
202 255 181
202 255 181
202 255 181
202 255 181
202 255 181
202 255 181
202 255 181
202 255 181
202 255 181
202 255 181
202 255 181
202 255 181
202 255 181
202 255 181
202 255 181
202 255 181
202 255 181
202 255 181
202 255 181
202 255 181
202 255 181
202 255 181
202 255 181
202 255 181
202 255 181
202 255 181
202 255 181
202 255 181
202 255 181
202 255 181
202 255 181
202 255 181
202 255 181
202 255 181
202 255 181
202 255 181
202 255 181
202 255 181
202 255 181
202 255 181
202 255 181
202 255 181
202 255 181
202 255 181
202 255 181
202 255 181
201 255 181
201 255 181
201 255 181
201 255 181
201 255 181
201 255 181
201 255 181
201 255 181
201 255 181
201 255 181
201 255 181
201 255 181
201 255 181
201 255 181
201 255 181
201 255 181
201 255 181
201 255 181
201 255 181
201 255 181
201 255 181
201 255 181
201 255 181
201 255 181
201 255 181
201 255 181
201 255 181
201 255 181
201 255 181
201 255 181
201 255 181
201 255 181
201 255 181
201 255 181
201 255 181
201 255 181
201 255 181
201 255 181
201 255 181
201 255 181
201 255 181
201 255 181
201 255 181
201 255 181
201 255 181
201 255 181
201 255 181
201 255 181
201 255 181
201 255 181
201 255 181
201 255 181
201 255 181
201 255 181
201 255 181
201 255 181
201 255 181
201 255 181
201 255 181
201 255 181
201 255 181
201 255 181
201 255 181
201 255 181
201 255 181
201 255 181
201 255 181
201 255 181
201 255 181
201 255 181
201 255 181
201 255 181
201 255 182
201 255 182
201 255 182
201 255 182
201 255 182
201 255 182
201 255 182
201 255 182
201 255 182
201 255 182
201 255 182
201 255 182
201 255 182
201 255 182
201 255 182
201 255 182
201 255 182
201 255 182
201 255 182
201 255 182
201 255 182
201 255 182
201 255 182
201 255 182
201 255 182
201 255 182
201 255 182
201 255 182
201 255 182
201 255 182
201 255 182
201 255 182
201 255 182
201 255 182
201 255 182
201 255 182
201 255 182
201 255 182
201 255 182
201 255 182
201 255 182
201 255 182
201 255 182
201 255 182
201 255 182
201 255 182
201 255 182
201 255 182
201 255 182
201 255 182
201 255 182
201 255 182
201 255 182
201 255 182
201 255 182
201 255 182
201 255 182
201 255 182
201 255 182
201 255 182
201 255 182
201 255 182
201 255 182
201 255 182
201 255 182
201 255 182
201 255 182
201 255 182
201 255 182
201 255 182
201 255 182
201 255 182
200 255 182
200 255 182
200 255 182
200 255 182
200 255 182
200 255 182
200 255 182
200 255 182
200 255 182
200 255 182
200 255 182
200 255 182
200 255 182
200 255 182
200 255 182
200 255 182
200 255 182
200 255 182
200 255 182
200 255 182
200 255 182
200 255 182
200 255 182
200 255 182
200 255 182
200 255 182
200 255 182
200 255 182
200 255 182
200 255 182
200 255 182
200 255 182
200 255 182
200 255 182
200 255 182
200 255 182
200 255 182
200 255 182
200 255 182
200 255 182
200 255 182
200 255 182
200 255 182
200 255 182
200 255 182
200 255 182
200 255 182
200 255 182
200 255 182
200 255 182
200 255 182
200 255 182
200 255 182
200 255 182
200 255 182
200 255 182
200 255 182
200 255 182
200 255 182
200 255 182
200 255 182
200 255 182
200 255 182
200 255 182
200 255 182
200 255 182
200 255 182
200 255 182
200 255 182
200 255 182
200 255 182
200 255 182
200 255 183
200 255 183
200 255 183
200 255 183
200 255 183
200 255 183
200 255 183
200 255 183
200 255 183
200 255 183
200 255 183
200 255 183
200 255 183
200 255 183
200 255 183
200 255 183
200 255 183
200 255 183
200 255 183
200 255 183
200 255 183
200 255 183
200 255 183
200 255 183
200 255 183
200 255 183
200 255 183
200 255 183
200 255 183
200 255 183
200 255 183
200 255 183
200 255 183
200 255 183
200 255 183
200 255 183
200 255 183
200 255 183
200 255 183
200 255 183
200 255 183
200 255 183
200 255 183
200 255 183
200 255 183
200 255 183
200 255 183
200 255 183
200 255 183
200 255 183
200 255 183
200 255 183
200 255 183
200 255 183
200 255 183
200 255 183
200 255 183
200 255 183
200 255 183
200 255 183
200 255 183
200 255 183
200 255 183
200 255 183
200 255 183
200 255 183
200 255 183
200 255 183
200 255 183
200 255 183
200 255 183
200 255 183
199 255 183
199 255 183
199 255 183
199 255 183
199 255 183
199 255 183
199 255 183
199 255 183
199 255 183
199 255 183
199 255 183
199 255 183
199 255 183
199 255 183
199 255 183
199 255 183
199 255 183
199 255 183
199 255 183
199 255 183
199 255 183
199 255 183
199 255 183
199 255 183
199 255 183
199 255 183
199 255 183
199 255 183
199 255 183
199 255 183
199 255 183
199 255 183
199 255 183
199 255 183
199 255 183
199 255 183
199 255 183
199 255 183
199 255 183
199 255 183
199 255 183
199 255 183
199 255 183
199 255 183
199 255 183
199 255 183
199 255 183
199 255 183
199 255 183
199 255 183
199 255 183
199 255 183
199 255 183
199 255 183
199 255 183
199 255 183
199 255 183
199 255 183
199 255 183
199 255 183
199 255 183
199 255 183
199 255 183
199 255 183
199 255 183
199 255 183
199 255 183
199 255 183
199 255 183
199 255 183
199 255 183
199 255 183
199 255 184
199 255 184
199 255 184
199 255 184
199 255 184
199 255 184
199 255 184
199 255 184
199 255 184
199 255 184
199 255 184
199 255 184
199 255 184
199 255 184
199 255 184
199 255 184
199 255 184
199 255 184
199 255 184
199 255 184
199 255 184
199 255 184
199 255 184
199 255 184
199 255 184
199 255 184
199 255 184
199 255 184
199 255 184
199 255 184
199 255 184
199 255 184
199 255 184
199 255 184
199 255 184
199 255 184
199 255 184
199 255 184
199 255 184
199 255 184
199 255 184
199 255 184
199 255 184
199 255 184
199 255 184
199 255 184
199 255 184
199 255 184
199 255 184
199 255 184
199 255 184
199 255 184
199 255 184
199 255 184
199 255 184
199 255 184
199 255 184
199 255 184
199 255 184
199 255 184
199 255 184
199 255 184
199 255 184
199 255 184
199 255 184
199 255 184
199 255 184
199 255 184
199 255 184
199 255 184
199 255 184
199 255 184
198 255 184
198 255 184
198 255 184
198 255 184
198 255 184
198 255 184
198 255 184
198 255 184
198 255 184
198 255 184
198 255 184
198 255 184
198 255 184
198 255 184
198 255 184
198 255 184
198 255 184
198 255 184
198 255 184
198 255 184
198 255 184
198 255 184
198 255 184
198 255 184
198 255 184
198 255 184
198 255 184
198 255 184
198 255 184
198 255 184
198 255 184
198 255 184
198 255 184
198 255 184
198 255 184
198 255 184
198 255 184
198 255 184
198 255 184
198 255 184
198 255 184
198 255 184
198 255 184
198 255 184
198 255 184
198 255 184
198 255 184
198 255 184
198 255 184
198 255 184
198 255 184
198 255 184
198 255 184
198 255 184
198 255 184
198 255 184
198 255 184
198 255 184
198 255 184
198 255 184
198 255 184
198 255 184
198 255 184
198 255 184
198 255 184
198 255 184
198 255 184
198 255 184
198 255 184
198 255 184
198 255 184
198 255 184
198 255 185
198 255 185
198 255 185
198 255 185
198 255 185
198 255 185
198 255 185
198 255 185
198 255 185
198 255 185
198 255 185
198 255 185
198 255 185
198 255 185
198 255 185
198 255 185
198 255 185
198 255 185
198 255 185
198 255 185
198 255 185
198 255 185
198 255 185
198 255 185
198 255 185
198 255 185
198 255 185
198 255 185
198 255 185
198 255 185
198 255 185
198 255 185
198 255 185
198 255 185
198 255 185
198 255 185
198 255 185
198 255 185
198 255 185
198 255 185
198 255 185
198 255 185
198 255 185
198 255 185
198 255 185
198 255 185
198 255 185
198 255 185
198 255 185
198 255 185
198 255 185
198 255 185
198 255 185
198 255 185
198 255 185
198 255 185
198 255 185
198 255 185
198 255 185
198 255 185
198 255 185
198 255 185
198 255 185
198 255 185
198 255 185
198 255 185
198 255 185
198 255 185
198 255 185
198 255 185
198 255 185
198 255 185
197 255 186
197 255 186
197 255 186
197 255 186
197 255 186
197 255 186
197 255 186
197 255 186
197 255 186
197 255 186
197 255 186
197 255 186
197 255 186
197 255 186
197 255 186
197 255 186
197 255 186
197 255 186
197 255 186
197 255 186
197 255 186
197 255 186
197 255 186
197 255 186
197 255 186
197 255 186
197 255 186
197 255 186
197 255 186
197 255 186
197 255 186
197 255 186
197 255 186
197 255 186
197 255 186
197 255 186
197 255 186
197 255 186
197 255 186
197 255 186
197 255 186
197 255 186
197 255 186
197 255 186
197 255 186
197 255 186
197 255 186
197 255 186
197 255 186
197 255 186
197 255 186
197 255 186
197 255 186
197 255 186
197 255 186
197 255 186
197 255 186
197 255 186
197 255 186
197 255 186
197 255 186
197 255 186
197 255 186
197 255 186
197 255 186
197 255 186
197 255 186
197 255 186
197 255 186
197 255 186
197 255 186
197 255 186
196 255 186
196 255 186
196 255 186
196 255 186
196 255 186
196 255 186
196 255 186
196 255 186
196 255 186
196 255 186
196 255 186
196 255 186
196 255 186
196 255 186
196 255 186
196 255 186
196 255 186
196 255 186
196 255 186
196 255 186
196 255 186
196 255 186
196 255 186
196 255 186
196 255 186
196 255 186
196 255 186
196 255 186
196 255 186
196 255 186
196 255 186
196 255 186
196 255 186
196 255 186
196 255 186
196 255 186
196 255 186
196 255 186
196 255 186
196 255 186
196 255 186
196 255 186
196 255 186
196 255 186
196 255 186
196 255 186
196 255 186
196 255 186
196 255 186
196 255 186
196 255 186
196 255 186
196 255 186
196 255 186
196 255 186
196 255 186
196 255 186
196 255 186
196 255 186
196 255 186
196 255 186
196 255 186
196 255 186
196 255 186
196 255 186
196 255 186
196 255 186
196 255 186
196 255 186
196 255 186
196 255 186
196 255 186
196 255 187
196 255 187
196 255 187
196 255 187
196 255 187
196 255 187
196 255 187
196 255 187
196 255 187
196 255 187
196 255 187
196 255 187
196 255 187
196 255 187
196 255 187
196 255 187
196 255 187
196 255 187
196 255 187
196 255 187
196 255 187
196 255 187
196 255 187
196 255 187
196 255 187
196 255 187
196 255 187
196 255 187
196 255 187
196 255 187
196 255 187
196 255 187
196 255 187
196 255 187
196 255 187
196 255 187
196 255 187
196 255 187
196 255 187
196 255 187
196 255 187
196 255 187
196 255 187
196 255 187
196 255 187
196 255 187
196 255 187
196 255 187
196 255 187
196 255 187
196 255 187
196 255 187
196 255 187
196 255 187
196 255 187
196 255 187
196 255 187
196 255 187
196 255 187
196 255 187
196 255 187
196 255 187
196 255 187
196 255 187
196 255 187
196 255 187
196 255 187
196 255 187
196 255 187
196 255 187
196 255 187
196 255 187
195 255 187
195 255 187
195 255 187
195 255 187
195 255 187
195 255 187
195 255 187
195 255 187
195 255 187
195 255 187
195 255 187
195 255 187
195 255 187
195 255 187
195 255 187
195 255 187
195 255 187
195 255 187
195 255 187
195 255 187
195 255 187
195 255 187
195 255 187
195 255 187
195 255 187
195 255 187
195 255 187
195 255 187
195 255 187
195 255 187
195 255 187
195 255 187
195 255 187
195 255 187
195 255 187
195 255 187
195 255 187
195 255 187
195 255 187
195 255 187
195 255 187
195 255 187
195 255 187
195 255 187
195 255 187
195 255 187
195 255 187
195 255 187
195 255 187
195 255 187
195 255 187
195 255 187
195 255 187
195 255 187
195 255 187
195 255 187
195 255 187
195 255 187
195 255 187
195 255 187
195 255 187
195 255 187
195 255 187
195 255 187
195 255 187
195 255 187
195 255 187
195 255 187
195 255 187
195 255 187
195 255 187
195 255 187
195 255 188
195 255 188
195 255 188
195 255 188
195 255 188
195 255 188
195 255 188
195 255 188
195 255 188
195 255 188
195 255 188
195 255 188
195 255 188
195 255 188
195 255 188
195 255 188
195 255 188
195 255 188
195 255 188
195 255 188
195 255 188
195 255 188
195 255 188
195 255 188
195 255 188
195 255 188
195 255 188
195 255 188
195 255 188
195 255 188
195 255 188
195 255 188
195 255 188
195 255 188
195 255 188
195 255 188
195 255 188
195 255 188
195 255 188
195 255 188
195 255 188
195 255 188
195 255 188
195 255 188
195 255 188
195 255 188
195 255 188
195 255 188
195 255 188
195 255 188
195 255 188
195 255 188
195 255 188
195 255 188
195 255 188
195 255 188
195 255 188
195 255 188
195 255 188
195 255 188
195 255 188
195 255 188
195 255 188
195 255 188
195 255 188
195 255 188
195 255 188
195 255 188
195 255 188
195 255 188
195 255 188
195 255 188
194 255 188
194 255 188
194 255 188
194 255 188
194 255 188
194 255 188
194 255 188
194 255 188
194 255 188
194 255 188
194 255 188
194 255 188
194 255 188
194 255 188
194 255 188
194 255 188
194 255 188
194 255 188
194 255 188
194 255 188
194 255 188
194 255 188
194 255 188
194 255 188
194 255 188
194 255 188
194 255 188
194 255 188
194 255 188
194 255 188
194 255 188
194 255 188
194 255 188
194 255 188
194 255 188
194 255 188
194 255 188
194 255 188
194 255 188
194 255 188
194 255 188
194 255 188
194 255 188
194 255 188
194 255 188
194 255 188
194 255 188
194 255 188
194 255 188
194 255 188
194 255 188
194 255 188
194 255 188
194 255 188
194 255 188
194 255 188
194 255 188
194 255 188
194 255 188
194 255 188
194 255 188
194 255 188
194 255 188
194 255 188
194 255 188
194 255 188
194 255 188
194 255 188
194 255 188
194 255 188
194 255 188
194 255 188
194 255 189
194 255 189
194 255 189
194 255 189
194 255 189
194 255 189
194 255 189
194 255 189
194 255 189
194 255 189
194 255 189
194 255 189
194 255 189
194 255 189
194 255 189
194 255 189
194 255 189
194 255 189
194 255 189
194 255 189
194 255 189
194 255 189
194 255 189
194 255 189
194 255 189
194 255 189
194 255 189
194 255 189
194 255 189
194 255 189
194 255 189
194 255 189
194 255 189
194 255 189
194 255 189
194 255 189
194 255 189
194 255 189
194 255 189
194 255 189
194 255 189
194 255 189
194 255 189
194 255 189
194 255 189
194 255 189
194 255 189
194 255 189
194 255 189
194 255 189
194 255 189
194 255 189
194 255 189
194 255 189
194 255 189
194 255 189
194 255 189
194 255 189
194 255 189
194 255 189
194 255 189
194 255 189
194 255 189
194 255 189
194 255 189
194 255 189
194 255 189
194 255 189
194 255 189
194 255 189
194 255 189
194 255 189
193 255 189
193 255 189
193 255 189
193 255 189
193 255 189
193 255 189
193 255 189
193 255 189
193 255 189
193 255 189
193 255 189
193 255 189
193 255 189
193 255 189
193 255 189
193 255 189
193 255 189
193 255 189
193 255 189
193 255 189
193 255 189
193 255 189
193 255 189
193 255 189
193 255 189
193 255 189
193 255 189
193 255 189
193 255 189
193 255 189
193 255 189
193 255 189
193 255 189
193 255 189
193 255 189
193 255 189
193 255 189
193 255 189
193 255 189
193 255 189
193 255 189
193 255 189
193 255 189
193 255 189
193 255 189
193 255 189
193 255 189
193 255 189
193 255 189
193 255 189
193 255 189
193 255 189
193 255 189
193 255 189
193 255 189
193 255 189
193 255 189
193 255 189
193 255 189
193 255 189
193 255 189
193 255 189
193 255 189
193 255 189
193 255 189
193 255 189
193 255 189
193 255 189
193 255 189
193 255 189
193 255 189
193 255 189
193 255 190
193 255 190
193 255 190
193 255 190
193 255 190
193 255 190
193 255 190
193 255 190
193 255 190
193 255 190
193 255 190
193 255 190
193 255 190
193 255 190
193 255 190
193 255 190
193 255 190
193 255 190
193 255 190
193 255 190
193 255 190
193 255 190
193 255 190
193 255 190
193 255 190
193 255 190
193 255 190
193 255 190
193 255 190
193 255 190
193 255 190
193 255 190
193 255 190
193 255 190
193 255 190
193 255 190
193 255 190
193 255 190
193 255 190
193 255 190
193 255 190
193 255 190
193 255 190
193 255 190
193 255 190
193 255 190
193 255 190
193 255 190
193 255 190
193 255 190
193 255 190
193 255 190
193 255 190
193 255 190
193 255 190
193 255 190
193 255 190
193 255 190
193 255 190
193 255 190
193 255 190
193 255 190
193 255 190
193 255 190
193 255 190
193 255 190
193 255 190
193 255 190
193 255 190
193 255 190
193 255 190
193 255 190
192 255 190
192 255 190
192 255 190
192 255 190
192 255 190
192 255 190
192 255 190
192 255 190
192 255 190
192 255 190
192 255 190
192 255 190
192 255 190
192 255 190
192 255 190
192 255 190
192 255 190
192 255 190
192 255 190
192 255 190
192 255 190
192 255 190
192 255 190
192 255 190
192 255 190
192 255 190
192 255 190
192 255 190
192 255 190
192 255 190
192 255 190
192 255 190
192 255 190
192 255 190
192 255 190
192 255 190
192 255 190
192 255 190
192 255 190
192 255 190
192 255 190
192 255 190
192 255 190
192 255 190
192 255 190
192 255 190
192 255 190
192 255 190
192 255 190
192 255 190
192 255 190
192 255 190
192 255 190
192 255 190
192 255 190
192 255 190
192 255 190
192 255 190
192 255 190
192 255 190
192 255 190
192 255 190
192 255 190
192 255 190
192 255 190
192 255 190
192 255 190
192 255 190
192 255 190
192 255 190
192 255 190
192 255 190
192 255 191
192 255 191
192 255 191
192 255 191
192 255 191
192 255 191
192 255 191
192 255 191
192 255 191
192 255 191
192 255 191
192 255 191
192 255 191
192 255 191
192 255 191
192 255 191
192 255 191
192 255 191
192 255 191
192 255 191
192 255 191
192 255 191
192 255 191
192 255 191
192 255 191
192 255 191
192 255 191
192 255 191
192 255 191
192 255 191
192 255 191
192 255 191
192 255 191
192 255 191
192 255 191
192 255 191
192 255 191
192 255 191
192 255 191
192 255 191
192 255 191
192 255 191
192 255 191
192 255 191
192 255 191
192 255 191
192 255 191
192 255 191
192 255 191
192 255 191
192 255 191
192 255 191
192 255 191
192 255 191
192 255 191
192 255 191
192 255 191
192 255 191
192 255 191
192 255 191
192 255 191
192 255 191
192 255 191
192 255 191
192 255 191
192 255 191
192 255 191
192 255 191
192 255 191
192 255 191
192 255 191
192 255 191
191 255 192
191 255 192
191 255 192
191 255 192
191 255 192
191 255 192
191 255 192
191 255 192
191 255 192
191 255 192
191 255 192
191 255 192
191 255 192
191 255 192
191 255 192
191 255 192
191 255 192
191 255 192
191 255 192
191 255 192
191 255 192
191 255 192
191 255 192
191 255 192
191 255 192
191 255 192
191 255 192
191 255 192
191 255 192
191 255 192
191 255 192
191 255 192
191 255 192
191 255 192
191 255 192
191 255 192
191 255 192
191 255 192
191 255 192
191 255 192
191 255 192
191 255 192
191 255 192
191 255 192
191 255 192
191 255 192
191 255 192
191 255 192
191 255 192
191 255 192
191 255 192
191 255 192
191 255 192
191 255 192
191 255 192
191 255 192
191 255 192
191 255 192
191 255 192
191 255 192
191 255 192
191 255 192
191 255 192
191 255 192
191 255 192
191 255 192
191 255 192
191 255 192
191 255 192
191 255 192
191 255 192
191 255 192
190 255 192
190 255 192
190 255 192
190 255 192
190 255 192
190 255 192
190 255 192
190 255 192
190 255 192
190 255 192
190 255 192
190 255 192
190 255 192
190 255 192
190 255 192
190 255 192
190 255 192
190 255 192
190 255 192
190 255 192
190 255 192
190 255 192
190 255 192
190 255 192
190 255 192
190 255 192
190 255 192
190 255 192
190 255 192
190 255 192
190 255 192
190 255 192
190 255 192
190 255 192
190 255 192
190 255 192
190 255 192
190 255 192
190 255 192
190 255 192
190 255 192
190 255 192
190 255 192
190 255 192
190 255 192
190 255 192
190 255 192
190 255 192
190 255 192
190 255 192
190 255 192
190 255 192
190 255 192
190 255 192
190 255 192
190 255 192
190 255 192
190 255 192
190 255 192
190 255 192
190 255 192
190 255 192
190 255 192
190 255 192
190 255 192
190 255 192
190 255 192
190 255 192
190 255 192
190 255 192
190 255 192
190 255 192
190 255 193
190 255 193
190 255 193
190 255 193
190 255 193
190 255 193
190 255 193
190 255 193
190 255 193
190 255 193
190 255 193
190 255 193
190 255 193
190 255 193
190 255 193
190 255 193
190 255 193
190 255 193
190 255 193
190 255 193
190 255 193
190 255 193
190 255 193
190 255 193
190 255 193
190 255 193
190 255 193
190 255 193
190 255 193
190 255 193
190 255 193
190 255 193
190 255 193
190 255 193
190 255 193
190 255 193
190 255 193
190 255 193
190 255 193
190 255 193
190 255 193
190 255 193
190 255 193
190 255 193
190 255 193
190 255 193
190 255 193
190 255 193
190 255 193
190 255 193
190 255 193
190 255 193
190 255 193
190 255 193
190 255 193
190 255 193
190 255 193
190 255 193
190 255 193
190 255 193
190 255 193
190 255 193
190 255 193
190 255 193
190 255 193
190 255 193
190 255 193
190 255 193
190 255 193
190 255 193
190 255 193
190 255 193
189 255 193
189 255 193
189 255 193
189 255 193
189 255 193
189 255 193
189 255 193
189 255 193
189 255 193
189 255 193
189 255 193
189 255 193
189 255 193
189 255 193
189 255 193
189 255 193
189 255 193
189 255 193
189 255 193
189 255 193
189 255 193
189 255 193
189 255 193
189 255 193
189 255 193
189 255 193
189 255 193
189 255 193
189 255 193
189 255 193
189 255 193
189 255 193
189 255 193
189 255 193
189 255 193
189 255 193
189 255 193
189 255 193
189 255 193
189 255 193
189 255 193
189 255 193
189 255 193
189 255 193
189 255 193
189 255 193
189 255 193
189 255 193
189 255 193
189 255 193
189 255 193
189 255 193
189 255 193
189 255 193
189 255 193
189 255 193
189 255 193
189 255 193
189 255 193
189 255 193
189 255 193
189 255 193
189 255 193
189 255 193
189 255 193
189 255 193
189 255 193
189 255 193
189 255 193
189 255 193
189 255 193
189 255 193
189 255 194
189 255 194
189 255 194
189 255 194
189 255 194
189 255 194
189 255 194
189 255 194
189 255 194
189 255 194
189 255 194
189 255 194
189 255 194
189 255 194
189 255 194
189 255 194
189 255 194
189 255 194
189 255 194
189 255 194
189 255 194
189 255 194
189 255 194
189 255 194
189 255 194
189 255 194
189 255 194
189 255 194
189 255 194
189 255 194
189 255 194
189 255 194
189 255 194
189 255 194
189 255 194
189 255 194
189 255 194
189 255 194
189 255 194
189 255 194
189 255 194
189 255 194
189 255 194
189 255 194
189 255 194
189 255 194
189 255 194
189 255 194
189 255 194
189 255 194
189 255 194
189 255 194
189 255 194
189 255 194
189 255 194
189 255 194
189 255 194
189 255 194
189 255 194
189 255 194
189 255 194
189 255 194
189 255 194
189 255 194
189 255 194
189 255 194
189 255 194
189 255 194
189 255 194
189 255 194
189 255 194
189 255 194
188 255 194
188 255 194
188 255 194
188 255 194
188 255 194
188 255 194
188 255 194
188 255 194
188 255 194
188 255 194
188 255 194
188 255 194
188 255 194
188 255 194
188 255 194
188 255 194
188 255 194
188 255 194
188 255 194
188 255 194
188 255 194
188 255 194
188 255 194
188 255 194
188 255 194
188 255 194
188 255 194
188 255 194
188 255 194
188 255 194
188 255 194
188 255 194
188 255 194
188 255 194
188 255 194
188 255 194
188 255 194
188 255 194
188 255 194
188 255 194
188 255 194
188 255 194
188 255 194
188 255 194
188 255 194
188 255 194
188 255 194
188 255 194
188 255 194
188 255 194
188 255 194
188 255 194
188 255 194
188 255 194
188 255 194
188 255 194
188 255 194
188 255 194
188 255 194
188 255 194
188 255 194
188 255 194
188 255 194
188 255 194
188 255 194
188 255 194
188 255 194
188 255 194
188 255 194
188 255 194
188 255 194
188 255 194
188 255 195
188 255 195
188 255 195
188 255 195
188 255 195
188 255 195
188 255 195
188 255 195
188 255 195
188 255 195
188 255 195
188 255 195
188 255 195
188 255 195
188 255 195
188 255 195
188 255 195
188 255 195
188 255 195
188 255 195
188 255 195
188 255 195
188 255 195
188 255 195
188 255 195
188 255 195
188 255 195
188 255 195
188 255 195
188 255 195
188 255 195
188 255 195
188 255 195
188 255 195
188 255 195
188 255 195
188 255 195
188 255 195
188 255 195
188 255 195
188 255 195
188 255 195
188 255 195
188 255 195
188 255 195
188 255 195
188 255 195
188 255 195
188 255 195
188 255 195
188 255 195
188 255 195
188 255 195
188 255 195
188 255 195
188 255 195
188 255 195
188 255 195
188 255 195
188 255 195
188 255 195
188 255 195
188 255 195
188 255 195
188 255 195
188 255 195
188 255 195
188 255 195
188 255 195
188 255 195
188 255 195
188 255 195
187 255 195
187 255 195
187 255 195
187 255 195
187 255 195
187 255 195
187 255 195
187 255 195
187 255 195
187 255 195
187 255 195
187 255 195
187 255 195
187 255 195
187 255 195
187 255 195
187 255 195
187 255 195
187 255 195
187 255 195
187 255 195
187 255 195
187 255 195
187 255 195
187 255 195
187 255 195
187 255 195
187 255 195
187 255 195
187 255 195
187 255 195
187 255 195
187 255 195
187 255 195
187 255 195
187 255 195
187 255 195
187 255 195
187 255 195
187 255 195
187 255 195
187 255 195
187 255 195
187 255 195
187 255 195
187 255 195
187 255 195
187 255 195
187 255 195
187 255 195
187 255 195
187 255 195
187 255 195
187 255 195
187 255 195
187 255 195
187 255 195
187 255 195
187 255 195
187 255 195
187 255 195
187 255 195
187 255 195
187 255 195
187 255 195
187 255 195
187 255 195
187 255 195
187 255 195
187 255 195
187 255 195
187 255 195
187 255 196
187 255 196
187 255 196
187 255 196
187 255 196
187 255 196
187 255 196
187 255 196
187 255 196
187 255 196
187 255 196
187 255 196
187 255 196
187 255 196
187 255 196
187 255 196
187 255 196
187 255 196
187 255 196
187 255 196
187 255 196
187 255 196
187 255 196
187 255 196
187 255 196
187 255 196
187 255 196
187 255 196
187 255 196
187 255 196
187 255 196
187 255 196
187 255 196
187 255 196
187 255 196
187 255 196
187 255 196
187 255 196
187 255 196
187 255 196
187 255 196
187 255 196
187 255 196
187 255 196
187 255 196
187 255 196
187 255 196
187 255 196
187 255 196
187 255 196
187 255 196
187 255 196
187 255 196
187 255 196
187 255 196
187 255 196
187 255 196
187 255 196
187 255 196
187 255 196
187 255 196
187 255 196
187 255 196
187 255 196
187 255 196
187 255 196
187 255 196
187 255 196
187 255 196
187 255 196
187 255 196
187 255 196
186 255 196
186 255 196
186 255 196
186 255 196
186 255 196
186 255 196
186 255 196
186 255 196
186 255 196
186 255 196
186 255 196
186 255 196
186 255 196
186 255 196
186 255 196
186 255 196
186 255 196
186 255 196
186 255 196
186 255 196
186 255 196
186 255 196
186 255 196
186 255 196
186 255 196
186 255 196
186 255 196
186 255 196
186 255 196
186 255 196
186 255 196
186 255 196
186 255 196
186 255 196
186 255 196
186 255 196
186 255 196
186 255 196
186 255 196
186 255 196
186 255 196
186 255 196
186 255 196
186 255 196
186 255 196
186 255 196
186 255 196
186 255 196
186 255 196
186 255 196
186 255 196
186 255 196
186 255 196
186 255 196
186 255 196
186 255 196
186 255 196
186 255 196
186 255 196
186 255 196
186 255 196
186 255 196
186 255 196
186 255 196
186 255 196
186 255 196
186 255 196
186 255 196
186 255 196
186 255 196
186 255 196
186 255 196
186 255 197
186 255 197
186 255 197
186 255 197
186 255 197
186 255 197
186 255 197
186 255 197
186 255 197
186 255 197
186 255 197
186 255 197
186 255 197
186 255 197
186 255 197
186 255 197
186 255 197
186 255 197
186 255 197
186 255 197
186 255 197
186 255 197
186 255 197
186 255 197
186 255 197
186 255 197
186 255 197
186 255 197
186 255 197
186 255 197
186 255 197
186 255 197
186 255 197
186 255 197
186 255 197
186 255 197
186 255 197
186 255 197
186 255 197
186 255 197
186 255 197
186 255 197
186 255 197
186 255 197
186 255 197
186 255 197
186 255 197
186 255 197
186 255 197
186 255 197
186 255 197
186 255 197
186 255 197
186 255 197
186 255 197
186 255 197
186 255 197
186 255 197
186 255 197
186 255 197
186 255 197
186 255 197
186 255 197
186 255 197
186 255 197
186 255 197
186 255 197
186 255 197
186 255 197
186 255 197
186 255 197
186 255 197
185 255 198
185 255 198
185 255 198
185 255 198
185 255 198
185 255 198
185 255 198
185 255 198
185 255 198
185 255 198
185 255 198
185 255 198
185 255 198
185 255 198
185 255 198
185 255 198
185 255 198
185 255 198
185 255 198
185 255 198
185 255 198
185 255 198
185 255 198
185 255 198
185 255 198
185 255 198
185 255 198
185 255 198
185 255 198
185 255 198
185 255 198
185 255 198
185 255 198
185 255 198
185 255 198
185 255 198
185 255 198
185 255 198
185 255 198
185 255 198
185 255 198
185 255 198
185 255 198
185 255 198
185 255 198
185 255 198
185 255 198
185 255 198
185 255 198
185 255 198
185 255 198
185 255 198
185 255 198
185 255 198
185 255 198
185 255 198
185 255 198
185 255 198
185 255 198
185 255 198
185 255 198
185 255 198
185 255 198
185 255 198
185 255 198
185 255 198
185 255 198
185 255 198
185 255 198
185 255 198
185 255 198
185 255 198
184 255 198
184 255 198
184 255 198
184 255 198
184 255 198
184 255 198
184 255 198
184 255 198
184 255 198
184 255 198
184 255 198
184 255 198
184 255 198
184 255 198
184 255 198
184 255 198
184 255 198
184 255 198
184 255 198
184 255 198
184 255 198
184 255 198
184 255 198
184 255 198
184 255 198
184 255 198
184 255 198
184 255 198
184 255 198
184 255 198
184 255 198
184 255 198
184 255 198
184 255 198
184 255 198
184 255 198
184 255 198
184 255 198
184 255 198
184 255 198
184 255 198
184 255 198
184 255 198
184 255 198
184 255 198
184 255 198
184 255 198
184 255 198
184 255 198
184 255 198
184 255 198
184 255 198
184 255 198
184 255 198
184 255 198
184 255 198
184 255 198
184 255 198
184 255 198
184 255 198
184 255 198
184 255 198
184 255 198
184 255 198
184 255 198
184 255 198
184 255 198
184 255 198
184 255 198
184 255 198
184 255 198
184 255 198
184 255 199
184 255 199
184 255 199
184 255 199
184 255 199
184 255 199
184 255 199
184 255 199
184 255 199
184 255 199
184 255 199
184 255 199
184 255 199
184 255 199
184 255 199
184 255 199
184 255 199
184 255 199
184 255 199
184 255 199
184 255 199
184 255 199
184 255 199
184 255 199
184 255 199
184 255 199
184 255 199
184 255 199
184 255 199
184 255 199
184 255 199
184 255 199
184 255 199
184 255 199
184 255 199
184 255 199
184 255 199
184 255 199
184 255 199
184 255 199
184 255 199
184 255 199
184 255 199
184 255 199
184 255 199
184 255 199
184 255 199
184 255 199
184 255 199
184 255 199
184 255 199
184 255 199
184 255 199
184 255 199
184 255 199
184 255 199
184 255 199
184 255 199
184 255 199
184 255 199
184 255 199
184 255 199
184 255 199
184 255 199
184 255 199
184 255 199
184 255 199
184 255 199
184 255 199
184 255 199
184 255 199
184 255 199
183 255 199
183 255 199
183 255 199
183 255 199
183 255 199
183 255 199
183 255 199
183 255 199
183 255 199
183 255 199
183 255 199
183 255 199
183 255 199
183 255 199
183 255 199
183 255 199
183 255 199
183 255 199
183 255 199
183 255 199
183 255 199
183 255 199
183 255 199
183 255 199
183 255 199
183 255 199
183 255 199
183 255 199
183 255 199
183 255 199
183 255 199
183 255 199
183 255 199
183 255 199
183 255 199
183 255 199
183 255 199
183 255 199
183 255 199
183 255 199
183 255 199
183 255 199
183 255 199
183 255 199
183 255 199
183 255 199
183 255 199
183 255 199
183 255 199
183 255 199
183 255 199
183 255 199
183 255 199
183 255 199
183 255 199
183 255 199
183 255 199
183 255 199
183 255 199
183 255 199
183 255 199
183 255 199
183 255 199
183 255 199
183 255 199
183 255 199
183 255 199
183 255 199
183 255 199
183 255 199
183 255 199
183 255 199
183 255 200
183 255 200
183 255 200
183 255 200
183 255 200
183 255 200
183 255 200
183 255 200
183 255 200
183 255 200
183 255 200
183 255 200
183 255 200
183 255 200
183 255 200
183 255 200
183 255 200
183 255 200
183 255 200
183 255 200
183 255 200
183 255 200
183 255 200
183 255 200
183 255 200
183 255 200
183 255 200
183 255 200
183 255 200
183 255 200
183 255 200
183 255 200
183 255 200
183 255 200
183 255 200
183 255 200
183 255 200
183 255 200
183 255 200
183 255 200
183 255 200
183 255 200
183 255 200
183 255 200
183 255 200
183 255 200
183 255 200
183 255 200
183 255 200
183 255 200
183 255 200
183 255 200
183 255 200
183 255 200
183 255 200
183 255 200
183 255 200
183 255 200
183 255 200
183 255 200
183 255 200
183 255 200
183 255 200
183 255 200
183 255 200
183 255 200
183 255 200
183 255 200
183 255 200
183 255 200
183 255 200
183 255 200
182 255 200
182 255 200
182 255 200
182 255 200
182 255 200
182 255 200
182 255 200
182 255 200
182 255 200
182 255 200
182 255 200
182 255 200
182 255 200
182 255 200
182 255 200
182 255 200
182 255 200
182 255 200
182 255 200
182 255 200
182 255 200
182 255 200
182 255 200
182 255 200
182 255 200
182 255 200
182 255 200
182 255 200
182 255 200
182 255 200
182 255 200
182 255 200
182 255 200
182 255 200
182 255 200
182 255 200
182 255 200
182 255 200
182 255 200
182 255 200
182 255 200
182 255 200
182 255 200
182 255 200
182 255 200
182 255 200
182 255 200
182 255 200
182 255 200
182 255 200
182 255 200
182 255 200
182 255 200
182 255 200
182 255 200
182 255 200
182 255 200
182 255 200
182 255 200
182 255 200
182 255 200
182 255 200
182 255 200
182 255 200
182 255 200
182 255 200
182 255 200
182 255 200
182 255 200
182 255 200
182 255 200
182 255 200
182 255 201
182 255 201
182 255 201
182 255 201
182 255 201
182 255 201
182 255 201
182 255 201
182 255 201
182 255 201
182 255 201
182 255 201
182 255 201
182 255 201
182 255 201
182 255 201
182 255 201
182 255 201
182 255 201
182 255 201
182 255 201
182 255 201
182 255 201
182 255 201
182 255 201
182 255 201
182 255 201
182 255 201
182 255 201
182 255 201
182 255 201
182 255 201
182 255 201
182 255 201
182 255 201
182 255 201
182 255 201
182 255 201
182 255 201
182 255 201
182 255 201
182 255 201
182 255 201
182 255 201
182 255 201
182 255 201
182 255 201
182 255 201
182 255 201
182 255 201
182 255 201
182 255 201
182 255 201
182 255 201
182 255 201
182 255 201
182 255 201
182 255 201
182 255 201
182 255 201
182 255 201
182 255 201
182 255 201
182 255 201
182 255 201
182 255 201
182 255 201
182 255 201
182 255 201
182 255 201
182 255 201
182 255 201
181 255 201
181 255 201
181 255 201
181 255 201
181 255 201
181 255 201
181 255 201
181 255 201
181 255 201
181 255 201
181 255 201
181 255 201
181 255 201
181 255 201
181 255 201
181 255 201
181 255 201
181 255 201
181 255 201
181 255 201
181 255 201
181 255 201
181 255 201
181 255 201
181 255 201
181 255 201
181 255 201
181 255 201
181 255 201
181 255 201
181 255 201
181 255 201
181 255 201
181 255 201
181 255 201
181 255 201
181 255 201
181 255 201
181 255 201
181 255 201
181 255 201
181 255 201
181 255 201
181 255 201
181 255 201
181 255 201
181 255 201
181 255 201
181 255 201
181 255 201
181 255 201
181 255 201
181 255 201
181 255 201
181 255 201
181 255 201
181 255 201
181 255 201
181 255 201
181 255 201
181 255 201
181 255 201
181 255 201
181 255 201
181 255 201
181 255 201
181 255 201
181 255 201
181 255 201
181 255 201
181 255 201
181 255 201
181 255 202
181 255 202
181 255 202
181 255 202
181 255 202
181 255 202
181 255 202
181 255 202
181 255 202
181 255 202
181 255 202
181 255 202
181 255 202
181 255 202
181 255 202
181 255 202
181 255 202
181 255 202
181 255 202
181 255 202
181 255 202
181 255 202
181 255 202
181 255 202
181 255 202
181 255 202
181 255 202
181 255 202
181 255 202
181 255 202
181 255 202
181 255 202
181 255 202
181 255 202
181 255 202
181 255 202
181 255 202
181 255 202
181 255 202
181 255 202
181 255 202
181 255 202
181 255 202
181 255 202
181 255 202
181 255 202
181 255 202
181 255 202
181 255 202
181 255 202
181 255 202
181 255 202
181 255 202
181 255 202
181 255 202
181 255 202
181 255 202
181 255 202
181 255 202
181 255 202
181 255 202
181 255 202
181 255 202
181 255 202
181 255 202
181 255 202
181 255 202
181 255 202
181 255 202
181 255 202
181 255 202
181 255 202
180 255 202
180 255 202
180 255 202
180 255 202
180 255 202
180 255 202
180 255 202
180 255 202
180 255 202
180 255 202
180 255 202
180 255 202
180 255 202
180 255 202
180 255 202
180 255 202
180 255 202
180 255 202
180 255 202
180 255 202
180 255 202
180 255 202
180 255 202
180 255 202
180 255 202
180 255 202
180 255 202
180 255 202
180 255 202
180 255 202
180 255 202
180 255 202
180 255 202
180 255 202
180 255 202
180 255 202
180 255 202
180 255 202
180 255 202
180 255 202
180 255 202
180 255 202
180 255 202
180 255 202
180 255 202
180 255 202
180 255 202
180 255 202
180 255 202
180 255 202
180 255 202
180 255 202
180 255 202
180 255 202
180 255 202
180 255 202
180 255 202
180 255 202
180 255 202
180 255 202
180 255 202
180 255 202
180 255 202
180 255 202
180 255 202
180 255 202
180 255 202
180 255 202
180 255 202
180 255 202
180 255 202
180 255 202
179 255 203
179 255 203
179 255 203
179 255 203
179 255 203
179 255 203
179 255 203
179 255 203
179 255 203
179 255 203
179 255 203
179 255 203
179 255 203
179 255 203
179 255 203
179 255 203
179 255 203
179 255 203
179 255 203
179 255 203
179 255 203
179 255 203
179 255 203
179 255 203
179 255 203
179 255 203
179 255 203
179 255 203
179 255 203
179 255 203
179 255 203
179 255 203
179 255 203
179 255 203
179 255 203
179 255 203
179 255 203
179 255 203
179 255 203
179 255 203
179 255 203
179 255 203
179 255 203
179 255 203
179 255 203
179 255 203
179 255 203
179 255 203
179 255 203
179 255 203
179 255 203
179 255 203
179 255 203
179 255 203
179 255 203
179 255 203
179 255 203
179 255 203
179 255 203
179 255 203
179 255 203
179 255 203
179 255 203
179 255 203
179 255 203
179 255 203
179 255 203
179 255 203
179 255 203
179 255 203
179 255 203
179 255 203
179 255 204
179 255 204
179 255 204
179 255 204
179 255 204
179 255 204
179 255 204
179 255 204
179 255 204
179 255 204
179 255 204
179 255 204
179 255 204
179 255 204
179 255 204
179 255 204
179 255 204
179 255 204
179 255 204
179 255 204
179 255 204
179 255 204
179 255 204
179 255 204
179 255 204
179 255 204
179 255 204
179 255 204
179 255 204
179 255 204
179 255 204
179 255 204
179 255 204
179 255 204
179 255 204
179 255 204
179 255 204
179 255 204
179 255 204
179 255 204
179 255 204
179 255 204
179 255 204
179 255 204
179 255 204
179 255 204
179 255 204
179 255 204
179 255 204
179 255 204
179 255 204
179 255 204
179 255 204
179 255 204
179 255 204
179 255 204
179 255 204
179 255 204
179 255 204
179 255 204
179 255 204
179 255 204
179 255 204
179 255 204
179 255 204
179 255 204
179 255 204
179 255 204
179 255 204
179 255 204
179 255 204
179 255 204
178 255 204
178 255 204
178 255 204
178 255 204
178 255 204
178 255 204
178 255 204
178 255 204
178 255 204
178 255 204
178 255 204
178 255 204
178 255 204
178 255 204
178 255 204
178 255 204
178 255 204
178 255 204
178 255 204
178 255 204
178 255 204
178 255 204
178 255 204
178 255 204
178 255 204
178 255 204
178 255 204
178 255 204
178 255 204
178 255 204
178 255 204
178 255 204
178 255 204
178 255 204
178 255 204
178 255 204
178 255 204
178 255 204
178 255 204
178 255 204
178 255 204
178 255 204
178 255 204
178 255 204
178 255 204
178 255 204
178 255 204
178 255 204
178 255 204
178 255 204
178 255 204
178 255 204
178 255 204
178 255 204
178 255 204
178 255 204
178 255 204
178 255 204
178 255 204
178 255 204
178 255 204
178 255 204
178 255 204
178 255 204
178 255 204
178 255 204
178 255 204
178 255 204
178 255 204
178 255 204
178 255 204
178 255 204
178 255 205
178 255 205
178 255 205
178 255 205
178 255 205
178 255 205
178 255 205
178 255 205
178 255 205
178 255 205
178 255 205
178 255 205
178 255 205
178 255 205
178 255 205
178 255 205
178 255 205
178 255 205
178 255 205
178 255 205
178 255 205
178 255 205
178 255 205
178 255 205
178 255 205
178 255 205
178 255 205
178 255 205
178 255 205
178 255 205
178 255 205
178 255 205
178 255 205
178 255 205
178 255 205
178 255 205
178 255 205
178 255 205
178 255 205
178 255 205
178 255 205
178 255 205
178 255 205
178 255 205
178 255 205
178 255 205
178 255 205
178 255 205
178 255 205
178 255 205
178 255 205
178 255 205
178 255 205
178 255 205
178 255 205
178 255 205
178 255 205
178 255 205
178 255 205
178 255 205
178 255 205
178 255 205
178 255 205
178 255 205
178 255 205
178 255 205
178 255 205
178 255 205
178 255 205
178 255 205
178 255 205
178 255 205
177 255 205
177 255 205
177 255 205
177 255 205
177 255 205
177 255 205
177 255 205
177 255 205
177 255 205
177 255 205
177 255 205
177 255 205
177 255 205
177 255 205
177 255 205
177 255 205
177 255 205
177 255 205
177 255 205
177 255 205
177 255 205
177 255 205
177 255 205
177 255 205
177 255 205
177 255 205
177 255 205
177 255 205
177 255 205
177 255 205
177 255 205
177 255 205
177 255 205
177 255 205
177 255 205
177 255 205
177 255 205
177 255 205
177 255 205
177 255 205
177 255 205
177 255 205
177 255 205
177 255 205
177 255 205
177 255 205
177 255 205
177 255 205
177 255 205
177 255 205
177 255 205
177 255 205
177 255 205
177 255 205
177 255 205
177 255 205
177 255 205
177 255 205
177 255 205
177 255 205
177 255 205
177 255 205
177 255 205
177 255 205
177 255 205
177 255 205
177 255 205
177 255 205
177 255 205
177 255 205
177 255 205
177 255 205
177 255 206
177 255 206
177 255 206
177 255 206
177 255 206
177 255 206
177 255 206
177 255 206
177 255 206
177 255 206
177 255 206
177 255 206
177 255 206
177 255 206
177 255 206
177 255 206
177 255 206
177 255 206
177 255 206
177 255 206
177 255 206
177 255 206
177 255 206
177 255 206
177 255 206
177 255 206
177 255 206
177 255 206
177 255 206
177 255 206
177 255 206
177 255 206
177 255 206
177 255 206
177 255 206
177 255 206
177 255 206
177 255 206
177 255 206
177 255 206
177 255 206
177 255 206
177 255 206
177 255 206
177 255 206
177 255 206
177 255 206
177 255 206
177 255 206
177 255 206
177 255 206
177 255 206
177 255 206
177 255 206
177 255 206
177 255 206
177 255 206
177 255 206
177 255 206
177 255 206
177 255 206
177 255 206
177 255 206
177 255 206
177 255 206
177 255 206
177 255 206
177 255 206
177 255 206
177 255 206
177 255 206
177 255 206
176 255 206
176 255 206
176 255 206
176 255 206
176 255 206
176 255 206
176 255 206
176 255 206
176 255 206
176 255 206
176 255 206
176 255 206
176 255 206
176 255 206
176 255 206
176 255 206
176 255 206
176 255 206
176 255 206
176 255 206
176 255 206
176 255 206
176 255 206
176 255 206
176 255 206
176 255 206
176 255 206
176 255 206
176 255 206
176 255 206
176 255 206
176 255 206
176 255 206
176 255 206
176 255 206
176 255 206
176 255 206
176 255 206
176 255 206
176 255 206
176 255 206
176 255 206
176 255 206
176 255 206
176 255 206
176 255 206
176 255 206
176 255 206
176 255 206
176 255 206
176 255 206
176 255 206
176 255 206
176 255 206
176 255 206
176 255 206
176 255 206
176 255 206
176 255 206
176 255 206
176 255 206
176 255 206
176 255 206
176 255 206
176 255 206
176 255 206
176 255 206
176 255 206
176 255 206
176 255 206
176 255 206
176 255 206
176 255 207
176 255 207
176 255 207
176 255 207
176 255 207
176 255 207
176 255 207
176 255 207
176 255 207
176 255 207
176 255 207
176 255 207
176 255 207
176 255 207
176 255 207
176 255 207
176 255 207
176 255 207
176 255 207
176 255 207
176 255 207
176 255 207
176 255 207
176 255 207
176 255 207
176 255 207
176 255 207
176 255 207
176 255 207
176 255 207
176 255 207
176 255 207
176 255 207
176 255 207
176 255 207
176 255 207
176 255 207
176 255 207
176 255 207
176 255 207
176 255 207
176 255 207
176 255 207
176 255 207
176 255 207
176 255 207
176 255 207
176 255 207
176 255 207
176 255 207
176 255 207
176 255 207
176 255 207
176 255 207
176 255 207
176 255 207
176 255 207
176 255 207
176 255 207
176 255 207
176 255 207
176 255 207
176 255 207
176 255 207
176 255 207
176 255 207
176 255 207
176 255 207
176 255 207
176 255 207
176 255 207
176 255 207
175 255 207
175 255 207
175 255 207
175 255 207
175 255 207
175 255 207
175 255 207
175 255 207
175 255 207
175 255 207
175 255 207
175 255 207
175 255 207
175 255 207
175 255 207
175 255 207
175 255 207
175 255 207
175 255 207
175 255 207
175 255 207
175 255 207
175 255 207
175 255 207
175 255 207
175 255 207
175 255 207
175 255 207
175 255 207
175 255 207
175 255 207
175 255 207
175 255 207
175 255 207
175 255 207
175 255 207
175 255 207
175 255 207
175 255 207
175 255 207
175 255 207
175 255 207
175 255 207
175 255 207
175 255 207
175 255 207
175 255 207
175 255 207
175 255 207
175 255 207
175 255 207
175 255 207
175 255 207
175 255 207
175 255 207
175 255 207
175 255 207
175 255 207
175 255 207
175 255 207
175 255 207
175 255 207
175 255 207
175 255 207
175 255 207
175 255 207
175 255 207
175 255 207
175 255 207
175 255 207
175 255 207
175 255 207
175 255 208
175 255 208
175 255 208
175 255 208
175 255 208
175 255 208
175 255 208
175 255 208
175 255 208
175 255 208
175 255 208
175 255 208
175 255 208
175 255 208
175 255 208
175 255 208
175 255 208
175 255 208
175 255 208
175 255 208
175 255 208
175 255 208
175 255 208
175 255 208
175 255 208
175 255 208
175 255 208
175 255 208
175 255 208
175 255 208
175 255 208
175 255 208
175 255 208
175 255 208
175 255 208
175 255 208
175 255 208
175 255 208
175 255 208
175 255 208
175 255 208
175 255 208
175 255 208
175 255 208
175 255 208
175 255 208
175 255 208
175 255 208
175 255 208
175 255 208
175 255 208
175 255 208
175 255 208
175 255 208
175 255 208
175 255 208
175 255 208
175 255 208
175 255 208
175 255 208
175 255 208
175 255 208
175 255 208
175 255 208
175 255 208
175 255 208
175 255 208
175 255 208
175 255 208
175 255 208
175 255 208
175 255 208
174 255 208
174 255 208
174 255 208
174 255 208
174 255 208
174 255 208
174 255 208
174 255 208
174 255 208
174 255 208
174 255 208
174 255 208
174 255 208
174 255 208
174 255 208
174 255 208
174 255 208
174 255 208
174 255 208
174 255 208
174 255 208
174 255 208
174 255 208
174 255 208
174 255 208
174 255 208
174 255 208
174 255 208
174 255 208
174 255 208
174 255 208
174 255 208
174 255 208
174 255 208
174 255 208
174 255 208
174 255 208
174 255 208
174 255 208
174 255 208
174 255 208
174 255 208
174 255 208
174 255 208
174 255 208
174 255 208
174 255 208
174 255 208
174 255 208
174 255 208
174 255 208
174 255 208
174 255 208
174 255 208
174 255 208
174 255 208
174 255 208
174 255 208
174 255 208
174 255 208
174 255 208
174 255 208
174 255 208
174 255 208
174 255 208
174 255 208
174 255 208
174 255 208
174 255 208
174 255 208
174 255 208
174 255 208
173 255 209
173 255 209
173 255 209
173 255 209
173 255 209
173 255 209
173 255 209
173 255 209
173 255 209
173 255 209
173 255 209
173 255 209
173 255 209
173 255 209
173 255 209
173 255 209
173 255 209
173 255 209
173 255 209
173 255 209
173 255 209
173 255 209
173 255 209
173 255 209
173 255 209
173 255 209
173 255 209
173 255 209
173 255 209
173 255 209
173 255 209
173 255 209
173 255 209
173 255 209
173 255 209
173 255 209
173 255 209
173 255 209
173 255 209
173 255 209
173 255 209
173 255 209
173 255 209
173 255 209
173 255 209
173 255 209
173 255 209
173 255 209
173 255 209
173 255 209
173 255 209
173 255 209
173 255 209
173 255 209
173 255 209
173 255 209
173 255 209
173 255 209
173 255 209
173 255 209
173 255 209
173 255 209
173 255 209
173 255 209
173 255 209
173 255 209
173 255 209
173 255 209
173 255 209
173 255 209
173 255 209
173 255 209
173 255 210
173 255 210
173 255 210
173 255 210
173 255 210
173 255 210
173 255 210
173 255 210
173 255 210
173 255 210
173 255 210
173 255 210
173 255 210
173 255 210
173 255 210
173 255 210
173 255 210
173 255 210
173 255 210
173 255 210
173 255 210
173 255 210
173 255 210
173 255 210
173 255 210
173 255 210
173 255 210
173 255 210
173 255 210
173 255 210
173 255 210
173 255 210
173 255 210
173 255 210
173 255 210
173 255 210
173 255 210
173 255 210
173 255 210
173 255 210
173 255 210
173 255 210
173 255 210
173 255 210
173 255 210
173 255 210
173 255 210
173 255 210
173 255 210
173 255 210
173 255 210
173 255 210
173 255 210
173 255 210
173 255 210
173 255 210
173 255 210
173 255 210
173 255 210
173 255 210
173 255 210
173 255 210
173 255 210
173 255 210
173 255 210
173 255 210
173 255 210
173 255 210
173 255 210
173 255 210
173 255 210
173 255 210
172 255 210
172 255 210
172 255 210
172 255 210
172 255 210
172 255 210
172 255 210
172 255 210
172 255 210
172 255 210
172 255 210
172 255 210
172 255 210
172 255 210
172 255 210
172 255 210
172 255 210
172 255 210
172 255 210
172 255 210
172 255 210
172 255 210
172 255 210
172 255 210
172 255 210
172 255 210
172 255 210
172 255 210
172 255 210
172 255 210
172 255 210
172 255 210
172 255 210
172 255 210
172 255 210
172 255 210
172 255 210
172 255 210
172 255 210
172 255 210
172 255 210
172 255 210
172 255 210
172 255 210
172 255 210
172 255 210
172 255 210
172 255 210
172 255 210
172 255 210
172 255 210
172 255 210
172 255 210
172 255 210
172 255 210
172 255 210
172 255 210
172 255 210
172 255 210
172 255 210
172 255 210
172 255 210
172 255 210
172 255 210
172 255 210
172 255 210
172 255 210
172 255 210
172 255 210
172 255 210
172 255 210
172 255 210
172 255 211
172 255 211
172 255 211
172 255 211
172 255 211
172 255 211
172 255 211
172 255 211
172 255 211
172 255 211
172 255 211
172 255 211
172 255 211
172 255 211
172 255 211
172 255 211
172 255 211
172 255 211
172 255 211
172 255 211
172 255 211
172 255 211
172 255 211
172 255 211
172 255 211
172 255 211
172 255 211
172 255 211
172 255 211
172 255 211
172 255 211
172 255 211
172 255 211
172 255 211
172 255 211
172 255 211
172 255 211
172 255 211
172 255 211
172 255 211
172 255 211
172 255 211
172 255 211
172 255 211
172 255 211
172 255 211
172 255 211
172 255 211
172 255 211
172 255 211
172 255 211
172 255 211
172 255 211
172 255 211
172 255 211
172 255 211
172 255 211
172 255 211
172 255 211
172 255 211
172 255 211
172 255 211
172 255 211
172 255 211
172 255 211
172 255 211
172 255 211
172 255 211
172 255 211
172 255 211
172 255 211
172 255 211
171 255 211
171 255 211
171 255 211
171 255 211
171 255 211
171 255 211
171 255 211
171 255 211
171 255 211
171 255 211
171 255 211
171 255 211
171 255 211
171 255 211
171 255 211
171 255 211
171 255 211
171 255 211
171 255 211
171 255 211
171 255 211
171 255 211
171 255 211
171 255 211
171 255 211
171 255 211
171 255 211
171 255 211
171 255 211
171 255 211
171 255 211
171 255 211
171 255 211
171 255 211
171 255 211
171 255 211
171 255 211
171 255 211
171 255 211
171 255 211
171 255 211
171 255 211
171 255 211
171 255 211
171 255 211
171 255 211
171 255 211
171 255 211
171 255 211
171 255 211
171 255 211
171 255 211
171 255 211
171 255 211
171 255 211
171 255 211
171 255 211
171 255 211
171 255 211
171 255 211
171 255 211
171 255 211
171 255 211
171 255 211
171 255 211
171 255 211
171 255 211
171 255 211
171 255 211
171 255 211
171 255 211
171 255 211
171 255 212
171 255 212
171 255 212
171 255 212
171 255 212
171 255 212
171 255 212
171 255 212
171 255 212
171 255 212
171 255 212
171 255 212
171 255 212
171 255 212
171 255 212
171 255 212
171 255 212
171 255 212
171 255 212
171 255 212
171 255 212
171 255 212
171 255 212
171 255 212
171 255 212
171 255 212
171 255 212
171 255 212
171 255 212
171 255 212
171 255 212
171 255 212
171 255 212
171 255 212
171 255 212
171 255 212
171 255 212
171 255 212
171 255 212
171 255 212
171 255 212
171 255 212
171 255 212
171 255 212
171 255 212
171 255 212
171 255 212
171 255 212
171 255 212
171 255 212
171 255 212
171 255 212
171 255 212
171 255 212
171 255 212
171 255 212
171 255 212
171 255 212
171 255 212
171 255 212
171 255 212
171 255 212
171 255 212
171 255 212
171 255 212
171 255 212
171 255 212
171 255 212
171 255 212
171 255 212
171 255 212
171 255 212
170 255 212
170 255 212
170 255 212
170 255 212
170 255 212
170 255 212
170 255 212
170 255 212
170 255 212
170 255 212
170 255 212
170 255 212
170 255 212
170 255 212
170 255 212
170 255 212
170 255 212
170 255 212
170 255 212
170 255 212
170 255 212
170 255 212
170 255 212
170 255 212
170 255 212
170 255 212
170 255 212
170 255 212
170 255 212
170 255 212
170 255 212
170 255 212
170 255 212
170 255 212
170 255 212
170 255 212
170 255 212
170 255 212
170 255 212
170 255 212
170 255 212
170 255 212
170 255 212
170 255 212
170 255 212
170 255 212
170 255 212
170 255 212
170 255 212
170 255 212
170 255 212
170 255 212
170 255 212
170 255 212
170 255 212
170 255 212
170 255 212
170 255 212
170 255 212
170 255 212
170 255 212
170 255 212
170 255 212
170 255 212
170 255 212
170 255 212
170 255 212
170 255 212
170 255 212
170 255 212
170 255 212
170 255 212
170 255 213
170 255 213
170 255 213
170 255 213
170 255 213
170 255 213
170 255 213
170 255 213
170 255 213
170 255 213
170 255 213
170 255 213
170 255 213
170 255 213
170 255 213
170 255 213
170 255 213
170 255 213
170 255 213
170 255 213
170 255 213
170 255 213
170 255 213
170 255 213
170 255 213
170 255 213
170 255 213
170 255 213
170 255 213
170 255 213
170 255 213
170 255 213
170 255 213
170 255 213
170 255 213
170 255 213
170 255 213
170 255 213
170 255 213
170 255 213
170 255 213
170 255 213
170 255 213
170 255 213
170 255 213
170 255 213
170 255 213
170 255 213
170 255 213
170 255 213
170 255 213
170 255 213
170 255 213
170 255 213
170 255 213
170 255 213
170 255 213
170 255 213
170 255 213
170 255 213
170 255 213
170 255 213
170 255 213
170 255 213
170 255 213
170 255 213
170 255 213
170 255 213
170 255 213
170 255 213
170 255 213
170 255 213
169 255 213
169 255 213
169 255 213
169 255 213
169 255 213
169 255 213
169 255 213
169 255 213
169 255 213
169 255 213
169 255 213
169 255 213
169 255 213
169 255 213
169 255 213
169 255 213
169 255 213
169 255 213
169 255 213
169 255 213
169 255 213
169 255 213
169 255 213
169 255 213
169 255 213
169 255 213
169 255 213
169 255 213
169 255 213
169 255 213
169 255 213
169 255 213
169 255 213
169 255 213
169 255 213
169 255 213
169 255 213
169 255 213
169 255 213
169 255 213
169 255 213
169 255 213
169 255 213
169 255 213
169 255 213
169 255 213
169 255 213
169 255 213
169 255 213
169 255 213
169 255 213
169 255 213
169 255 213
169 255 213
169 255 213
169 255 213
169 255 213
169 255 213
169 255 213
169 255 213
169 255 213
169 255 213
169 255 213
169 255 213
169 255 213
169 255 213
169 255 213
169 255 213
169 255 213
169 255 213
169 255 213
169 255 213
169 255 214
169 255 214
169 255 214
169 255 214
169 255 214
169 255 214
169 255 214
169 255 214
169 255 214
169 255 214
169 255 214
169 255 214
169 255 214
169 255 214
169 255 214
169 255 214
169 255 214
169 255 214
169 255 214
169 255 214
169 255 214
169 255 214
169 255 214
169 255 214
169 255 214
169 255 214
169 255 214
169 255 214
169 255 214
169 255 214
169 255 214
169 255 214
169 255 214
169 255 214
169 255 214
169 255 214
169 255 214
169 255 214
169 255 214
169 255 214
169 255 214
169 255 214
169 255 214
169 255 214
169 255 214
169 255 214
169 255 214
169 255 214
169 255 214
169 255 214
169 255 214
169 255 214
169 255 214
169 255 214
169 255 214
169 255 214
169 255 214
169 255 214
169 255 214
169 255 214
169 255 214
169 255 214
169 255 214
169 255 214
169 255 214
169 255 214
169 255 214
169 255 214
169 255 214
169 255 214
169 255 214
169 255 214
168 255 215
168 255 215
168 255 215
168 255 215
168 255 215
168 255 215
168 255 215
168 255 215
168 255 215
168 255 215
168 255 215
168 255 215
168 255 215
168 255 215
168 255 215
168 255 215
168 255 215
168 255 215
168 255 215
168 255 215
168 255 215
168 255 215
168 255 215
168 255 215
168 255 215
168 255 215
168 255 215
168 255 215
168 255 215
168 255 215
168 255 215
168 255 215
168 255 215
168 255 215
168 255 215
168 255 215
168 255 215
168 255 215
168 255 215
168 255 215
168 255 215
168 255 215
168 255 215
168 255 215
168 255 215
168 255 215
168 255 215
168 255 215
168 255 215
168 255 215
168 255 215
168 255 215
168 255 215
168 255 215
168 255 215
168 255 215
168 255 215
168 255 215
168 255 215
168 255 215
168 255 215
168 255 215
168 255 215
168 255 215
168 255 215
168 255 215
168 255 215
168 255 215
168 255 215
168 255 215
168 255 215
168 255 215
167 255 215
167 255 215
167 255 215
167 255 215
167 255 215
167 255 215
167 255 215
167 255 215
167 255 215
167 255 215
167 255 215
167 255 215
167 255 215
167 255 215
167 255 215
167 255 215
167 255 215
167 255 215
167 255 215
167 255 215
167 255 215
167 255 215
167 255 215
167 255 215
167 255 215
167 255 215
167 255 215
167 255 215
167 255 215
167 255 215
167 255 215
167 255 215
167 255 215
167 255 215
167 255 215
167 255 215
167 255 215
167 255 215
167 255 215
167 255 215
167 255 215
167 255 215
167 255 215
167 255 215
167 255 215
167 255 215
167 255 215
167 255 215
167 255 215
167 255 215
167 255 215
167 255 215
167 255 215
167 255 215
167 255 215
167 255 215
167 255 215
167 255 215
167 255 215
167 255 215
167 255 215
167 255 215
167 255 215
167 255 215
167 255 215
167 255 215
167 255 215
167 255 215
167 255 215
167 255 215
167 255 215
167 255 215
167 255 216
167 255 216
167 255 216
167 255 216
167 255 216
167 255 216
167 255 216
167 255 216
167 255 216
167 255 216
167 255 216
167 255 216
167 255 216
167 255 216
167 255 216
167 255 216
167 255 216
167 255 216
167 255 216
167 255 216
167 255 216
167 255 216
167 255 216
167 255 216
167 255 216
167 255 216
167 255 216
167 255 216
167 255 216
167 255 216
167 255 216
167 255 216
167 255 216
167 255 216
167 255 216
167 255 216
167 255 216
167 255 216
167 255 216
167 255 216
167 255 216
167 255 216
167 255 216
167 255 216
167 255 216
167 255 216
167 255 216
167 255 216
167 255 216
167 255 216
167 255 216
167 255 216
167 255 216
167 255 216
167 255 216
167 255 216
167 255 216
167 255 216
167 255 216
167 255 216
167 255 216
167 255 216
167 255 216
167 255 216
167 255 216
167 255 216
167 255 216
167 255 216
167 255 216
167 255 216
167 255 216
167 255 216
166 255 216
166 255 216
166 255 216
166 255 216
166 255 216
166 255 216
166 255 216
166 255 216
166 255 216
166 255 216
166 255 216
166 255 216
166 255 216
166 255 216
166 255 216
166 255 216
166 255 216
166 255 216
166 255 216
166 255 216
166 255 216
166 255 216
166 255 216
166 255 216
166 255 216
166 255 216
166 255 216
166 255 216
166 255 216
166 255 216
166 255 216
166 255 216
166 255 216
166 255 216
166 255 216
166 255 216
166 255 216
166 255 216
166 255 216
166 255 216
166 255 216
166 255 216
166 255 216
166 255 216
166 255 216
166 255 216
166 255 216
166 255 216
166 255 216
166 255 216
166 255 216
166 255 216
166 255 216
166 255 216
166 255 216
166 255 216
166 255 216
166 255 216
166 255 216
166 255 216
166 255 216
166 255 216
166 255 216
166 255 216
166 255 216
166 255 216
166 255 216
166 255 216
166 255 216
166 255 216
166 255 216
166 255 216
166 255 217
166 255 217
166 255 217
166 255 217
166 255 217
166 255 217
166 255 217
166 255 217
166 255 217
166 255 217
166 255 217
166 255 217
166 255 217
166 255 217
166 255 217
166 255 217
166 255 217
166 255 217
166 255 217
166 255 217
166 255 217
166 255 217
166 255 217
166 255 217
166 255 217
166 255 217
166 255 217
166 255 217
166 255 217
166 255 217
166 255 217
166 255 217
166 255 217
166 255 217
166 255 217
166 255 217
166 255 217
166 255 217
166 255 217
166 255 217
166 255 217
166 255 217
166 255 217
166 255 217
166 255 217
166 255 217
166 255 217
166 255 217
166 255 217
166 255 217
166 255 217
166 255 217
166 255 217
166 255 217
166 255 217
166 255 217
166 255 217
166 255 217
166 255 217
166 255 217
166 255 217
166 255 217
166 255 217
166 255 217
166 255 217
166 255 217
166 255 217
166 255 217
166 255 217
166 255 217
166 255 217
166 255 217
165 255 217
165 255 217
165 255 217
165 255 217
165 255 217
165 255 217
165 255 217
165 255 217
165 255 217
165 255 217
165 255 217
165 255 217
165 255 217
165 255 217
165 255 217
165 255 217
165 255 217
165 255 217
165 255 217
165 255 217
165 255 217
165 255 217
165 255 217
165 255 217
165 255 217
165 255 217
165 255 217
165 255 217
165 255 217
165 255 217
165 255 217
165 255 217
165 255 217
165 255 217
165 255 217
165 255 217
165 255 217
165 255 217
165 255 217
165 255 217
165 255 217
165 255 217
165 255 217
165 255 217
165 255 217
165 255 217
165 255 217
165 255 217
165 255 217
165 255 217
165 255 217
165 255 217
165 255 217
165 255 217
165 255 217
165 255 217
165 255 217
165 255 217
165 255 217
165 255 217
165 255 217
165 255 217
165 255 217
165 255 217
165 255 217
165 255 217
165 255 217
165 255 217
165 255 217
165 255 217
165 255 217
165 255 217
165 255 218
165 255 218
165 255 218
165 255 218
165 255 218
165 255 218
165 255 218
165 255 218
165 255 218
165 255 218
165 255 218
165 255 218
165 255 218
165 255 218
165 255 218
165 255 218
165 255 218
165 255 218
165 255 218
165 255 218
165 255 218
165 255 218
165 255 218
165 255 218
165 255 218
165 255 218
165 255 218
165 255 218
165 255 218
165 255 218
165 255 218
165 255 218
165 255 218
165 255 218
165 255 218
165 255 218
165 255 218
165 255 218
165 255 218
165 255 218
165 255 218
165 255 218
165 255 218
165 255 218
165 255 218
165 255 218
165 255 218
165 255 218
165 255 218
165 255 218
165 255 218
165 255 218
165 255 218
165 255 218
165 255 218
165 255 218
165 255 218
165 255 218
165 255 218
165 255 218
165 255 218
165 255 218
165 255 218
165 255 218
165 255 218
165 255 218
165 255 218
165 255 218
165 255 218
165 255 218
165 255 218
165 255 218
164 255 218
164 255 218
164 255 218
164 255 218
164 255 218
164 255 218
164 255 218
164 255 218
164 255 218
164 255 218
164 255 218
164 255 218
164 255 218
164 255 218
164 255 218
164 255 218
164 255 218
164 255 218
164 255 218
164 255 218
164 255 218
164 255 218
164 255 218
164 255 218
164 255 218
164 255 218
164 255 218
164 255 218
164 255 218
164 255 218
164 255 218
164 255 218
164 255 218
164 255 218
164 255 218
164 255 218
164 255 218
164 255 218
164 255 218
164 255 218
164 255 218
164 255 218
164 255 218
164 255 218
164 255 218
164 255 218
164 255 218
164 255 218
164 255 218
164 255 218
164 255 218
164 255 218
164 255 218
164 255 218
164 255 218
164 255 218
164 255 218
164 255 218
164 255 218
164 255 218
164 255 218
164 255 218
164 255 218
164 255 218
164 255 218
164 255 218
164 255 218
164 255 218
164 255 218
164 255 218
164 255 218
164 255 218
164 255 219
164 255 219
164 255 219
164 255 219
164 255 219
164 255 219
164 255 219
164 255 219
164 255 219
164 255 219
164 255 219
164 255 219
164 255 219
164 255 219
164 255 219
164 255 219
164 255 219
164 255 219
164 255 219
164 255 219
164 255 219
164 255 219
164 255 219
164 255 219
164 255 219
164 255 219
164 255 219
164 255 219
164 255 219
164 255 219
164 255 219
164 255 219
164 255 219
164 255 219
164 255 219
164 255 219
164 255 219
164 255 219
164 255 219
164 255 219
164 255 219
164 255 219
164 255 219
164 255 219
164 255 219
164 255 219
164 255 219
164 255 219
164 255 219
164 255 219
164 255 219
164 255 219
164 255 219
164 255 219
164 255 219
164 255 219
164 255 219
164 255 219
164 255 219
164 255 219
164 255 219
164 255 219
164 255 219
164 255 219
164 255 219
164 255 219
164 255 219
164 255 219
164 255 219
164 255 219
164 255 219
164 255 219
163 255 219
163 255 219
163 255 219
163 255 219
163 255 219
163 255 219
163 255 219
163 255 219
163 255 219
163 255 219
163 255 219
163 255 219
163 255 219
163 255 219
163 255 219
163 255 219
163 255 219
163 255 219
163 255 219
163 255 219
163 255 219
163 255 219
163 255 219
163 255 219
163 255 219
163 255 219
163 255 219
163 255 219
163 255 219
163 255 219
163 255 219
163 255 219
163 255 219
163 255 219
163 255 219
163 255 219
163 255 219
163 255 219
163 255 219
163 255 219
163 255 219
163 255 219
163 255 219
163 255 219
163 255 219
163 255 219
163 255 219
163 255 219
163 255 219
163 255 219
163 255 219
163 255 219
163 255 219
163 255 219
163 255 219
163 255 219
163 255 219
163 255 219
163 255 219
163 255 219
163 255 219
163 255 219
163 255 219
163 255 219
163 255 219
163 255 219
163 255 219
163 255 219
163 255 219
163 255 219
163 255 219
163 255 219
163 255 220
163 255 220
163 255 220
163 255 220
163 255 220
163 255 220
163 255 220
163 255 220
163 255 220
163 255 220
163 255 220
163 255 220
163 255 220
163 255 220
163 255 220
163 255 220
163 255 220
163 255 220
163 255 220
163 255 220
163 255 220
163 255 220
163 255 220
163 255 220
163 255 220
163 255 220
163 255 220
163 255 220
163 255 220
163 255 220
163 255 220
163 255 220
163 255 220
163 255 220
163 255 220
163 255 220
163 255 220
163 255 220
163 255 220
163 255 220
163 255 220
163 255 220
163 255 220
163 255 220
163 255 220
163 255 220
163 255 220
163 255 220
163 255 220
163 255 220
163 255 220
163 255 220
163 255 220
163 255 220
163 255 220
163 255 220
163 255 220
163 255 220
163 255 220
163 255 220
163 255 220
163 255 220
163 255 220
163 255 220
163 255 220
163 255 220
163 255 220
163 255 220
163 255 220
163 255 220
163 255 220
163 255 220
162 255 221
162 255 221
162 255 221
162 255 221
162 255 221
162 255 221
162 255 221
162 255 221
162 255 221
162 255 221
162 255 221
162 255 221
162 255 221
162 255 221
162 255 221
162 255 221
162 255 221
162 255 221
162 255 221
162 255 221
162 255 221
162 255 221
162 255 221
162 255 221
162 255 221
162 255 221
162 255 221
162 255 221
162 255 221
162 255 221
162 255 221
162 255 221
162 255 221
162 255 221
162 255 221
162 255 221
162 255 221
162 255 221
162 255 221
162 255 221
162 255 221
162 255 221
162 255 221
162 255 221
162 255 221
162 255 221
162 255 221
162 255 221
162 255 221
162 255 221
162 255 221
162 255 221
162 255 221
162 255 221
162 255 221
162 255 221
162 255 221
162 255 221
162 255 221
162 255 221
162 255 221
162 255 221
162 255 221
162 255 221
162 255 221
162 255 221
162 255 221
162 255 221
162 255 221
162 255 221
162 255 221
162 255 221
161 255 221
161 255 221
161 255 221
161 255 221
161 255 221
161 255 221
161 255 221
161 255 221
161 255 221
161 255 221
161 255 221
161 255 221
161 255 221
161 255 221
161 255 221
161 255 221
161 255 221
161 255 221
161 255 221
161 255 221
161 255 221
161 255 221
161 255 221
161 255 221
161 255 221
161 255 221
161 255 221
161 255 221
161 255 221
161 255 221
161 255 221
161 255 221
161 255 221
161 255 221
161 255 221
161 255 221
161 255 221
161 255 221
161 255 221
161 255 221
161 255 221
161 255 221
161 255 221
161 255 221
161 255 221
161 255 221
161 255 221
161 255 221
161 255 221
161 255 221
161 255 221
161 255 221
161 255 221
161 255 221
161 255 221
161 255 221
161 255 221
161 255 221
161 255 221
161 255 221
161 255 221
161 255 221
161 255 221
161 255 221
161 255 221
161 255 221
161 255 221
161 255 221
161 255 221
161 255 221
161 255 221
161 255 221
161 255 222
161 255 222
161 255 222
161 255 222
161 255 222
161 255 222
161 255 222
161 255 222
161 255 222
161 255 222
161 255 222
161 255 222
161 255 222
161 255 222
161 255 222
161 255 222
161 255 222
161 255 222
161 255 222
161 255 222
161 255 222
161 255 222
161 255 222
161 255 222
161 255 222
161 255 222
161 255 222
161 255 222
161 255 222
161 255 222
161 255 222
161 255 222
161 255 222
161 255 222
161 255 222
161 255 222
161 255 222
161 255 222
161 255 222
161 255 222
161 255 222
161 255 222
161 255 222
161 255 222
161 255 222
161 255 222
161 255 222
161 255 222
161 255 222
161 255 222
161 255 222
161 255 222
161 255 222
161 255 222
161 255 222
161 255 222
161 255 222
161 255 222
161 255 222
161 255 222
161 255 222
161 255 222
161 255 222
161 255 222
161 255 222
161 255 222
161 255 222
161 255 222
161 255 222
161 255 222
161 255 222
161 255 222
160 255 222
160 255 222
160 255 222
160 255 222
160 255 222
160 255 222
160 255 222
160 255 222
160 255 222
160 255 222
160 255 222
160 255 222
160 255 222
160 255 222
160 255 222
160 255 222
160 255 222
160 255 222
160 255 222
160 255 222
160 255 222
160 255 222
160 255 222
160 255 222
160 255 222
160 255 222
160 255 222
160 255 222
160 255 222
160 255 222
160 255 222
160 255 222
160 255 222
160 255 222
160 255 222
160 255 222
160 255 222
160 255 222
160 255 222
160 255 222
160 255 222
160 255 222
160 255 222
160 255 222
160 255 222
160 255 222
160 255 222
160 255 222
160 255 222
160 255 222
160 255 222
160 255 222
160 255 222
160 255 222
160 255 222
160 255 222
160 255 222
160 255 222
160 255 222
160 255 222
160 255 222
160 255 222
160 255 222
160 255 222
160 255 222
160 255 222
160 255 222
160 255 222
160 255 222
160 255 222
160 255 222
160 255 222
160 255 223
160 255 223
160 255 223
160 255 223
160 255 223
160 255 223
160 255 223
160 255 223
160 255 223
160 255 223
160 255 223
160 255 223
160 255 223
160 255 223
160 255 223
160 255 223
160 255 223
160 255 223
160 255 223
160 255 223
160 255 223
160 255 223
160 255 223
160 255 223
160 255 223
160 255 223
160 255 223
160 255 223
160 255 223
160 255 223
160 255 223
160 255 223
160 255 223
160 255 223
160 255 223
160 255 223
160 255 223
160 255 223
160 255 223
160 255 223
160 255 223
160 255 223
160 255 223
160 255 223
160 255 223
160 255 223
160 255 223
160 255 223
160 255 223
160 255 223
160 255 223
160 255 223
160 255 223
160 255 223
160 255 223
160 255 223
160 255 223
160 255 223
160 255 223
160 255 223
160 255 223
160 255 223
160 255 223
160 255 223
160 255 223
160 255 223
160 255 223
160 255 223
160 255 223
160 255 223
160 255 223
160 255 223
159 255 223
159 255 223
159 255 223
159 255 223
159 255 223
159 255 223
159 255 223
159 255 223
159 255 223
159 255 223
159 255 223
159 255 223
159 255 223
159 255 223
159 255 223
159 255 223
159 255 223
159 255 223
159 255 223
159 255 223
159 255 223
159 255 223
159 255 223
159 255 223
159 255 223
159 255 223
159 255 223
159 255 223
159 255 223
159 255 223
159 255 223
159 255 223
159 255 223
159 255 223
159 255 223
159 255 223
159 255 223
159 255 223
159 255 223
159 255 223
159 255 223
159 255 223
159 255 223
159 255 223
159 255 223
159 255 223
159 255 223
159 255 223
159 255 223
159 255 223
159 255 223
159 255 223
159 255 223
159 255 223
159 255 223
159 255 223
159 255 223
159 255 223
159 255 223
159 255 223
159 255 223
159 255 223
159 255 223
159 255 223
159 255 223
159 255 223
159 255 223
159 255 223
159 255 223
159 255 223
159 255 223
159 255 223
159 255 224
159 255 224
159 255 224
159 255 224
159 255 224
159 255 224
159 255 224
159 255 224
159 255 224
159 255 224
159 255 224
159 255 224
159 255 224
159 255 224
159 255 224
159 255 224
159 255 224
159 255 224
159 255 224
159 255 224
159 255 224
159 255 224
159 255 224
159 255 224
159 255 224
159 255 224
159 255 224
159 255 224
159 255 224
159 255 224
159 255 224
159 255 224
159 255 224
159 255 224
159 255 224
159 255 224
159 255 224
159 255 224
159 255 224
159 255 224
159 255 224
159 255 224
159 255 224
159 255 224
159 255 224
159 255 224
159 255 224
159 255 224
159 255 224
159 255 224
159 255 224
159 255 224
159 255 224
159 255 224
159 255 224
159 255 224
159 255 224
159 255 224
159 255 224
159 255 224
159 255 224
159 255 224
159 255 224
159 255 224
159 255 224
159 255 224
159 255 224
159 255 224
159 255 224
159 255 224
159 255 224
159 255 224
158 255 224
158 255 224
158 255 224
158 255 224
158 255 224
158 255 224
158 255 224
158 255 224
158 255 224
158 255 224
158 255 224
158 255 224
158 255 224
158 255 224
158 255 224
158 255 224
158 255 224
158 255 224
158 255 224
158 255 224
158 255 224
158 255 224
158 255 224
158 255 224
158 255 224
158 255 224
158 255 224
158 255 224
158 255 224
158 255 224
158 255 224
158 255 224
158 255 224
158 255 224
158 255 224
158 255 224
158 255 224
158 255 224
158 255 224
158 255 224
158 255 224
158 255 224
158 255 224
158 255 224
158 255 224
158 255 224
158 255 224
158 255 224
158 255 224
158 255 224
158 255 224
158 255 224
158 255 224
158 255 224
158 255 224
158 255 224
158 255 224
158 255 224
158 255 224
158 255 224
158 255 224
158 255 224
158 255 224
158 255 224
158 255 224
158 255 224
158 255 224
158 255 224
158 255 224
158 255 224
158 255 224
158 255 224
158 255 225
158 255 225
158 255 225
158 255 225
158 255 225
158 255 225
158 255 225
158 255 225
158 255 225
158 255 225
158 255 225
158 255 225
158 255 225
158 255 225
158 255 225
158 255 225
158 255 225
158 255 225
158 255 225
158 255 225
158 255 225
158 255 225
158 255 225
158 255 225
158 255 225
158 255 225
158 255 225
158 255 225
158 255 225
158 255 225
158 255 225
158 255 225
158 255 225
158 255 225
158 255 225
158 255 225
158 255 225
158 255 225
158 255 225
158 255 225
158 255 225
158 255 225
158 255 225
158 255 225
158 255 225
158 255 225
158 255 225
158 255 225
158 255 225
158 255 225
158 255 225
158 255 225
158 255 225
158 255 225
158 255 225
158 255 225
158 255 225
158 255 225
158 255 225
158 255 225
158 255 225
158 255 225
158 255 225
158 255 225
158 255 225
158 255 225
158 255 225
158 255 225
158 255 225
158 255 225
158 255 225
158 255 225
157 255 225
157 255 225
157 255 225
157 255 225
157 255 225
157 255 225
157 255 225
157 255 225
157 255 225
157 255 225
157 255 225
157 255 225
157 255 225
157 255 225
157 255 225
157 255 225
157 255 225
157 255 225
157 255 225
157 255 225
157 255 225
157 255 225
157 255 225
157 255 225
157 255 225
157 255 225
157 255 225
157 255 225
157 255 225
157 255 225
157 255 225
157 255 225
157 255 225
157 255 225
157 255 225
157 255 225
157 255 225
157 255 225
157 255 225
157 255 225
157 255 225
157 255 225
157 255 225
157 255 225
157 255 225
157 255 225
157 255 225
157 255 225
157 255 225
157 255 225
157 255 225
157 255 225
157 255 225
157 255 225
157 255 225
157 255 225
157 255 225
157 255 225
157 255 225
157 255 225
157 255 225
157 255 225
157 255 225
157 255 225
157 255 225
157 255 225
157 255 225
157 255 225
157 255 225
157 255 225
157 255 225
157 255 225
157 255 226
157 255 226
157 255 226
157 255 226
157 255 226
157 255 226
157 255 226
157 255 226
157 255 226
157 255 226
157 255 226
157 255 226
157 255 226
157 255 226
157 255 226
157 255 226
157 255 226
157 255 226
157 255 226
157 255 226
157 255 226
157 255 226
157 255 226
157 255 226
157 255 226
157 255 226
157 255 226
157 255 226
157 255 226
157 255 226
157 255 226
157 255 226
157 255 226
157 255 226
157 255 226
157 255 226
157 255 226
157 255 226
157 255 226
157 255 226
157 255 226
157 255 226
157 255 226
157 255 226
157 255 226
157 255 226
157 255 226
157 255 226
157 255 226
157 255 226
157 255 226
157 255 226
157 255 226
157 255 226
157 255 226
157 255 226
157 255 226
157 255 226
157 255 226
157 255 226
157 255 226
157 255 226
157 255 226
157 255 226
157 255 226
157 255 226
157 255 226
157 255 226
157 255 226
157 255 226
157 255 226
157 255 226
156 255 227
156 255 227
156 255 227
156 255 227
156 255 227
156 255 227
156 255 227
156 255 227
156 255 227
156 255 227
156 255 227
156 255 227
156 255 227
156 255 227
156 255 227
156 255 227
156 255 227
156 255 227
156 255 227
156 255 227
156 255 227
156 255 227
156 255 227
156 255 227
156 255 227
156 255 227
156 255 227
156 255 227
156 255 227
156 255 227
156 255 227
156 255 227
156 255 227
156 255 227
156 255 227
156 255 227
156 255 227
156 255 227
156 255 227
156 255 227
156 255 227
156 255 227
156 255 227
156 255 227
156 255 227
156 255 227
156 255 227
156 255 227
156 255 227
156 255 227
156 255 227
156 255 227
156 255 227
156 255 227
156 255 227
156 255 227
156 255 227
156 255 227
156 255 227
156 255 227
156 255 227
156 255 227
156 255 227
156 255 227
156 255 227
156 255 227
156 255 227
156 255 227
156 255 227
156 255 227
156 255 227
156 255 227
155 255 227
155 255 227
155 255 227
155 255 227
155 255 227
155 255 227
155 255 227
155 255 227
155 255 227
155 255 227
155 255 227
155 255 227
155 255 227
155 255 227
155 255 227
155 255 227
155 255 227
155 255 227
155 255 227
155 255 227
155 255 227
155 255 227
155 255 227
155 255 227
155 255 227
155 255 227
155 255 227
155 255 227
155 255 227
155 255 227
155 255 227
155 255 227
155 255 227
155 255 227
155 255 227
155 255 227
155 255 227
155 255 227
155 255 227
155 255 227
155 255 227
155 255 227
155 255 227
155 255 227
155 255 227
155 255 227
155 255 227
155 255 227
155 255 227
155 255 227
155 255 227
155 255 227
155 255 227
155 255 227
155 255 227
155 255 227
155 255 227
155 255 227
155 255 227
155 255 227
155 255 227
155 255 227
155 255 227
155 255 227
155 255 227
155 255 227
155 255 227
155 255 227
155 255 227
155 255 227
155 255 227
155 255 227
155 255 228
155 255 228
155 255 228
155 255 228
155 255 228
155 255 228
155 255 228
155 255 228
155 255 228
155 255 228
155 255 228
155 255 228
155 255 228
155 255 228
155 255 228
155 255 228
155 255 228
155 255 228
155 255 228
155 255 228
155 255 228
155 255 228
155 255 228
155 255 228
155 255 228
155 255 228
155 255 228
155 255 228
155 255 228
155 255 228
155 255 228
155 255 228
155 255 228
155 255 228
155 255 228
155 255 228
155 255 228
155 255 228
155 255 228
155 255 228
155 255 228
155 255 228
155 255 228
155 255 228
155 255 228
155 255 228
155 255 228
155 255 228
155 255 228
155 255 228
155 255 228
155 255 228
155 255 228
155 255 228
155 255 228
155 255 228
155 255 228
155 255 228
155 255 228
155 255 228
155 255 228
155 255 228
155 255 228
155 255 228
155 255 228
155 255 228
155 255 228
155 255 228
155 255 228
155 255 228
155 255 228
155 255 228
154 255 228
154 255 228
154 255 228
154 255 228
154 255 228
154 255 228
154 255 228
154 255 228
154 255 228
154 255 228
154 255 228
154 255 228
154 255 228
154 255 228
154 255 228
154 255 228
154 255 228
154 255 228
154 255 228
154 255 228
154 255 228
154 255 228
154 255 228
154 255 228
154 255 228
154 255 228
154 255 228
154 255 228
154 255 228
154 255 228
154 255 228
154 255 228
154 255 228
154 255 228
154 255 228
154 255 228
154 255 228
154 255 228
154 255 228
154 255 228
154 255 228
154 255 228
154 255 228
154 255 228
154 255 228
154 255 228
154 255 228
154 255 228
154 255 228
154 255 228
154 255 228
154 255 228
154 255 228
154 255 228
154 255 228
154 255 228
154 255 228
154 255 228
154 255 228
154 255 228
154 255 228
154 255 228
154 255 228
154 255 228
154 255 228
154 255 228
154 255 228
154 255 228
154 255 228
154 255 228
154 255 228
154 255 228
154 255 229
154 255 229
154 255 229
154 255 229
154 255 229
154 255 229
154 255 229
154 255 229
154 255 229
154 255 229
154 255 229
154 255 229
154 255 229
154 255 229
154 255 229
154 255 229
154 255 229
154 255 229
154 255 229
154 255 229
154 255 229
154 255 229
154 255 229
154 255 229
154 255 229
154 255 229
154 255 229
154 255 229
154 255 229
154 255 229
154 255 229
154 255 229
154 255 229
154 255 229
154 255 229
154 255 229
154 255 229
154 255 229
154 255 229
154 255 229
154 255 229
154 255 229
154 255 229
154 255 229
154 255 229
154 255 229
154 255 229
154 255 229
154 255 229
154 255 229
154 255 229
154 255 229
154 255 229
154 255 229
154 255 229
154 255 229
154 255 229
154 255 229
154 255 229
154 255 229
154 255 229
154 255 229
154 255 229
154 255 229
154 255 229
154 255 229
154 255 229
154 255 229
154 255 229
154 255 229
154 255 229
154 255 229
153 255 229
153 255 229
153 255 229
153 255 229
153 255 229
153 255 229
153 255 229
153 255 229
153 255 229
153 255 229
153 255 229
153 255 229
153 255 229
153 255 229
153 255 229
153 255 229
153 255 229
153 255 229
153 255 229
153 255 229
153 255 229
153 255 229
153 255 229
153 255 229
153 255 229
153 255 229
153 255 229
153 255 229
153 255 229
153 255 229
153 255 229
153 255 229
153 255 229
153 255 229
153 255 229
153 255 229
153 255 229
153 255 229
153 255 229
153 255 229
153 255 229
153 255 229
153 255 229
153 255 229
153 255 229
153 255 229
153 255 229
153 255 229
153 255 229
153 255 229
153 255 229
153 255 229
153 255 229
153 255 229
153 255 229
153 255 229
153 255 229
153 255 229
153 255 229
153 255 229
153 255 229
153 255 229
153 255 229
153 255 229
153 255 229
153 255 229
153 255 229
153 255 229
153 255 229
153 255 229
153 255 229
153 255 229
153 255 230
153 255 230
153 255 230
153 255 230
153 255 230
153 255 230
153 255 230
153 255 230
153 255 230
153 255 230
153 255 230
153 255 230
153 255 230
153 255 230
153 255 230
153 255 230
153 255 230
153 255 230
153 255 230
153 255 230
153 255 230
153 255 230
153 255 230
153 255 230
153 255 230
153 255 230
153 255 230
153 255 230
153 255 230
153 255 230
153 255 230
153 255 230
153 255 230
153 255 230
153 255 230
153 255 230
153 255 230
153 255 230
153 255 230
153 255 230
153 255 230
153 255 230
153 255 230
153 255 230
153 255 230
153 255 230
153 255 230
153 255 230
153 255 230
153 255 230
153 255 230
153 255 230
153 255 230
153 255 230
153 255 230
153 255 230
153 255 230
153 255 230
153 255 230
153 255 230
153 255 230
153 255 230
153 255 230
153 255 230
153 255 230
153 255 230
153 255 230
153 255 230
153 255 230
153 255 230
153 255 230
153 255 230
152 255 230
152 255 230
152 255 230
152 255 230
152 255 230
152 255 230
152 255 230
152 255 230
152 255 230
152 255 230
152 255 230
152 255 230
152 255 230
152 255 230
152 255 230
152 255 230
152 255 230
152 255 230
152 255 230
152 255 230
152 255 230
152 255 230
152 255 230
152 255 230
152 255 230
152 255 230
152 255 230
152 255 230
152 255 230
152 255 230
152 255 230
152 255 230
152 255 230
152 255 230
152 255 230
152 255 230
152 255 230
152 255 230
152 255 230
152 255 230
152 255 230
152 255 230
152 255 230
152 255 230
152 255 230
152 255 230
152 255 230
152 255 230
152 255 230
152 255 230
152 255 230
152 255 230
152 255 230
152 255 230
152 255 230
152 255 230
152 255 230
152 255 230
152 255 230
152 255 230
152 255 230
152 255 230
152 255 230
152 255 230
152 255 230
152 255 230
152 255 230
152 255 230
152 255 230
152 255 230
152 255 230
152 255 230
152 255 231
152 255 231
152 255 231
152 255 231
152 255 231
152 255 231
152 255 231
152 255 231
152 255 231
152 255 231
152 255 231
152 255 231
152 255 231
152 255 231
152 255 231
152 255 231
152 255 231
152 255 231
152 255 231
152 255 231
152 255 231
152 255 231
152 255 231
152 255 231
152 255 231
152 255 231
152 255 231
152 255 231
152 255 231
152 255 231
152 255 231
152 255 231
152 255 231
152 255 231
152 255 231
152 255 231
152 255 231
152 255 231
152 255 231
152 255 231
152 255 231
152 255 231
152 255 231
152 255 231
152 255 231
152 255 231
152 255 231
152 255 231
152 255 231
152 255 231
152 255 231
152 255 231
152 255 231
152 255 231
152 255 231
152 255 231
152 255 231
152 255 231
152 255 231
152 255 231
152 255 231
152 255 231
152 255 231
152 255 231
152 255 231
152 255 231
152 255 231
152 255 231
152 255 231
152 255 231
152 255 231
152 255 231
151 255 231
151 255 231
151 255 231
151 255 231
151 255 231
151 255 231
151 255 231
151 255 231
151 255 231
151 255 231
151 255 231
151 255 231
151 255 231
151 255 231
151 255 231
151 255 231
151 255 231
151 255 231
151 255 231
151 255 231
151 255 231
151 255 231
151 255 231
151 255 231
151 255 231
151 255 231
151 255 231
151 255 231
151 255 231
151 255 231
151 255 231
151 255 231
151 255 231
151 255 231
151 255 231
151 255 231
151 255 231
151 255 231
151 255 231
151 255 231
151 255 231
151 255 231
151 255 231
151 255 231
151 255 231
151 255 231
151 255 231
151 255 231
151 255 231
151 255 231
151 255 231
151 255 231
151 255 231
151 255 231
151 255 231
151 255 231
151 255 231
151 255 231
151 255 231
151 255 231
151 255 231
151 255 231
151 255 231
151 255 231
151 255 231
151 255 231
151 255 231
151 255 231
151 255 231
151 255 231
151 255 231
151 255 231
150 255 232
150 255 232
150 255 232
150 255 232
150 255 232
150 255 232
150 255 232
150 255 232
150 255 232
150 255 232
150 255 232
150 255 232
150 255 232
150 255 232
150 255 232
150 255 232
150 255 232
150 255 232
150 255 232
150 255 232
150 255 232
150 255 232
150 255 232
150 255 232
150 255 232
150 255 232
150 255 232
150 255 232
150 255 232
150 255 232
150 255 232
150 255 232
150 255 232
150 255 232
150 255 232
150 255 232
150 255 232
150 255 232
150 255 232
150 255 232
150 255 232
150 255 232
150 255 232
150 255 232
150 255 232
150 255 232
150 255 232
150 255 232
150 255 232
150 255 232
150 255 232
150 255 232
150 255 232
150 255 232
150 255 232
150 255 232
150 255 232
150 255 232
150 255 232
150 255 232
150 255 232
150 255 232
150 255 232
150 255 232
150 255 232
150 255 232
150 255 232
150 255 232
150 255 232
150 255 232
150 255 232
150 255 232
150 255 233
150 255 233
150 255 233
150 255 233
150 255 233
150 255 233
150 255 233
150 255 233
150 255 233
150 255 233
150 255 233
150 255 233
150 255 233
150 255 233
150 255 233
150 255 233
150 255 233
150 255 233
150 255 233
150 255 233
150 255 233
150 255 233
150 255 233
150 255 233
150 255 233
150 255 233
150 255 233
150 255 233
150 255 233
150 255 233
150 255 233
150 255 233
150 255 233
150 255 233
150 255 233
150 255 233
150 255 233
150 255 233
150 255 233
150 255 233
150 255 233
150 255 233
150 255 233
150 255 233
150 255 233
150 255 233
150 255 233
150 255 233
150 255 233
150 255 233
150 255 233
150 255 233
150 255 233
150 255 233
150 255 233
150 255 233
150 255 233
150 255 233
150 255 233
150 255 233
150 255 233
150 255 233
150 255 233
150 255 233
150 255 233
150 255 233
150 255 233
150 255 233
150 255 233
150 255 233
150 255 233
150 255 233
149 255 233
149 255 233
149 255 233
149 255 233
149 255 233
149 255 233
149 255 233
149 255 233
149 255 233
149 255 233
149 255 233
149 255 233
149 255 233
149 255 233
149 255 233
149 255 233
149 255 233
149 255 233
149 255 233
149 255 233
149 255 233
149 255 233
149 255 233
149 255 233
149 255 233
149 255 233
149 255 233
149 255 233
149 255 233
149 255 233
149 255 233
149 255 233
149 255 233
149 255 233
149 255 233
149 255 233
149 255 233
149 255 233
149 255 233
149 255 233
149 255 233
149 255 233
149 255 233
149 255 233
149 255 233
149 255 233
149 255 233
149 255 233
149 255 233
149 255 233
149 255 233
149 255 233
149 255 233
149 255 233
149 255 233
149 255 233
149 255 233
149 255 233
149 255 233
149 255 233
149 255 233
149 255 233
149 255 233
149 255 233
149 255 233
149 255 233
149 255 233
149 255 233
149 255 233
149 255 233
149 255 233
149 255 233
149 255 234
149 255 234
149 255 234
149 255 234
149 255 234
149 255 234
149 255 234
149 255 234
149 255 234
149 255 234
149 255 234
149 255 234
149 255 234
149 255 234
149 255 234
149 255 234
149 255 234
149 255 234
149 255 234
149 255 234
149 255 234
149 255 234
149 255 234
149 255 234
149 255 234
149 255 234
149 255 234
149 255 234
149 255 234
149 255 234
149 255 234
149 255 234
149 255 234
149 255 234
149 255 234
149 255 234
149 255 234
149 255 234
149 255 234
149 255 234
149 255 234
149 255 234
149 255 234
149 255 234
149 255 234
149 255 234
149 255 234
149 255 234
149 255 234
149 255 234
149 255 234
149 255 234
149 255 234
149 255 234
149 255 234
149 255 234
149 255 234
149 255 234
149 255 234
149 255 234
149 255 234
149 255 234
149 255 234
149 255 234
149 255 234
149 255 234
149 255 234
149 255 234
149 255 234
149 255 234
149 255 234
149 255 234
148 255 234
148 255 234
148 255 234
148 255 234
148 255 234
148 255 234
148 255 234
148 255 234
148 255 234
148 255 234
148 255 234
148 255 234
148 255 234
148 255 234
148 255 234
148 255 234
148 255 234
148 255 234
148 255 234
148 255 234
148 255 234
148 255 234
148 255 234
148 255 234
148 255 234
148 255 234
148 255 234
148 255 234
148 255 234
148 255 234
148 255 234
148 255 234
148 255 234
148 255 234
148 255 234
148 255 234
148 255 234
148 255 234
148 255 234
148 255 234
148 255 234
148 255 234
148 255 234
148 255 234
148 255 234
148 255 234
148 255 234
148 255 234
148 255 234
148 255 234
148 255 234
148 255 234
148 255 234
148 255 234
148 255 234
148 255 234
148 255 234
148 255 234
148 255 234
148 255 234
148 255 234
148 255 234
148 255 234
148 255 234
148 255 234
148 255 234
148 255 234
148 255 234
148 255 234
148 255 234
148 255 234
148 255 234
148 255 235
148 255 235
148 255 235
148 255 235
148 255 235
148 255 235
148 255 235
148 255 235
148 255 235
148 255 235
148 255 235
148 255 235
148 255 235
148 255 235
148 255 235
148 255 235
148 255 235
148 255 235
148 255 235
148 255 235
148 255 235
148 255 235
148 255 235
148 255 235
148 255 235
148 255 235
148 255 235
148 255 235
148 255 235
148 255 235
148 255 235
148 255 235
148 255 235
148 255 235
148 255 235
148 255 235
148 255 235
148 255 235
148 255 235
148 255 235
148 255 235
148 255 235
148 255 235
148 255 235
148 255 235
148 255 235
148 255 235
148 255 235
148 255 235
148 255 235
148 255 235
148 255 235
148 255 235
148 255 235
148 255 235
148 255 235
148 255 235
148 255 235
148 255 235
148 255 235
148 255 235
148 255 235
148 255 235
148 255 235
148 255 235
148 255 235
148 255 235
148 255 235
148 255 235
148 255 235
148 255 235
148 255 235
147 255 235
147 255 235
147 255 235
147 255 235
147 255 235
147 255 235
147 255 235
147 255 235
147 255 235
147 255 235
147 255 235
147 255 235
147 255 235
147 255 235
147 255 235
147 255 235
147 255 235
147 255 235
147 255 235
147 255 235
147 255 235
147 255 235
147 255 235
147 255 235
147 255 235
147 255 235
147 255 235
147 255 235
147 255 235
147 255 235
147 255 235
147 255 235
147 255 235
147 255 235
147 255 235
147 255 235
147 255 235
147 255 235
147 255 235
147 255 235
147 255 235
147 255 235
147 255 235
147 255 235
147 255 235
147 255 235
147 255 235
147 255 235
147 255 235
147 255 235
147 255 235
147 255 235
147 255 235
147 255 235
147 255 235
147 255 235
147 255 235
147 255 235
147 255 235
147 255 235
147 255 235
147 255 235
147 255 235
147 255 235
147 255 235
147 255 235
147 255 235
147 255 235
147 255 235
147 255 235
147 255 235
147 255 235
147 255 236
147 255 236
147 255 236
147 255 236
147 255 236
147 255 236
147 255 236
147 255 236
147 255 236
147 255 236
147 255 236
147 255 236
147 255 236
147 255 236
147 255 236
147 255 236
147 255 236
147 255 236
147 255 236
147 255 236
147 255 236
147 255 236
147 255 236
147 255 236
147 255 236
147 255 236
147 255 236
147 255 236
147 255 236
147 255 236
147 255 236
147 255 236
147 255 236
147 255 236
147 255 236
147 255 236
147 255 236
147 255 236
147 255 236
147 255 236
147 255 236
147 255 236
147 255 236
147 255 236
147 255 236
147 255 236
147 255 236
147 255 236
147 255 236
147 255 236
147 255 236
147 255 236
147 255 236
147 255 236
147 255 236
147 255 236
147 255 236
147 255 236
147 255 236
147 255 236
147 255 236
147 255 236
147 255 236
147 255 236
147 255 236
147 255 236
147 255 236
147 255 236
147 255 236
147 255 236
147 255 236
147 255 236
146 255 236
146 255 236
146 255 236
146 255 236
146 255 236
146 255 236
146 255 236
146 255 236
146 255 236
146 255 236
146 255 236
146 255 236
146 255 236
146 255 236
146 255 236
146 255 236
146 255 236
146 255 236
146 255 236
146 255 236
146 255 236
146 255 236
146 255 236
146 255 236
146 255 236
146 255 236
146 255 236
146 255 236
146 255 236
146 255 236
146 255 236
146 255 236
146 255 236
146 255 236
146 255 236
146 255 236
146 255 236
146 255 236
146 255 236
146 255 236
146 255 236
146 255 236
146 255 236
146 255 236
146 255 236
146 255 236
146 255 236
146 255 236
146 255 236
146 255 236
146 255 236
146 255 236
146 255 236
146 255 236
146 255 236
146 255 236
146 255 236
146 255 236
146 255 236
146 255 236
146 255 236
146 255 236
146 255 236
146 255 236
146 255 236
146 255 236
146 255 236
146 255 236
146 255 236
146 255 236
146 255 236
146 255 236
146 255 237
146 255 237
146 255 237
146 255 237
146 255 237
146 255 237
146 255 237
146 255 237
146 255 237
146 255 237
146 255 237
146 255 237
146 255 237
146 255 237
146 255 237
146 255 237
146 255 237
146 255 237
146 255 237
146 255 237
146 255 237
146 255 237
146 255 237
146 255 237
146 255 237
146 255 237
146 255 237
146 255 237
146 255 237
146 255 237
146 255 237
146 255 237
146 255 237
146 255 237
146 255 237
146 255 237
146 255 237
146 255 237
146 255 237
146 255 237
146 255 237
146 255 237
146 255 237
146 255 237
146 255 237
146 255 237
146 255 237
146 255 237
146 255 237
146 255 237
146 255 237
146 255 237
146 255 237
146 255 237
146 255 237
146 255 237
146 255 237
146 255 237
146 255 237
146 255 237
146 255 237
146 255 237
146 255 237
146 255 237
146 255 237
146 255 237
146 255 237
146 255 237
146 255 237
146 255 237
146 255 237
146 255 237
145 255 237
145 255 237
145 255 237
145 255 237
145 255 237
145 255 237
145 255 237
145 255 237
145 255 237
145 255 237
145 255 237
145 255 237
145 255 237
145 255 237
145 255 237
145 255 237
145 255 237
145 255 237
145 255 237
145 255 237
145 255 237
145 255 237
145 255 237
145 255 237
145 255 237
145 255 237
145 255 237
145 255 237
145 255 237
145 255 237
145 255 237
145 255 237
145 255 237
145 255 237
145 255 237
145 255 237
145 255 237
145 255 237
145 255 237
145 255 237
145 255 237
145 255 237
145 255 237
145 255 237
145 255 237
145 255 237
145 255 237
145 255 237
145 255 237
145 255 237
145 255 237
145 255 237
145 255 237
145 255 237
145 255 237
145 255 237
145 255 237
145 255 237
145 255 237
145 255 237
145 255 237
145 255 237
145 255 237
145 255 237
145 255 237
145 255 237
145 255 237
145 255 237
145 255 237
145 255 237
145 255 237
145 255 237
144 255 238
144 255 238
144 255 238
144 255 238
144 255 238
144 255 238
144 255 238
144 255 238
144 255 238
144 255 238
144 255 238
144 255 238
144 255 238
144 255 238
144 255 238
144 255 238
144 255 238
144 255 238
144 255 238
144 255 238
144 255 238
144 255 238
144 255 238
144 255 238
144 255 238
144 255 238
144 255 238
144 255 238
144 255 238
144 255 238
144 255 238
144 255 238
144 255 238
144 255 238
144 255 238
144 255 238
144 255 238
144 255 238
144 255 238
144 255 238
144 255 238
144 255 238
144 255 238
144 255 238
144 255 238
144 255 238
144 255 238
144 255 238
144 255 238
144 255 238
144 255 238
144 255 238
144 255 238
144 255 238
144 255 238
144 255 238
144 255 238
144 255 238
144 255 238
144 255 238
144 255 238
144 255 238
144 255 238
144 255 238
144 255 238
144 255 238
144 255 238
144 255 238
144 255 238
144 255 238
144 255 238
144 255 238
144 255 239
144 255 239
144 255 239
144 255 239
144 255 239
144 255 239
144 255 239
144 255 239
144 255 239
144 255 239
144 255 239
144 255 239
144 255 239
144 255 239
144 255 239
144 255 239
144 255 239
144 255 239
144 255 239
144 255 239
144 255 239
144 255 239
144 255 239
144 255 239
144 255 239
144 255 239
144 255 239
144 255 239
144 255 239
144 255 239
144 255 239
144 255 239
144 255 239
144 255 239
144 255 239
144 255 239
144 255 239
144 255 239
144 255 239
144 255 239
144 255 239
144 255 239
144 255 239
144 255 239
144 255 239
144 255 239
144 255 239
144 255 239
144 255 239
144 255 239
144 255 239
144 255 239
144 255 239
144 255 239
144 255 239
144 255 239
144 255 239
144 255 239
144 255 239
144 255 239
144 255 239
144 255 239
144 255 239
144 255 239
144 255 239
144 255 239
144 255 239
144 255 239
144 255 239
144 255 239
144 255 239
144 255 239
143 255 239
143 255 239
143 255 239
143 255 239
143 255 239
143 255 239
143 255 239
143 255 239
143 255 239
143 255 239
143 255 239
143 255 239
143 255 239
143 255 239
143 255 239
143 255 239
143 255 239
143 255 239
143 255 239
143 255 239
143 255 239
143 255 239
143 255 239
143 255 239
143 255 239
143 255 239
143 255 239
143 255 239
143 255 239
143 255 239
143 255 239
143 255 239
143 255 239
143 255 239
143 255 239
143 255 239
143 255 239
143 255 239
143 255 239
143 255 239
143 255 239
143 255 239
143 255 239
143 255 239
143 255 239
143 255 239
143 255 239
143 255 239
143 255 239
143 255 239
143 255 239
143 255 239
143 255 239
143 255 239
143 255 239
143 255 239
143 255 239
143 255 239
143 255 239
143 255 239
143 255 239
143 255 239
143 255 239
143 255 239
143 255 239
143 255 239
143 255 239
143 255 239
143 255 239
143 255 239
143 255 239
143 255 239
143 255 240
143 255 240
143 255 240
143 255 240
143 255 240
143 255 240
143 255 240
143 255 240
143 255 240
143 255 240
143 255 240
143 255 240
143 255 240
143 255 240
143 255 240
143 255 240
143 255 240
143 255 240
143 255 240
143 255 240
143 255 240
143 255 240
143 255 240
143 255 240
143 255 240
143 255 240
143 255 240
143 255 240
143 255 240
143 255 240
143 255 240
143 255 240
143 255 240
143 255 240
143 255 240
143 255 240
143 255 240
143 255 240
143 255 240
143 255 240
143 255 240
143 255 240
143 255 240
143 255 240
143 255 240
143 255 240
143 255 240
143 255 240
143 255 240
143 255 240
143 255 240
143 255 240
143 255 240
143 255 240
143 255 240
143 255 240
143 255 240
143 255 240
143 255 240
143 255 240
143 255 240
143 255 240
143 255 240
143 255 240
143 255 240
143 255 240
143 255 240
143 255 240
143 255 240
143 255 240
143 255 240
143 255 240
142 255 240
142 255 240
142 255 240
142 255 240
142 255 240
142 255 240
142 255 240
142 255 240
142 255 240
142 255 240
142 255 240
142 255 240
142 255 240
142 255 240
142 255 240
142 255 240
142 255 240
142 255 240
142 255 240
142 255 240
142 255 240
142 255 240
142 255 240
142 255 240
142 255 240
142 255 240
142 255 240
142 255 240
142 255 240
142 255 240
142 255 240
142 255 240
142 255 240
142 255 240
142 255 240
142 255 240
142 255 240
142 255 240
142 255 240
142 255 240
142 255 240
142 255 240
142 255 240
142 255 240
142 255 240
142 255 240
142 255 240
142 255 240
142 255 240
142 255 240
142 255 240
142 255 240
142 255 240
142 255 240
142 255 240
142 255 240
142 255 240
142 255 240
142 255 240
142 255 240
142 255 240
142 255 240
142 255 240
142 255 240
142 255 240
142 255 240
142 255 240
142 255 240
142 255 240
142 255 240
142 255 240
142 255 240
142 255 241
142 255 241
142 255 241
142 255 241
142 255 241
142 255 241
142 255 241
142 255 241
142 255 241
142 255 241
142 255 241
142 255 241
142 255 241
142 255 241
142 255 241
142 255 241
142 255 241
142 255 241
142 255 241
142 255 241
142 255 241
142 255 241
142 255 241
142 255 241
142 255 241
142 255 241
142 255 241
142 255 241
142 255 241
142 255 241
142 255 241
142 255 241
142 255 241
142 255 241
142 255 241
142 255 241
142 255 241
142 255 241
142 255 241
142 255 241
142 255 241
142 255 241
142 255 241
142 255 241
142 255 241
142 255 241
142 255 241
142 255 241
142 255 241
142 255 241
142 255 241
142 255 241
142 255 241
142 255 241
142 255 241
142 255 241
142 255 241
142 255 241
142 255 241
142 255 241
142 255 241
142 255 241
142 255 241
142 255 241
142 255 241
142 255 241
142 255 241
142 255 241
142 255 241
142 255 241
142 255 241
142 255 241
141 255 241
141 255 241
141 255 241
141 255 241
141 255 241
141 255 241
141 255 241
141 255 241
141 255 241
141 255 241
141 255 241
141 255 241
141 255 241
141 255 241
141 255 241
141 255 241
141 255 241
141 255 241
141 255 241
141 255 241
141 255 241
141 255 241
141 255 241
141 255 241
141 255 241
141 255 241
141 255 241
141 255 241
141 255 241
141 255 241
141 255 241
141 255 241
141 255 241
141 255 241
141 255 241
141 255 241
141 255 241
141 255 241
141 255 241
141 255 241
141 255 241
141 255 241
141 255 241
141 255 241
141 255 241
141 255 241
141 255 241
141 255 241
141 255 241
141 255 241
141 255 241
141 255 241
141 255 241
141 255 241
141 255 241
141 255 241
141 255 241
141 255 241
141 255 241
141 255 241
141 255 241
141 255 241
141 255 241
141 255 241
141 255 241
141 255 241
141 255 241
141 255 241
141 255 241
141 255 241
141 255 241
141 255 241
0 0 0
0 0 0
0 0 0
0 0 0
0 0 0
0 0 0
0 0 0
0 0 0
0 0 0
0 0 0
0 0 0
0 0 0
0 0 0
0 0 0
141 255 242
141 255 242
141 255 242
141 255 242
141 255 242
141 255 242
141 255 242
141 255 242
141 255 242
141 255 242
141 255 242
141 255 242
141 255 242
141 255 242
141 255 242
141 255 242
141 255 242
141 255 242
141 255 242
141 255 242
141 255 242
141 255 242
141 255 242
141 255 242
141 255 242
141 255 242
141 255 242
141 255 242
141 255 242
141 255 242
141 255 242
141 255 242
141 255 242
141 255 242
141 255 242
141 255 242
141 255 242
141 255 242
141 255 242
141 255 242
141 255 242
141 255 242
141 255 242
141 255 242
141 255 242
141 255 242
141 255 242
141 255 242
141 255 242
141 255 242
141 255 242
141 255 242
141 255 242
141 255 242
141 255 242
141 255 242
141 255 242
141 255 242
0 0 0
0 0 0
0 0 0
0 0 0
0 0 0
0 0 0
0 0 0
0 0 0
0 0 0
0 0 0
0 0 0
0 0 0
0 0 0
0 0 0
140 255 242
140 255 242
140 255 242
140 255 242
140 255 242
140 255 242
140 255 242
140 255 242
140 255 242
140 255 242
140 255 242
140 255 242
140 255 242
140 255 242
140 255 242
140 255 242
140 255 242
140 255 242
140 255 242
140 255 242
140 255 242
140 255 242
140 255 242
140 255 242
140 255 242
140 255 242
140 255 242
140 255 242
140 255 242
140 255 242
140 255 242
140 255 242
140 255 242
140 255 242
140 255 242
140 255 242
140 255 242
140 255 242
140 255 242
140 255 242
140 255 242
140 255 242
140 255 242
140 255 242
140 255 242
140 255 242
140 255 242
140 255 242
140 255 242
140 255 242
140 255 242
140 255 242
140 255 242
140 255 242
140 255 242
140 255 242
140 255 242
140 255 242
0 0 0
0 0 0
0 0 0
0 0 0
0 0 0
0 0 0
0 0 0
0 0 0
0 0 0
0 0 0
0 0 0
0 0 0
0 0 0
0 0 0
140 255 243
140 255 243
140 255 243
140 255 243
140 255 243
140 255 243
140 255 243
140 255 243
140 255 243
140 255 243
140 255 243
140 255 243
140 255 243
140 255 243
140 255 243
140 255 243
140 255 243
140 255 243
140 255 243
140 255 243
140 255 243
140 255 243
140 255 243
140 255 243
140 255 243
140 255 243
140 255 243
140 255 243
140 255 243
140 255 243
140 255 243
140 255 243
140 255 243
140 255 243
140 255 243
140 255 243
140 255 243
140 255 243
140 255 243
140 255 243
140 255 243
140 255 243
140 255 243
140 255 243
140 255 243
140 255 243
140 255 243
140 255 243
140 255 243
140 255 243
140 255 243
140 255 243
140 255 243
140 255 243
140 255 243
140 255 243
140 255 243
140 255 243
139 255 244
139 255 244
139 255 244
139 255 244
139 255 244
139 255 244
139 255 244
139 255 244
139 255 244
139 255 244
139 255 244
139 255 244
139 255 244
139 255 244
139 255 244
139 255 244
139 255 244
139 255 244
139 255 244
139 255 244
139 255 244
139 255 244
139 255 244
139 255 244
139 255 244
139 255 244
139 255 244
139 255 244
139 255 244
139 255 244
139 255 244
139 255 244
139 255 244
139 255 244
139 255 244
139 255 244
139 255 244
139 255 244
139 255 244
139 255 244
139 255 244
139 255 244
139 255 244
139 255 244
139 255 244
139 255 244
139 255 244
139 255 244
139 255 244
139 255 244
139 255 244
139 255 244
139 255 244
139 255 244
139 255 244
139 255 244
139 255 244
139 255 244
139 255 244
139 255 244
139 255 244
139 255 244
139 255 244
139 255 244
139 255 244
139 255 244
139 255 244
139 255 244
139 255 244
139 255 244
139 255 244
139 255 244
138 255 244
138 255 244
138 255 244
138 255 244
138 255 244
138 255 244
138 255 244
138 255 244
138 255 244
138 255 244
138 255 244
138 255 244
138 255 244
138 255 244
138 255 244
138 255 244
138 255 244
138 255 244
138 255 244
138 255 244
138 255 244
138 255 244
138 255 244
138 255 244
138 255 244
138 255 244
138 255 244
138 255 244
138 255 244
138 255 244
138 255 244
138 255 244
138 255 244
138 255 244
138 255 244
138 255 244
138 255 244
138 255 244
138 255 244
138 255 244
138 255 244
138 255 244
138 255 244
138 255 244
138 255 244
138 255 244
138 255 244
138 255 244
138 255 244
138 255 244
138 255 244
138 255 244
138 255 244
138 255 244
138 255 244
138 255 244
138 255 244
138 255 244
138 255 244
138 255 244
138 255 244
138 255 244
138 255 244
138 255 244
138 255 244
138 255 244
138 255 244
138 255 244
138 255 244
138 255 244
138 255 244
138 255 244
138 255 245
138 255 245
138 255 245
138 255 245
138 255 245
138 255 245
138 255 245
138 255 245
138 255 245
138 255 245
138 255 245
138 255 245
138 255 245
138 255 245
138 255 245
138 255 245
138 255 245
138 255 245
138 255 245
138 255 245
138 255 245
138 255 245
138 255 245
138 255 245
138 255 245
138 255 245
138 255 245
138 255 245
138 255 245
138 255 245
138 255 245
138 255 245
138 255 245
138 255 245
138 255 245
138 255 245
138 255 245
138 255 245
138 255 245
138 255 245
138 255 245
138 255 245
138 255 245
138 255 245
138 255 245
138 255 245
138 255 245
138 255 245
138 255 245
138 255 245
138 255 245
138 255 245
138 255 245
138 255 245
138 255 245
138 255 245
138 255 245
138 255 245
138 255 245
138 255 245
138 255 245
138 255 245
138 255 245
138 255 245
138 255 245
138 255 245
138 255 245
138 255 245
138 255 245
138 255 245
138 255 245
138 255 245
137 255 245
137 255 245
137 255 245
137 255 245
137 255 245
137 255 245
137 255 245
137 255 245
137 255 245
137 255 245
137 255 245
137 255 245
137 255 245
137 255 245
137 255 245
137 255 245
137 255 245
137 255 245
137 255 245
137 255 245
137 255 245
137 255 245
137 255 245
137 255 245
137 255 245
137 255 245
137 255 245
137 255 245
137 255 245
137 255 245
137 255 245
137 255 245
137 255 245
137 255 245
137 255 245
137 255 245
137 255 245
137 255 245
137 255 245
137 255 245
137 255 245
137 255 245
137 255 245
137 255 245
137 255 245
137 255 245
137 255 245
137 255 245
137 255 245
137 255 245
137 255 245
137 255 245
137 255 245
137 255 245
137 255 245
137 255 245
137 255 245
137 255 245
137 255 245
137 255 245
137 255 245
137 255 245
137 255 245
137 255 245
137 255 245
137 255 245
137 255 245
137 255 245
137 255 245
137 255 245
137 255 245
137 255 245
137 255 246
137 255 246
137 255 246
137 255 246
137 255 246
137 255 246
137 255 246
137 255 246
137 255 246
137 255 246
137 255 246
137 255 246
137 255 246
137 255 246
137 255 246
137 255 246
137 255 246
137 255 246
137 255 246
137 255 246
137 255 246
137 255 246
137 255 246
137 255 246
137 255 246
137 255 246
137 255 246
137 255 246
137 255 246
137 255 246
137 255 246
137 255 246
137 255 246
137 255 246
137 255 246
137 255 246
137 255 246
137 255 246
137 255 246
137 255 246
137 255 246
137 255 246
137 255 246
137 255 246
137 255 246
137 255 246
137 255 246
137 255 246
137 255 246
137 255 246
137 255 246
137 255 246
137 255 246
137 255 246
137 255 246
137 255 246
137 255 246
137 255 246
137 255 246
137 255 246
137 255 246
137 255 246
137 255 246
137 255 246
137 255 246
137 255 246
137 255 246
137 255 246
137 255 246
137 255 246
137 255 246
137 255 246
136 255 246
136 255 246
136 255 246
136 255 246
136 255 246
136 255 246
136 255 246
136 255 246
136 255 246
136 255 246
136 255 246
136 255 246
136 255 246
136 255 246
136 255 246
136 255 246
136 255 246
136 255 246
136 255 246
136 255 246
136 255 246
136 255 246
136 255 246
136 255 246
136 255 246
136 255 246
136 255 246
136 255 246
136 255 246
136 255 246
136 255 246
136 255 246
136 255 246
136 255 246
136 255 246
136 255 246
136 255 246
136 255 246
136 255 246
136 255 246
136 255 246
136 255 246
136 255 246
136 255 246
136 255 246
136 255 246
136 255 246
136 255 246
136 255 246
136 255 246
136 255 246
136 255 246
136 255 246
136 255 246
136 255 246
136 255 246
136 255 246
136 255 246
136 255 246
136 255 246
136 255 246
136 255 246
136 255 246
136 255 246
136 255 246
136 255 246
136 255 246
136 255 246
136 255 246
136 255 246
136 255 246
136 255 246
136 255 247
136 255 247
136 255 247
136 255 247
136 255 247
136 255 247
136 255 247
136 255 247
136 255 247
136 255 247
136 255 247
136 255 247
136 255 247
136 255 247
136 255 247
136 255 247
136 255 247
136 255 247
136 255 247
136 255 247
136 255 247
136 255 247
136 255 247
136 255 247
136 255 247
136 255 247
136 255 247
136 255 247
136 255 247
136 255 247
136 255 247
136 255 247
136 255 247
136 255 247
136 255 247
136 255 247
136 255 247
136 255 247
136 255 247
136 255 247
136 255 247
136 255 247
136 255 247
136 255 247
136 255 247
136 255 247
136 255 247
136 255 247
136 255 247
136 255 247
136 255 247
136 255 247
136 255 247
136 255 247
136 255 247
136 255 247
136 255 247
136 255 247
136 255 247
136 255 247
136 255 247
136 255 247
136 255 247
136 255 247
136 255 247
136 255 247
136 255 247
136 255 247
136 255 247
136 255 247
136 255 247
136 255 247
135 255 247
135 255 247
135 255 247
135 255 247
135 255 247
135 255 247
135 255 247
135 255 247
135 255 247
135 255 247
135 255 247
135 255 247
135 255 247
135 255 247
135 255 247
135 255 247
135 255 247
135 255 247
135 255 247
135 255 247
135 255 247
135 255 247
135 255 247
135 255 247
135 255 247
135 255 247
135 255 247
135 255 247
135 255 247
135 255 247
135 255 247
135 255 247
135 255 247
135 255 247
135 255 247
135 255 247
135 255 247
135 255 247
135 255 247
135 255 247
135 255 247
135 255 247
135 255 247
135 255 247
135 255 247
135 255 247
135 255 247
135 255 247
135 255 247
135 255 247
135 255 247
135 255 247
135 255 247
135 255 247
135 255 247
135 255 247
135 255 247
135 255 247
135 255 247
135 255 247
135 255 247
135 255 247
135 255 247
135 255 247
135 255 247
135 255 247
135 255 247
135 255 247
135 255 247
135 255 247
135 255 247
135 255 247
135 255 248
135 255 248
135 255 248
135 255 248
135 255 248
135 255 248
135 255 248
135 255 248
135 255 248
135 255 248
135 255 248
135 255 248
135 255 248
135 255 248
135 255 248
135 255 248
135 255 248
135 255 248
135 255 248
135 255 248
135 255 248
135 255 248
135 255 248
135 255 248
135 255 248
135 255 248
135 255 248
135 255 248
135 255 248
135 255 248
135 255 248
135 255 248
135 255 248
135 255 248
135 255 248
135 255 248
135 255 248
135 255 248
135 255 248
135 255 248
135 255 248
135 255 248
135 255 248
135 255 248
135 255 248
135 255 248
135 255 248
135 255 248
135 255 248
135 255 248
135 255 248
135 255 248
135 255 248
135 255 248
135 255 248
135 255 248
135 255 248
135 255 248
135 255 248
135 255 248
135 255 248
135 255 248
135 255 248
135 255 248
135 255 248
135 255 248
135 255 248
135 255 248
135 255 248
135 255 248
135 255 248
135 255 248
134 255 248
134 255 248
134 255 248
134 255 248
134 255 248
134 255 248
134 255 248
134 255 248
134 255 248
134 255 248
134 255 248
134 255 248
134 255 248
134 255 248
134 255 248
134 255 248
134 255 248
134 255 248
134 255 248
134 255 248
134 255 248
134 255 248
134 255 248
134 255 248
134 255 248
134 255 248
134 255 248
134 255 248
134 255 248
134 255 248
134 255 248
134 255 248
134 255 248
134 255 248
134 255 248
134 255 248
134 255 248
134 255 248
134 255 248
134 255 248
134 255 248
134 255 248
134 255 248
134 255 248
134 255 248
134 255 248
134 255 248
134 255 248
134 255 248
134 255 248
134 255 248
134 255 248
134 255 248
134 255 248
134 255 248
134 255 248
134 255 248
134 255 248
134 255 248
134 255 248
134 255 248
134 255 248
134 255 248
134 255 248
134 255 248
134 255 248
134 255 248
134 255 248
134 255 248
134 255 248
134 255 248
134 255 248
134 255 249
134 255 249
134 255 249
134 255 249
134 255 249
134 255 249
134 255 249
134 255 249
134 255 249
134 255 249
134 255 249
134 255 249
134 255 249
134 255 249
134 255 249
134 255 249
134 255 249
134 255 249
134 255 249
134 255 249
134 255 249
134 255 249
134 255 249
134 255 249
134 255 249
134 255 249
134 255 249
134 255 249
134 255 249
134 255 249
134 255 249
134 255 249
134 255 249
134 255 249
134 255 249
134 255 249
134 255 249
134 255 249
134 255 249
134 255 249
134 255 249
134 255 249
134 255 249
134 255 249
134 255 249
134 255 249
134 255 249
134 255 249
134 255 249
134 255 249
134 255 249
134 255 249
134 255 249
134 255 249
134 255 249
134 255 249
134 255 249
134 255 249
134 255 249
134 255 249
134 255 249
134 255 249
134 255 249
134 255 249
134 255 249
134 255 249
134 255 249
134 255 249
134 255 249
134 255 249
134 255 249
134 255 249
133 255 250
133 255 250
133 255 250
133 255 250
133 255 250
133 255 250
133 255 250
133 255 250
133 255 250
133 255 250
133 255 250
133 255 250
133 255 250
133 255 250
133 255 250
133 255 250
133 255 250
133 255 250
133 255 250
133 255 250
133 255 250
133 255 250
133 255 250
133 255 250
133 255 250
133 255 250
133 255 250
133 255 250
133 255 250
133 255 250
133 255 250
133 255 250
133 255 250
133 255 250
133 255 250
133 255 250
133 255 250
133 255 250
133 255 250
133 255 250
133 255 250
133 255 250
133 255 250
133 255 250
133 255 250
133 255 250
133 255 250
133 255 250
133 255 250
133 255 250
133 255 250
133 255 250
133 255 250
133 255 250
133 255 250
133 255 250
133 255 250
133 255 250
133 255 250
133 255 250
133 255 250
133 255 250
133 255 250
133 255 250
133 255 250
133 255 250
133 255 250
133 255 250
133 255 250
133 255 250
133 255 250
133 255 250
132 255 250
132 255 250
132 255 250
132 255 250
132 255 250
132 255 250
132 255 250
132 255 250
132 255 250
132 255 250
132 255 250
132 255 250
132 255 250
132 255 250
132 255 250
132 255 250
132 255 250
132 255 250
132 255 250
132 255 250
132 255 250
132 255 250
132 255 250
132 255 250
132 255 250
132 255 250
132 255 250
132 255 250
132 255 250
132 255 250
132 255 250
132 255 250
132 255 250
132 255 250
132 255 250
132 255 250
132 255 250
132 255 250
132 255 250
132 255 250
132 255 250
132 255 250
132 255 250
132 255 250
132 255 250
132 255 250
132 255 250
132 255 250
132 255 250
132 255 250
132 255 250
132 255 250
132 255 250
132 255 250
132 255 250
132 255 250
132 255 250
132 255 250
132 255 250
132 255 250
132 255 250
132 255 250
132 255 250
132 255 250
132 255 250
132 255 250
132 255 250
132 255 250
132 255 250
132 255 250
132 255 250
132 255 250
132 255 251
132 255 251
132 255 251
132 255 251
132 255 251
132 255 251
132 255 251
132 255 251
132 255 251
132 255 251
132 255 251
132 255 251
132 255 251
132 255 251
132 255 251
132 255 251
132 255 251
132 255 251
132 255 251
132 255 251
132 255 251
132 255 251
132 255 251
132 255 251
132 255 251
132 255 251
132 255 251
132 255 251
132 255 251
132 255 251
132 255 251
132 255 251
132 255 251
132 255 251
132 255 251
132 255 251
132 255 251
132 255 251
132 255 251
132 255 251
132 255 251
132 255 251
132 255 251
132 255 251
132 255 251
132 255 251
132 255 251
132 255 251
132 255 251
132 255 251
132 255 251
132 255 251
132 255 251
132 255 251
132 255 251
132 255 251
132 255 251
132 255 251
132 255 251
132 255 251
132 255 251
132 255 251
132 255 251
132 255 251
132 255 251
132 255 251
132 255 251
132 255 251
132 255 251
132 255 251
132 255 251
132 255 251
131 255 251
131 255 251
131 255 251
131 255 251
131 255 251
131 255 251
131 255 251
131 255 251
131 255 251
131 255 251
131 255 251
131 255 251
131 255 251
131 255 251
131 255 251
131 255 251
131 255 251
131 255 251
131 255 251
131 255 251
131 255 251
131 255 251
131 255 251
131 255 251
131 255 251
131 255 251
131 255 251
131 255 251
131 255 251
131 255 251
131 255 251
131 255 251
131 255 251
131 255 251
131 255 251
131 255 251
131 255 251
131 255 251
131 255 251
131 255 251
131 255 251
131 255 251
131 255 251
131 255 251
131 255 251
131 255 251
131 255 251
131 255 251
131 255 251
131 255 251
131 255 251
131 255 251
131 255 251
131 255 251
131 255 251
131 255 251
131 255 251
131 255 251
131 255 251
131 255 251
131 255 251
131 255 251
131 255 251
131 255 251
131 255 251
131 255 251
131 255 251
131 255 251
131 255 251
131 255 251
131 255 251
131 255 251
131 255 252
131 255 252
131 255 252
131 255 252
131 255 252
131 255 252
131 255 252
131 255 252
131 255 252
131 255 252
131 255 252
131 255 252
131 255 252
131 255 252
131 255 252
131 255 252
131 255 252
131 255 252
131 255 252
131 255 252
131 255 252
131 255 252
131 255 252
131 255 252
131 255 252
131 255 252
131 255 252
131 255 252
131 255 252
131 255 252
131 255 252
131 255 252
131 255 252
131 255 252
131 255 252
131 255 252
131 255 252
131 255 252
131 255 252
131 255 252
131 255 252
131 255 252
131 255 252
131 255 252
131 255 252
131 255 252
131 255 252
131 255 252
131 255 252
131 255 252
131 255 252
131 255 252
131 255 252
131 255 252
131 255 252
131 255 252
131 255 252
131 255 252
131 255 252
131 255 252
131 255 252
131 255 252
131 255 252
131 255 252
131 255 252
131 255 252
131 255 252
131 255 252
131 255 252
131 255 252
131 255 252
131 255 252
130 255 252
130 255 252
130 255 252
130 255 252
130 255 252
130 255 252
130 255 252
130 255 252
130 255 252
130 255 252
130 255 252
130 255 252
130 255 252
130 255 252
130 255 252
130 255 252
130 255 252
130 255 252
130 255 252
130 255 252
130 255 252
130 255 252
130 255 252
130 255 252
130 255 252
130 255 252
130 255 252
130 255 252
130 255 252
130 255 252
130 255 252
130 255 252
130 255 252
130 255 252
130 255 252
130 255 252
130 255 252
130 255 252
130 255 252
130 255 252
130 255 252
130 255 252
130 255 252
130 255 252
130 255 252
130 255 252
130 255 252
130 255 252
130 255 252
130 255 252
130 255 252
130 255 252
130 255 252
130 255 252
130 255 252
130 255 252
130 255 252
130 255 252
130 255 252
130 255 252
130 255 252
130 255 252
130 255 252
130 255 252
130 255 252
130 255 252
130 255 252
130 255 252
130 255 252
130 255 252
130 255 252
130 255 252
130 255 253
130 255 253
130 255 253
130 255 253
130 255 253
130 255 253
130 255 253
130 255 253
130 255 253
130 255 253
130 255 253
130 255 253
130 255 253
130 255 253
130 255 253
130 255 253
130 255 253
130 255 253
130 255 253
130 255 253
130 255 253
130 255 253
130 255 253
130 255 253
130 255 253
130 255 253
130 255 253
130 255 253
130 255 253
130 255 253
130 255 253
130 255 253
130 255 253
130 255 253
130 255 253
130 255 253
130 255 253
130 255 253
130 255 253
130 255 253
130 255 253
130 255 253
130 255 253
130 255 253
130 255 253
130 255 253
130 255 253
130 255 253
130 255 253
130 255 253
130 255 253
130 255 253
130 255 253
130 255 253
130 255 253
130 255 253
130 255 253
130 255 253
130 255 253
130 255 253
130 255 253
130 255 253
130 255 253
130 255 253
130 255 253
130 255 253
130 255 253
130 255 253
130 255 253
130 255 253
130 255 253
130 255 253
129 255 253
129 255 253
129 255 253
129 255 253
129 255 253
129 255 253
129 255 253
129 255 253
129 255 253
129 255 253
129 255 253
129 255 253
129 255 253
129 255 253
129 255 253
129 255 253
129 255 253
129 255 253
129 255 253
129 255 253
129 255 253
129 255 253
129 255 253
129 255 253
129 255 253
129 255 253
129 255 253
129 255 253
129 255 253
129 255 253
129 255 253
129 255 253
129 255 253
129 255 253
129 255 253
129 255 253
129 255 253
129 255 253
129 255 253
129 255 253
129 255 253
129 255 253
129 255 253
129 255 253
129 255 253
129 255 253
129 255 253
129 255 253
129 255 253
129 255 253
129 255 253
129 255 253
129 255 253
129 255 253
129 255 253
129 255 253
129 255 253
129 255 253
129 255 253
129 255 253
129 255 253
129 255 253
129 255 253
129 255 253
129 255 253
129 255 253
129 255 253
129 255 253
129 255 253
129 255 253
129 255 253
129 255 253
129 255 254
129 255 254
129 255 254
129 255 254
129 255 254
129 255 254
129 255 254
129 255 254
129 255 254
129 255 254
129 255 254
129 255 254
129 255 254
129 255 254
129 255 254
129 255 254
129 255 254
129 255 254
129 255 254
129 255 254
129 255 254
129 255 254
129 255 254
129 255 254
129 255 254
129 255 254
129 255 254
129 255 254
129 255 254
129 255 254
129 255 254
129 255 254
129 255 254
129 255 254
129 255 254
129 255 254
129 255 254
129 255 254
129 255 254
129 255 254
129 255 254
129 255 254
129 255 254
129 255 254
129 255 254
129 255 254
129 255 254
129 255 254
129 255 254
129 255 254
129 255 254
129 255 254
129 255 254
129 255 254
129 255 254
129 255 254
129 255 254
129 255 254
129 255 254
129 255 254
129 255 254
129 255 254
129 255 254
129 255 254
129 255 254
129 255 254
129 255 254
129 255 254
129 255 254
129 255 254
129 255 254
129 255 254
128 255 254
128 255 254
128 255 254
128 255 254
128 255 254
128 255 254
128 255 254
128 255 254
128 255 254
128 255 254
128 255 254
128 255 254
128 255 254
128 255 254
128 255 254
128 255 254
128 255 254
128 255 254
128 255 254
128 255 254
128 255 254
128 255 254
128 255 254
128 255 254
128 255 254
128 255 254
128 255 254
128 255 254
128 255 254
128 255 254
128 255 254
128 255 254
128 255 254
128 255 254
128 255 254
128 255 254
128 255 254
128 255 254
128 255 254
128 255 254
128 255 254
128 255 254
128 255 254
128 255 254
128 255 254
128 255 254
128 255 254
128 255 254
128 255 254
128 255 254
128 255 254
128 255 254
128 255 254
128 255 254
128 255 254
128 255 254
128 255 254
128 255 254
128 255 254
128 255 254
128 255 254
128 255 254
128 255 254
128 255 254
128 255 254
128 255 254
128 255 254
128 255 254
128 255 254
128 255 254
128 255 254
128 255 254
128 255 255
128 255 255
128 255 255
128 255 255
128 255 255
128 255 255
128 255 255
128 255 255
128 255 255
128 255 255
128 255 255
128 255 255
128 255 255
128 255 255
128 255 255
128 255 255
128 255 255
128 255 255
128 255 255
128 255 255
128 255 255
128 255 255
128 255 255
128 255 255
128 255 255
128 255 255
128 255 255
128 255 255
128 255 255
128 255 255
128 255 255
128 255 255
128 255 255
128 255 255
128 255 255
128 255 255
128 255 255
128 255 255
128 255 255
128 255 255
128 255 255
128 255 255
128 255 255
128 255 255
128 255 255
128 255 255
128 255 255
128 255 255
128 255 255
128 255 255
128 255 255
128 255 255
128 255 255
128 255 255
128 255 255
128 255 255
128 255 255
128 255 255
128 255 255
128 255 255
128 255 255
128 255 255
128 255 255
128 255 255
128 255 255
128 255 255
128 255 255
128 255 255
128 255 255
128 255 255
128 255 255
128 255 255
127 254 255
127 254 255
127 254 255
127 254 255
127 254 255
127 254 255
127 254 255
127 254 255
127 254 255
127 254 255
127 254 255
127 254 255
127 254 255
127 254 255
127 254 255
127 254 255
127 254 255
127 254 255
127 254 255
127 254 255
127 254 255
127 254 255
127 254 255
127 254 255
127 254 255
127 254 255
127 254 255
127 254 255
127 254 255
127 254 255
127 254 255
127 254 255
127 254 255
127 254 255
127 254 255
127 254 255
127 254 255
127 254 255
127 254 255
127 254 255
127 254 255
127 254 255
127 254 255
127 254 255
127 254 255
127 254 255
127 254 255
127 254 255
127 254 255
127 254 255
127 254 255
127 254 255
127 254 255
127 254 255
127 254 255
127 254 255
127 254 255
127 254 255
127 254 255
127 254 255
127 254 255
127 254 255
127 254 255
127 254 255
127 254 255
127 254 255
127 254 255
127 254 255
127 254 255
127 254 255
127 254 255
127 254 255
126 253 255
126 253 255
126 253 255
126 253 255
126 253 255
126 253 255
126 253 255
126 253 255
126 253 255
126 253 255
126 253 255
126 253 255
126 253 255
126 253 255
126 253 255
126 253 255
126 253 255
126 253 255
126 253 255
126 253 255
126 253 255
126 253 255
126 253 255
126 253 255
126 253 255
126 253 255
126 253 255
126 253 255
126 253 255
126 253 255
126 253 255
126 253 255
126 253 255
126 253 255
126 253 255
126 253 255
126 253 255
126 253 255
126 253 255
126 253 255
126 253 255
126 253 255
126 253 255
126 253 255
126 253 255
126 253 255
126 253 255
126 253 255
126 253 255
126 253 255
126 253 255
126 253 255
126 253 255
126 253 255
126 253 255
126 253 255
126 253 255
126 253 255
126 253 255
126 253 255
126 253 255
126 253 255
126 253 255
126 253 255
126 253 255
126 253 255
126 253 255
126 253 255
126 253 255
126 253 255
126 253 255
126 253 255
126 252 255
126 252 255
126 252 255
126 252 255
126 252 255
126 252 255
126 252 255
126 252 255
126 252 255
126 252 255
126 252 255
126 252 255
126 252 255
126 252 255
126 252 255
126 252 255
126 252 255
126 252 255
126 252 255
126 252 255
126 252 255
126 252 255
126 252 255
126 252 255
126 252 255
126 252 255
126 252 255
126 252 255
126 252 255
126 252 255
126 252 255
126 252 255
126 252 255
126 252 255
126 252 255
126 252 255
126 252 255
126 252 255
126 252 255
126 252 255
126 252 255
126 252 255
126 252 255
126 252 255
126 252 255
126 252 255
126 252 255
126 252 255
126 252 255
126 252 255
126 252 255
126 252 255
126 252 255
126 252 255
126 252 255
126 252 255
126 252 255
126 252 255
126 252 255
126 252 255
126 252 255
126 252 255
126 252 255
126 252 255
126 252 255
126 252 255
126 252 255
126 252 255
126 252 255
126 252 255
126 252 255
126 252 255
125 251 255
125 251 255
125 251 255
125 251 255
125 251 255
125 251 255
125 251 255
125 251 255
125 251 255
125 251 255
125 251 255
125 251 255
125 251 255
125 251 255
125 251 255
125 251 255
125 251 255
125 251 255
125 251 255
125 251 255
125 251 255
125 251 255
125 251 255
125 251 255
125 251 255
125 251 255
125 251 255
125 251 255
125 251 255
125 251 255
125 251 255
125 251 255
125 251 255
125 251 255
125 251 255
125 251 255
125 251 255
125 251 255
125 251 255
125 251 255
125 251 255
125 251 255
125 251 255
125 251 255
125 251 255
125 251 255
125 251 255
125 251 255
125 251 255
125 251 255
125 251 255
125 251 255
125 251 255
125 251 255
125 251 255
125 251 255
125 251 255
125 251 255
125 251 255
125 251 255
125 251 255
125 251 255
125 251 255
125 251 255
125 251 255
125 251 255
125 251 255
125 251 255
125 251 255
125 251 255
125 251 255
125 251 255
125 250 255
125 250 255
125 250 255
125 250 255
125 250 255
125 250 255
125 250 255
125 250 255
125 250 255
125 250 255
125 250 255
125 250 255
125 250 255
125 250 255
125 250 255
125 250 255
125 250 255
125 250 255
125 250 255
125 250 255
125 250 255
125 250 255
125 250 255
125 250 255
125 250 255
125 250 255
125 250 255
125 250 255
125 250 255
125 250 255
125 250 255
125 250 255
125 250 255
125 250 255
125 250 255
125 250 255
125 250 255
125 250 255
125 250 255
125 250 255
125 250 255
125 250 255
125 250 255
125 250 255
125 250 255
125 250 255
125 250 255
125 250 255
125 250 255
125 250 255
125 250 255
125 250 255
125 250 255
125 250 255
125 250 255
125 250 255
125 250 255
125 250 255
125 250 255
125 250 255
125 250 255
125 250 255
125 250 255
125 250 255
125 250 255
125 250 255
125 250 255
125 250 255
125 250 255
125 250 255
125 250 255
125 250 255
124 248 255
124 248 255
124 248 255
124 248 255
124 248 255
124 248 255
124 248 255
124 248 255
124 248 255
124 248 255
124 248 255
124 248 255
124 248 255
124 248 255
124 248 255
124 248 255
124 248 255
124 248 255
124 248 255
124 248 255
124 248 255
124 248 255
124 248 255
124 248 255
124 248 255
124 248 255
124 248 255
124 248 255
124 248 255
124 248 255
124 248 255
124 248 255
124 248 255
124 248 255
124 248 255
124 248 255
124 248 255
124 248 255
124 248 255
124 248 255
124 248 255
124 248 255
124 248 255
124 248 255
124 248 255
124 248 255
124 248 255
124 248 255
124 248 255
124 248 255
124 248 255
124 248 255
124 248 255
124 248 255
124 248 255
124 248 255
124 248 255
124 248 255
124 248 255
124 248 255
124 248 255
124 248 255
124 248 255
124 248 255
124 248 255
124 248 255
124 248 255
124 248 255
124 248 255
124 248 255
124 248 255
124 248 255
124 247 255
124 247 255
124 247 255
124 247 255
124 247 255
124 247 255
124 247 255
124 247 255
124 247 255
124 247 255
124 247 255
124 247 255
124 247 255
124 247 255
124 247 255
124 247 255
124 247 255
124 247 255
124 247 255
124 247 255
124 247 255
124 247 255
124 247 255
124 247 255
124 247 255
124 247 255
124 247 255
124 247 255
124 247 255
124 247 255
124 247 255
124 247 255
124 247 255
124 247 255
124 247 255
124 247 255
124 247 255
124 247 255
124 247 255
124 247 255
124 247 255
124 247 255
124 247 255
124 247 255
124 247 255
124 247 255
124 247 255
124 247 255
124 247 255
124 247 255
124 247 255
124 247 255
124 247 255
124 247 255
124 247 255
124 247 255
124 247 255
124 247 255
124 247 255
124 247 255
124 247 255
124 247 255
124 247 255
124 247 255
124 247 255
124 247 255
124 247 255
124 247 255
124 247 255
124 247 255
124 247 255
124 247 255
123 246 255
123 246 255
123 246 255
123 246 255
123 246 255
123 246 255
123 246 255
123 246 255
123 246 255
123 246 255
123 246 255
123 246 255
123 246 255
123 246 255
123 246 255
123 246 255
123 246 255
123 246 255
123 246 255
123 246 255
123 246 255
123 246 255
123 246 255
123 246 255
123 246 255
123 246 255
123 246 255
123 246 255
123 246 255
123 246 255
123 246 255
123 246 255
123 246 255
123 246 255
123 246 255
123 246 255
123 246 255
123 246 255
123 246 255
123 246 255
123 246 255
123 246 255
123 246 255
123 246 255
123 246 255
123 246 255
123 246 255
123 246 255
123 246 255
123 246 255
123 246 255
123 246 255
123 246 255
123 246 255
123 246 255
123 246 255
123 246 255
123 246 255
123 246 255
123 246 255
123 246 255
123 246 255
123 246 255
123 246 255
123 246 255
123 246 255
123 246 255
123 246 255
123 246 255
123 246 255
123 246 255
123 246 255
123 245 255
123 245 255
123 245 255
123 245 255
123 245 255
123 245 255
123 245 255
123 245 255
123 245 255
123 245 255
123 245 255
123 245 255
123 245 255
123 245 255
123 245 255
123 245 255
123 245 255
123 245 255
123 245 255
123 245 255
123 245 255
123 245 255
123 245 255
123 245 255
123 245 255
123 245 255
123 245 255
123 245 255
123 245 255
123 245 255
123 245 255
123 245 255
123 245 255
123 245 255
123 245 255
123 245 255
123 245 255
123 245 255
123 245 255
123 245 255
123 245 255
123 245 255
123 245 255
123 245 255
123 245 255
123 245 255
123 245 255
123 245 255
123 245 255
123 245 255
123 245 255
123 245 255
123 245 255
123 245 255
123 245 255
123 245 255
123 245 255
123 245 255
123 245 255
123 245 255
123 245 255
123 245 255
123 245 255
123 245 255
123 245 255
123 245 255
123 245 255
123 245 255
123 245 255
123 245 255
123 245 255
123 245 255
122 244 255
122 244 255
122 244 255
122 244 255
122 244 255
122 244 255
122 244 255
122 244 255
122 244 255
122 244 255
122 244 255
122 244 255
122 244 255
122 244 255
122 244 255
122 244 255
122 244 255
122 244 255
122 244 255
122 244 255
122 244 255
122 244 255
122 244 255
122 244 255
122 244 255
122 244 255
122 244 255
122 244 255
122 244 255
122 244 255
122 244 255
122 244 255
122 244 255
122 244 255
122 244 255
122 244 255
122 244 255
122 244 255
122 244 255
122 244 255
122 244 255
122 244 255
122 244 255
122 244 255
122 244 255
122 244 255
122 244 255
122 244 255
122 244 255
122 244 255
122 244 255
122 244 255
122 244 255
122 244 255
122 244 255
122 244 255
122 244 255
122 244 255
122 244 255
122 244 255
122 244 255
122 244 255
122 244 255
122 244 255
122 244 255
122 244 255
122 244 255
122 244 255
122 244 255
122 244 255
122 244 255
122 244 255
121 243 255
121 243 255
121 243 255
121 243 255
121 243 255
121 243 255
121 243 255
121 243 255
121 243 255
121 243 255
121 243 255
121 243 255
121 243 255
121 243 255
121 243 255
121 243 255
121 243 255
121 243 255
121 243 255
121 243 255
121 243 255
121 243 255
121 243 255
121 243 255
121 243 255
121 243 255
121 243 255
121 243 255
121 243 255
121 243 255
121 243 255
121 243 255
121 243 255
121 243 255
121 243 255
121 243 255
121 243 255
121 243 255
121 243 255
121 243 255
121 243 255
121 243 255
121 243 255
121 243 255
121 243 255
121 243 255
121 243 255
121 243 255
121 243 255
121 243 255
121 243 255
121 243 255
121 243 255
121 243 255
121 243 255
121 243 255
121 243 255
121 243 255
121 243 255
121 243 255
121 243 255
121 243 255
121 243 255
121 243 255
121 243 255
121 243 255
121 243 255
121 243 255
121 243 255
121 243 255
121 243 255
121 243 255
121 242 255
121 242 255
121 242 255
121 242 255
121 242 255
121 242 255
121 242 255
121 242 255
121 242 255
121 242 255
121 242 255
121 242 255
121 242 255
121 242 255
121 242 255
121 242 255
121 242 255
121 242 255
121 242 255
121 242 255
121 242 255
121 242 255
121 242 255
121 242 255
121 242 255
121 242 255
121 242 255
121 242 255
121 242 255
121 242 255
121 242 255
121 242 255
121 242 255
121 242 255
121 242 255
121 242 255
121 242 255
121 242 255
121 242 255
121 242 255
121 242 255
121 242 255
121 242 255
121 242 255
121 242 255
121 242 255
121 242 255
121 242 255
121 242 255
121 242 255
121 242 255
121 242 255
121 242 255
121 242 255
121 242 255
121 242 255
121 242 255
121 242 255
121 242 255
121 242 255
121 242 255
121 242 255
121 242 255
121 242 255
121 242 255
121 242 255
121 242 255
121 242 255
121 242 255
121 242 255
121 242 255
121 242 255
120 241 255
120 241 255
120 241 255
120 241 255
120 241 255
120 241 255
120 241 255
120 241 255
120 241 255
120 241 255
120 241 255
120 241 255
120 241 255
120 241 255
120 241 255
120 241 255
120 241 255
120 241 255
120 241 255
120 241 255
120 241 255
120 241 255
120 241 255
120 241 255
120 241 255
120 241 255
120 241 255
120 241 255
120 241 255
120 241 255
120 241 255
120 241 255
120 241 255
120 241 255
120 241 255
120 241 255
120 241 255
120 241 255
120 241 255
120 241 255
120 241 255
120 241 255
120 241 255
120 241 255
120 241 255
120 241 255
120 241 255
120 241 255
120 241 255
120 241 255
120 241 255
120 241 255
120 241 255
120 241 255
120 241 255
120 241 255
120 241 255
120 241 255
120 241 255
120 241 255
120 241 255
120 241 255
120 241 255
120 241 255
120 241 255
120 241 255
120 241 255
120 241 255
120 241 255
120 241 255
120 241 255
120 241 255
120 240 255
120 240 255
120 240 255
120 240 255
120 240 255
120 240 255
120 240 255
120 240 255
120 240 255
120 240 255
120 240 255
120 240 255
120 240 255
120 240 255
120 240 255
120 240 255
120 240 255
120 240 255
120 240 255
120 240 255
120 240 255
120 240 255
120 240 255
120 240 255
120 240 255
120 240 255
120 240 255
120 240 255
120 240 255
120 240 255
120 240 255
120 240 255
120 240 255
120 240 255
120 240 255
120 240 255
120 240 255
120 240 255
120 240 255
120 240 255
120 240 255
120 240 255
120 240 255
120 240 255
120 240 255
120 240 255
120 240 255
120 240 255
120 240 255
120 240 255
120 240 255
120 240 255
120 240 255
120 240 255
120 240 255
120 240 255
120 240 255
120 240 255
120 240 255
120 240 255
120 240 255
120 240 255
120 240 255
120 240 255
120 240 255
120 240 255
120 240 255
120 240 255
120 240 255
120 240 255
120 240 255
120 240 255
119 239 255
119 239 255
119 239 255
119 239 255
119 239 255
119 239 255
119 239 255
119 239 255
119 239 255
119 239 255
119 239 255
119 239 255
119 239 255
119 239 255
119 239 255
119 239 255
119 239 255
119 239 255
119 239 255
119 239 255
119 239 255
119 239 255
119 239 255
119 239 255
119 239 255
119 239 255
119 239 255
119 239 255
119 239 255
119 239 255
119 239 255
119 239 255
119 239 255
119 239 255
119 239 255
119 239 255
119 239 255
119 239 255
119 239 255
119 239 255
119 239 255
119 239 255
119 239 255
119 239 255
119 239 255
119 239 255
119 239 255
119 239 255
119 239 255
119 239 255
119 239 255
119 239 255
119 239 255
119 239 255
119 239 255
119 239 255
119 239 255
119 239 255
119 239 255
119 239 255
119 239 255
119 239 255
119 239 255
119 239 255
119 239 255
119 239 255
119 239 255
119 239 255
119 239 255
119 239 255
119 239 255
119 239 255
119 237 255
119 237 255
119 237 255
119 237 255
119 237 255
119 237 255
119 237 255
119 237 255
119 237 255
119 237 255
119 237 255
119 237 255
119 237 255
119 237 255
119 237 255
119 237 255
119 237 255
119 237 255
119 237 255
119 237 255
119 237 255
119 237 255
119 237 255
119 237 255
119 237 255
119 237 255
119 237 255
119 237 255
119 237 255
119 237 255
119 237 255
119 237 255
119 237 255
119 237 255
119 237 255
119 237 255
119 237 255
119 237 255
119 237 255
119 237 255
119 237 255
119 237 255
119 237 255
119 237 255
119 237 255
119 237 255
119 237 255
119 237 255
119 237 255
119 237 255
119 237 255
119 237 255
119 237 255
119 237 255
119 237 255
119 237 255
119 237 255
119 237 255
119 237 255
119 237 255
119 237 255
119 237 255
119 237 255
119 237 255
119 237 255
119 237 255
119 237 255
119 237 255
119 237 255
119 237 255
119 237 255
119 237 255
118 236 255
118 236 255
118 236 255
118 236 255
118 236 255
118 236 255
118 236 255
118 236 255
118 236 255
118 236 255
118 236 255
118 236 255
118 236 255
118 236 255
118 236 255
118 236 255
118 236 255
118 236 255
118 236 255
118 236 255
118 236 255
118 236 255
118 236 255
118 236 255
118 236 255
118 236 255
118 236 255
118 236 255
118 236 255
118 236 255
118 236 255
118 236 255
118 236 255
118 236 255
118 236 255
118 236 255
118 236 255
118 236 255
118 236 255
118 236 255
118 236 255
118 236 255
118 236 255
118 236 255
118 236 255
118 236 255
118 236 255
118 236 255
118 236 255
118 236 255
118 236 255
118 236 255
118 236 255
118 236 255
118 236 255
118 236 255
118 236 255
118 236 255
118 236 255
118 236 255
118 236 255
118 236 255
118 236 255
118 236 255
118 236 255
118 236 255
118 236 255
118 236 255
118 236 255
118 236 255
118 236 255
118 236 255
118 235 255
118 235 255
118 235 255
118 235 255
118 235 255
118 235 255
118 235 255
118 235 255
118 235 255
118 235 255
118 235 255
118 235 255
118 235 255
118 235 255
118 235 255
118 235 255
118 235 255
118 235 255
118 235 255
118 235 255
118 235 255
118 235 255
118 235 255
118 235 255
118 235 255
118 235 255
118 235 255
118 235 255
118 235 255
118 235 255
118 235 255
118 235 255
118 235 255
118 235 255
118 235 255
118 235 255
118 235 255
118 235 255
118 235 255
118 235 255
118 235 255
118 235 255
118 235 255
118 235 255
118 235 255
118 235 255
118 235 255
118 235 255
118 235 255
118 235 255
118 235 255
118 235 255
118 235 255
118 235 255
118 235 255
118 235 255
118 235 255
118 235 255
118 235 255
118 235 255
118 235 255
118 235 255
118 235 255
118 235 255
118 235 255
118 235 255
118 235 255
118 235 255
118 235 255
118 235 255
118 235 255
118 235 255
117 234 255
117 234 255
117 234 255
117 234 255
117 234 255
117 234 255
117 234 255
117 234 255
117 234 255
117 234 255
117 234 255
117 234 255
117 234 255
117 234 255
117 234 255
117 234 255
117 234 255
117 234 255
117 234 255
117 234 255
117 234 255
117 234 255
117 234 255
117 234 255
117 234 255
117 234 255
117 234 255
117 234 255
117 234 255
117 234 255
117 234 255
117 234 255
117 234 255
117 234 255
117 234 255
117 234 255
117 234 255
117 234 255
117 234 255
117 234 255
117 234 255
117 234 255
117 234 255
117 234 255
117 234 255
117 234 255
117 234 255
117 234 255
117 234 255
117 234 255
117 234 255
117 234 255
117 234 255
117 234 255
117 234 255
117 234 255
117 234 255
117 234 255
117 234 255
117 234 255
117 234 255
117 234 255
117 234 255
117 234 255
117 234 255
117 234 255
117 234 255
117 234 255
117 234 255
117 234 255
117 234 255
117 234 255
117 233 255
117 233 255
117 233 255
117 233 255
117 233 255
117 233 255
117 233 255
117 233 255
117 233 255
117 233 255
117 233 255
117 233 255
117 233 255
117 233 255
117 233 255
117 233 255
117 233 255
117 233 255
117 233 255
117 233 255
117 233 255
117 233 255
117 233 255
117 233 255
117 233 255
117 233 255
117 233 255
117 233 255
117 233 255
117 233 255
117 233 255
117 233 255
117 233 255
117 233 255
117 233 255
117 233 255
117 233 255
117 233 255
117 233 255
117 233 255
117 233 255
117 233 255
117 233 255
117 233 255
117 233 255
117 233 255
117 233 255
117 233 255
117 233 255
117 233 255
117 233 255
117 233 255
117 233 255
117 233 255
117 233 255
117 233 255
117 233 255
117 233 255
117 233 255
117 233 255
117 233 255
117 233 255
117 233 255
117 233 255
117 233 255
117 233 255
117 233 255
117 233 255
117 233 255
117 233 255
117 233 255
117 233 255
116 232 255
116 232 255
116 232 255
116 232 255
116 232 255
116 232 255
116 232 255
116 232 255
116 232 255
116 232 255
116 232 255
116 232 255
116 232 255
116 232 255
116 232 255
116 232 255
116 232 255
116 232 255
116 232 255
116 232 255
116 232 255
116 232 255
116 232 255
116 232 255
116 232 255
116 232 255
116 232 255
116 232 255
116 232 255
116 232 255
116 232 255
116 232 255
116 232 255
116 232 255
116 232 255
116 232 255
116 232 255
116 232 255
116 232 255
116 232 255
116 232 255
116 232 255
116 232 255
116 232 255
116 232 255
116 232 255
116 232 255
116 232 255
116 232 255
116 232 255
116 232 255
116 232 255
116 232 255
116 232 255
116 232 255
116 232 255
116 232 255
116 232 255
116 232 255
116 232 255
116 232 255
116 232 255
116 232 255
116 232 255
116 232 255
116 232 255
116 232 255
116 232 255
116 232 255
116 232 255
116 232 255
116 232 255
115 231 255
115 231 255
115 231 255
115 231 255
115 231 255
115 231 255
115 231 255
115 231 255
115 231 255
115 231 255
115 231 255
115 231 255
115 231 255
115 231 255
115 231 255
115 231 255
115 231 255
115 231 255
115 231 255
115 231 255
115 231 255
115 231 255
115 231 255
115 231 255
115 231 255
115 231 255
115 231 255
115 231 255
115 231 255
115 231 255
115 231 255
115 231 255
115 231 255
115 231 255
115 231 255
115 231 255
115 231 255
115 231 255
115 231 255
115 231 255
115 231 255
115 231 255
115 231 255
115 231 255
115 231 255
115 231 255
115 231 255
115 231 255
115 231 255
115 231 255
115 231 255
115 231 255
115 231 255
115 231 255
115 231 255
115 231 255
115 231 255
115 231 255
115 231 255
115 231 255
115 231 255
115 231 255
115 231 255
115 231 255
115 231 255
115 231 255
115 231 255
115 231 255
115 231 255
115 231 255
115 231 255
115 231 255
115 230 255
115 230 255
115 230 255
115 230 255
115 230 255
115 230 255
115 230 255
115 230 255
115 230 255
115 230 255
115 230 255
115 230 255
115 230 255
115 230 255
115 230 255
115 230 255
115 230 255
115 230 255
115 230 255
115 230 255
115 230 255
115 230 255
115 230 255
115 230 255
115 230 255
115 230 255
115 230 255
115 230 255
115 230 255
115 230 255
115 230 255
115 230 255
115 230 255
115 230 255
115 230 255
115 230 255
115 230 255
115 230 255
115 230 255
115 230 255
115 230 255
115 230 255
115 230 255
115 230 255
115 230 255
115 230 255
115 230 255
115 230 255
115 230 255
115 230 255
115 230 255
115 230 255
115 230 255
115 230 255
115 230 255
115 230 255
115 230 255
115 230 255
115 230 255
115 230 255
115 230 255
115 230 255
115 230 255
115 230 255
115 230 255
115 230 255
115 230 255
115 230 255
115 230 255
115 230 255
115 230 255
115 230 255
114 229 255
114 229 255
114 229 255
114 229 255
114 229 255
114 229 255
114 229 255
114 229 255
114 229 255
114 229 255
114 229 255
114 229 255
114 229 255
114 229 255
114 229 255
114 229 255
114 229 255
114 229 255
114 229 255
114 229 255
114 229 255
114 229 255
114 229 255
114 229 255
114 229 255
114 229 255
114 229 255
114 229 255
114 229 255
114 229 255
114 229 255
114 229 255
114 229 255
114 229 255
114 229 255
114 229 255
114 229 255
114 229 255
114 229 255
114 229 255
114 229 255
114 229 255
114 229 255
114 229 255
114 229 255
114 229 255
114 229 255
114 229 255
114 229 255
114 229 255
114 229 255
114 229 255
114 229 255
114 229 255
114 229 255
114 229 255
114 229 255
114 229 255
114 229 255
114 229 255
114 229 255
114 229 255
114 229 255
114 229 255
114 229 255
114 229 255
114 229 255
114 229 255
114 229 255
114 229 255
114 229 255
114 229 255
114 228 255
114 228 255
114 228 255
114 228 255
114 228 255
114 228 255
114 228 255
114 228 255
114 228 255
114 228 255
114 228 255
114 228 255
114 228 255
114 228 255
114 228 255
114 228 255
114 228 255
114 228 255
114 228 255
114 228 255
114 228 255
114 228 255
114 228 255
114 228 255
114 228 255
114 228 255
114 228 255
114 228 255
114 228 255
114 228 255
114 228 255
114 228 255
114 228 255
114 228 255
114 228 255
114 228 255
114 228 255
114 228 255
114 228 255
114 228 255
114 228 255
114 228 255
114 228 255
114 228 255
114 228 255
114 228 255
114 228 255
114 228 255
114 228 255
114 228 255
114 228 255
114 228 255
114 228 255
114 228 255
114 228 255
114 228 255
114 228 255
114 228 255
114 228 255
114 228 255
114 228 255
114 228 255
114 228 255
114 228 255
114 228 255
114 228 255
114 228 255
114 228 255
114 228 255
114 228 255
114 228 255
114 228 255
113 227 255
113 227 255
113 227 255
113 227 255
113 227 255
113 227 255
113 227 255
113 227 255
113 227 255
113 227 255
113 227 255
113 227 255
113 227 255
113 227 255
113 227 255
113 227 255
113 227 255
113 227 255
113 227 255
113 227 255
113 227 255
113 227 255
113 227 255
113 227 255
113 227 255
113 227 255
113 227 255
113 227 255
113 227 255
113 227 255
113 227 255
113 227 255
113 227 255
113 227 255
113 227 255
113 227 255
113 227 255
113 227 255
113 227 255
113 227 255
113 227 255
113 227 255
113 227 255
113 227 255
113 227 255
113 227 255
113 227 255
113 227 255
113 227 255
113 227 255
113 227 255
113 227 255
113 227 255
113 227 255
113 227 255
113 227 255
113 227 255
113 227 255
113 227 255
113 227 255
113 227 255
113 227 255
113 227 255
113 227 255
113 227 255
113 227 255
113 227 255
113 227 255
113 227 255
113 227 255
113 227 255
113 227 255
113 225 255
113 225 255
113 225 255
113 225 255
113 225 255
113 225 255
113 225 255
113 225 255
113 225 255
113 225 255
113 225 255
113 225 255
113 225 255
113 225 255
113 225 255
113 225 255
113 225 255
113 225 255
113 225 255
113 225 255
113 225 255
113 225 255
113 225 255
113 225 255
113 225 255
113 225 255
113 225 255
113 225 255
113 225 255
113 225 255
113 225 255
113 225 255
113 225 255
113 225 255
113 225 255
113 225 255
113 225 255
113 225 255
113 225 255
113 225 255
113 225 255
113 225 255
113 225 255
113 225 255
113 225 255
113 225 255
113 225 255
113 225 255
113 225 255
113 225 255
113 225 255
113 225 255
113 225 255
113 225 255
113 225 255
113 225 255
113 225 255
113 225 255
113 225 255
113 225 255
113 225 255
113 225 255
113 225 255
113 225 255
113 225 255
113 225 255
113 225 255
113 225 255
113 225 255
113 225 255
113 225 255
113 225 255
112 224 255
112 224 255
112 224 255
112 224 255
112 224 255
112 224 255
112 224 255
112 224 255
112 224 255
112 224 255
112 224 255
112 224 255
112 224 255
112 224 255
112 224 255
112 224 255
112 224 255
112 224 255
112 224 255
112 224 255
112 224 255
112 224 255
112 224 255
112 224 255
112 224 255
112 224 255
112 224 255
112 224 255
112 224 255
112 224 255
112 224 255
112 224 255
112 224 255
112 224 255
112 224 255
112 224 255
112 224 255
112 224 255
112 224 255
112 224 255
112 224 255
112 224 255
112 224 255
112 224 255
112 224 255
112 224 255
112 224 255
112 224 255
112 224 255
112 224 255
112 224 255
112 224 255
112 224 255
112 224 255
112 224 255
112 224 255
112 224 255
112 224 255
112 224 255
112 224 255
112 224 255
112 224 255
112 224 255
112 224 255
112 224 255
112 224 255
112 224 255
112 224 255
112 224 255
112 224 255
112 224 255
112 224 255
112 223 255
112 223 255
112 223 255
112 223 255
112 223 255
112 223 255
112 223 255
112 223 255
112 223 255
112 223 255
112 223 255
112 223 255
112 223 255
112 223 255
112 223 255
112 223 255
112 223 255
112 223 255
112 223 255
112 223 255
112 223 255
112 223 255
112 223 255
112 223 255
112 223 255
112 223 255
112 223 255
112 223 255
112 223 255
112 223 255
112 223 255
112 223 255
112 223 255
112 223 255
112 223 255
112 223 255
112 223 255
112 223 255
112 223 255
112 223 255
112 223 255
112 223 255
112 223 255
112 223 255
112 223 255
112 223 255
112 223 255
112 223 255
112 223 255
112 223 255
112 223 255
112 223 255
112 223 255
112 223 255
112 223 255
112 223 255
112 223 255
112 223 255
112 223 255
112 223 255
112 223 255
112 223 255
112 223 255
112 223 255
112 223 255
112 223 255
112 223 255
112 223 255
112 223 255
112 223 255
112 223 255
112 223 255
111 222 255
111 222 255
111 222 255
111 222 255
111 222 255
111 222 255
111 222 255
111 222 255
111 222 255
111 222 255
111 222 255
111 222 255
111 222 255
111 222 255
111 222 255
111 222 255
111 222 255
111 222 255
111 222 255
111 222 255
111 222 255
111 222 255
111 222 255
111 222 255
111 222 255
111 222 255
111 222 255
111 222 255
111 222 255
111 222 255
111 222 255
111 222 255
111 222 255
111 222 255
111 222 255
111 222 255
111 222 255
111 222 255
111 222 255
111 222 255
111 222 255
111 222 255
111 222 255
111 222 255
111 222 255
111 222 255
111 222 255
111 222 255
111 222 255
111 222 255
111 222 255
111 222 255
111 222 255
111 222 255
111 222 255
111 222 255
111 222 255
111 222 255
111 222 255
111 222 255
111 222 255
111 222 255
111 222 255
111 222 255
111 222 255
111 222 255
111 222 255
111 222 255
111 222 255
111 222 255
111 222 255
111 222 255
111 221 255
111 221 255
111 221 255
111 221 255
111 221 255
111 221 255
111 221 255
111 221 255
111 221 255
111 221 255
111 221 255
111 221 255
111 221 255
111 221 255
111 221 255
111 221 255
111 221 255
111 221 255
111 221 255
111 221 255
111 221 255
111 221 255
111 221 255
111 221 255
111 221 255
111 221 255
111 221 255
111 221 255
111 221 255
111 221 255
111 221 255
111 221 255
111 221 255
111 221 255
111 221 255
111 221 255
111 221 255
111 221 255
111 221 255
111 221 255
111 221 255
111 221 255
111 221 255
111 221 255
111 221 255
111 221 255
111 221 255
111 221 255
111 221 255
111 221 255
111 221 255
111 221 255
111 221 255
111 221 255
111 221 255
111 221 255
111 221 255
111 221 255
111 221 255
111 221 255
111 221 255
111 221 255
111 221 255
111 221 255
111 221 255
111 221 255
111 221 255
111 221 255
111 221 255
111 221 255
111 221 255
111 221 255
110 220 255
110 220 255
110 220 255
110 220 255
110 220 255
110 220 255
110 220 255
110 220 255
110 220 255
110 220 255
110 220 255
110 220 255
110 220 255
110 220 255
110 220 255
110 220 255
110 220 255
110 220 255
110 220 255
110 220 255
110 220 255
110 220 255
110 220 255
110 220 255
110 220 255
110 220 255
110 220 255
110 220 255
110 220 255
110 220 255
110 220 255
110 220 255
110 220 255
110 220 255
110 220 255
110 220 255
110 220 255
110 220 255
110 220 255
110 220 255
110 220 255
110 220 255
110 220 255
110 220 255
110 220 255
110 220 255
110 220 255
110 220 255
110 220 255
110 220 255
110 220 255
110 220 255
110 220 255
110 220 255
110 220 255
110 220 255
110 220 255
110 220 255
110 220 255
110 220 255
110 220 255
110 220 255
110 220 255
110 220 255
110 220 255
110 220 255
110 220 255
110 220 255
110 220 255
110 220 255
110 220 255
110 220 255
109 219 255
109 219 255
109 219 255
109 219 255
109 219 255
109 219 255
109 219 255
109 219 255
109 219 255
109 219 255
109 219 255
109 219 255
109 219 255
109 219 255
109 219 255
109 219 255
109 219 255
109 219 255
109 219 255
109 219 255
109 219 255
109 219 255
109 219 255
109 219 255
109 219 255
109 219 255
109 219 255
109 219 255
109 219 255
109 219 255
109 219 255
109 219 255
109 219 255
109 219 255
109 219 255
109 219 255
109 219 255
109 219 255
109 219 255
109 219 255
109 219 255
109 219 255
109 219 255
109 219 255
109 219 255
109 219 255
109 219 255
109 219 255
109 219 255
109 219 255
109 219 255
109 219 255
109 219 255
109 219 255
109 219 255
109 219 255
109 219 255
109 219 255
109 219 255
109 219 255
109 219 255
109 219 255
109 219 255
109 219 255
109 219 255
109 219 255
109 219 255
109 219 255
109 219 255
109 219 255
109 219 255
109 219 255
109 218 255
109 218 255
109 218 255
109 218 255
109 218 255
109 218 255
109 218 255
109 218 255
109 218 255
109 218 255
109 218 255
109 218 255
109 218 255
109 218 255
109 218 255
109 218 255
109 218 255
109 218 255
109 218 255
109 218 255
109 218 255
109 218 255
109 218 255
109 218 255
109 218 255
109 218 255
109 218 255
109 218 255
109 218 255
109 218 255
109 218 255
109 218 255
109 218 255
109 218 255
109 218 255
109 218 255
109 218 255
109 218 255
109 218 255
109 218 255
109 218 255
109 218 255
109 218 255
109 218 255
109 218 255
109 218 255
109 218 255
109 218 255
109 218 255
109 218 255
109 218 255
109 218 255
109 218 255
109 218 255
109 218 255
109 218 255
109 218 255
109 218 255
109 218 255
109 218 255
109 218 255
109 218 255
109 218 255
109 218 255
109 218 255
109 218 255
109 218 255
109 218 255
109 218 255
109 218 255
109 218 255
109 218 255
108 217 255
108 217 255
108 217 255
108 217 255
108 217 255
108 217 255
108 217 255
108 217 255
108 217 255
108 217 255
108 217 255
108 217 255
108 217 255
108 217 255
108 217 255
108 217 255
108 217 255
108 217 255
108 217 255
108 217 255
108 217 255
108 217 255
108 217 255
108 217 255
108 217 255
108 217 255
108 217 255
108 217 255
108 217 255
108 217 255
108 217 255
108 217 255
108 217 255
108 217 255
108 217 255
108 217 255
108 217 255
108 217 255
108 217 255
108 217 255
108 217 255
108 217 255
108 217 255
108 217 255
108 217 255
108 217 255
108 217 255
108 217 255
108 217 255
108 217 255
108 217 255
108 217 255
108 217 255
108 217 255
108 217 255
108 217 255
108 217 255
108 217 255
108 217 255
108 217 255
108 217 255
108 217 255
108 217 255
108 217 255
108 217 255
108 217 255
108 217 255
108 217 255
108 217 255
108 217 255
108 217 255
108 217 255
108 216 255
108 216 255
108 216 255
108 216 255
108 216 255
108 216 255
108 216 255
108 216 255
108 216 255
108 216 255
108 216 255
108 216 255
108 216 255
108 216 255
108 216 255
108 216 255
108 216 255
108 216 255
108 216 255
108 216 255
108 216 255
108 216 255
108 216 255
108 216 255
108 216 255
108 216 255
108 216 255
108 216 255
108 216 255
108 216 255
108 216 255
108 216 255
108 216 255
108 216 255
108 216 255
108 216 255
108 216 255
108 216 255
108 216 255
108 216 255
108 216 255
108 216 255
108 216 255
108 216 255
108 216 255
108 216 255
108 216 255
108 216 255
108 216 255
108 216 255
108 216 255
108 216 255
108 216 255
108 216 255
108 216 255
108 216 255
108 216 255
108 216 255
108 216 255
108 216 255
108 216 255
108 216 255
108 216 255
108 216 255
108 216 255
108 216 255
108 216 255
108 216 255
108 216 255
108 216 255
108 216 255
108 216 255
107 215 255
107 215 255
107 215 255
107 215 255
107 215 255
107 215 255
107 215 255
107 215 255
107 215 255
107 215 255
107 215 255
107 215 255
107 215 255
107 215 255
107 215 255
107 215 255
107 215 255
107 215 255
107 215 255
107 215 255
107 215 255
107 215 255
107 215 255
107 215 255
107 215 255
107 215 255
107 215 255
107 215 255
107 215 255
107 215 255
107 215 255
107 215 255
107 215 255
107 215 255
107 215 255
107 215 255
107 215 255
107 215 255
107 215 255
107 215 255
107 215 255
107 215 255
107 215 255
107 215 255
107 215 255
107 215 255
107 215 255
107 215 255
107 215 255
107 215 255
107 215 255
107 215 255
107 215 255
107 215 255
107 215 255
107 215 255
107 215 255
107 215 255
107 215 255
107 215 255
107 215 255
107 215 255
107 215 255
107 215 255
107 215 255
107 215 255
107 215 255
107 215 255
107 215 255
107 215 255
107 215 255
107 215 255
107 213 255
107 213 255
107 213 255
107 213 255
107 213 255
107 213 255
107 213 255
107 213 255
107 213 255
107 213 255
107 213 255
107 213 255
107 213 255
107 213 255
107 213 255
107 213 255
107 213 255
107 213 255
107 213 255
107 213 255
107 213 255
107 213 255
107 213 255
107 213 255
107 213 255
107 213 255
107 213 255
107 213 255
107 213 255
107 213 255
107 213 255
107 213 255
107 213 255
107 213 255
107 213 255
107 213 255
107 213 255
107 213 255
107 213 255
107 213 255
107 213 255
107 213 255
107 213 255
107 213 255
107 213 255
107 213 255
107 213 255
107 213 255
107 213 255
107 213 255
107 213 255
107 213 255
107 213 255
107 213 255
107 213 255
107 213 255
107 213 255
107 213 255
107 213 255
107 213 255
107 213 255
107 213 255
107 213 255
107 213 255
107 213 255
107 213 255
107 213 255
107 213 255
107 213 255
107 213 255
107 213 255
107 213 255
106 212 255
106 212 255
106 212 255
106 212 255
106 212 255
106 212 255
106 212 255
106 212 255
106 212 255
106 212 255
106 212 255
106 212 255
106 212 255
106 212 255
106 212 255
106 212 255
106 212 255
106 212 255
106 212 255
106 212 255
106 212 255
106 212 255
106 212 255
106 212 255
106 212 255
106 212 255
106 212 255
106 212 255
106 212 255
106 212 255
106 212 255
106 212 255
106 212 255
106 212 255
106 212 255
106 212 255
106 212 255
106 212 255
106 212 255
106 212 255
106 212 255
106 212 255
106 212 255
106 212 255
106 212 255
106 212 255
106 212 255
106 212 255
106 212 255
106 212 255
106 212 255
106 212 255
106 212 255
106 212 255
106 212 255
106 212 255
106 212 255
106 212 255
106 212 255
106 212 255
106 212 255
106 212 255
106 212 255
106 212 255
106 212 255
106 212 255
106 212 255
106 212 255
106 212 255
106 212 255
106 212 255
106 212 255
106 211 255
106 211 255
106 211 255
106 211 255
106 211 255
106 211 255
106 211 255
106 211 255
106 211 255
106 211 255
106 211 255
106 211 255
106 211 255
106 211 255
106 211 255
106 211 255
106 211 255
106 211 255
106 211 255
106 211 255
106 211 255
106 211 255
106 211 255
106 211 255
106 211 255
106 211 255
106 211 255
106 211 255
106 211 255
106 211 255
106 211 255
106 211 255
106 211 255
106 211 255
106 211 255
106 211 255
106 211 255
106 211 255
106 211 255
106 211 255
106 211 255
106 211 255
106 211 255
106 211 255
106 211 255
106 211 255
106 211 255
106 211 255
106 211 255
106 211 255
106 211 255
106 211 255
106 211 255
106 211 255
106 211 255
106 211 255
106 211 255
106 211 255
106 211 255
106 211 255
106 211 255
106 211 255
106 211 255
106 211 255
106 211 255
106 211 255
106 211 255
106 211 255
106 211 255
106 211 255
106 211 255
106 211 255
105 210 255
105 210 255
105 210 255
105 210 255
105 210 255
105 210 255
105 210 255
105 210 255
105 210 255
105 210 255
105 210 255
105 210 255
105 210 255
105 210 255
105 210 255
105 210 255
105 210 255
105 210 255
105 210 255
105 210 255
105 210 255
105 210 255
105 210 255
105 210 255
105 210 255
105 210 255
105 210 255
105 210 255
105 210 255
105 210 255
105 210 255
105 210 255
105 210 255
105 210 255
105 210 255
105 210 255
105 210 255
105 210 255
105 210 255
105 210 255
105 210 255
105 210 255
105 210 255
105 210 255
105 210 255
105 210 255
105 210 255
105 210 255
105 210 255
105 210 255
105 210 255
105 210 255
105 210 255
105 210 255
105 210 255
105 210 255
105 210 255
105 210 255
105 210 255
105 210 255
105 210 255
105 210 255
105 210 255
105 210 255
105 210 255
105 210 255
105 210 255
105 210 255
105 210 255
105 210 255
105 210 255
105 210 255
105 209 255
105 209 255
105 209 255
105 209 255
105 209 255
105 209 255
105 209 255
105 209 255
105 209 255
105 209 255
105 209 255
105 209 255
105 209 255
105 209 255
105 209 255
105 209 255
105 209 255
105 209 255
105 209 255
105 209 255
105 209 255
105 209 255
105 209 255
105 209 255
105 209 255
105 209 255
105 209 255
105 209 255
105 209 255
105 209 255
105 209 255
105 209 255
105 209 255
105 209 255
105 209 255
105 209 255
105 209 255
105 209 255
105 209 255
105 209 255
105 209 255
105 209 255
105 209 255
105 209 255
105 209 255
105 209 255
105 209 255
105 209 255
105 209 255
105 209 255
105 209 255
105 209 255
105 209 255
105 209 255
105 209 255
105 209 255
105 209 255
105 209 255
105 209 255
105 209 255
105 209 255
105 209 255
105 209 255
105 209 255
105 209 255
105 209 255
105 209 255
105 209 255
105 209 255
105 209 255
105 209 255
105 209 255
104 208 255
104 208 255
104 208 255
104 208 255
104 208 255
104 208 255
104 208 255
104 208 255
104 208 255
104 208 255
104 208 255
104 208 255
104 208 255
104 208 255
104 208 255
104 208 255
104 208 255
104 208 255
104 208 255
104 208 255
104 208 255
104 208 255
104 208 255
104 208 255
104 208 255
104 208 255
104 208 255
104 208 255
104 208 255
104 208 255
104 208 255
104 208 255
104 208 255
104 208 255
104 208 255
104 208 255
104 208 255
104 208 255
104 208 255
104 208 255
104 208 255
104 208 255
104 208 255
104 208 255
104 208 255
104 208 255
104 208 255
104 208 255
104 208 255
104 208 255
104 208 255
104 208 255
104 208 255
104 208 255
104 208 255
104 208 255
104 208 255
104 208 255
104 208 255
104 208 255
104 208 255
104 208 255
104 208 255
104 208 255
104 208 255
104 208 255
104 208 255
104 208 255
104 208 255
104 208 255
104 208 255
104 208 255
103 207 255
103 207 255
103 207 255
103 207 255
103 207 255
103 207 255
103 207 255
103 207 255
103 207 255
103 207 255
103 207 255
103 207 255
103 207 255
103 207 255
103 207 255
103 207 255
103 207 255
103 207 255
103 207 255
103 207 255
103 207 255
103 207 255
103 207 255
103 207 255
103 207 255
103 207 255
103 207 255
103 207 255
103 207 255
103 207 255
103 207 255
103 207 255
103 207 255
103 207 255
103 207 255
103 207 255
103 207 255
103 207 255
103 207 255
103 207 255
103 207 255
103 207 255
103 207 255
103 207 255
103 207 255
103 207 255
103 207 255
103 207 255
103 207 255
103 207 255
103 207 255
103 207 255
103 207 255
103 207 255
103 207 255
103 207 255
103 207 255
103 207 255
103 207 255
103 207 255
103 207 255
103 207 255
103 207 255
103 207 255
103 207 255
103 207 255
103 207 255
103 207 255
103 207 255
103 207 255
103 207 255
103 207 255
103 206 255
103 206 255
103 206 255
103 206 255
103 206 255
103 206 255
103 206 255
103 206 255
103 206 255
103 206 255
103 206 255
103 206 255
103 206 255
103 206 255
103 206 255
103 206 255
103 206 255
103 206 255
103 206 255
103 206 255
103 206 255
103 206 255
103 206 255
103 206 255
103 206 255
103 206 255
103 206 255
103 206 255
103 206 255
103 206 255
103 206 255
103 206 255
103 206 255
103 206 255
103 206 255
103 206 255
103 206 255
103 206 255
103 206 255
103 206 255
103 206 255
103 206 255
103 206 255
103 206 255
103 206 255
103 206 255
103 206 255
103 206 255
103 206 255
103 206 255
103 206 255
103 206 255
103 206 255
103 206 255
103 206 255
103 206 255
103 206 255
103 206 255
103 206 255
103 206 255
103 206 255
103 206 255
103 206 255
103 206 255
103 206 255
103 206 255
103 206 255
103 206 255
103 206 255
103 206 255
103 206 255
103 206 255
102 205 255
102 205 255
102 205 255
102 205 255
102 205 255
102 205 255
102 205 255
102 205 255
102 205 255
102 205 255
102 205 255
102 205 255
102 205 255
102 205 255
102 205 255
102 205 255
102 205 255
102 205 255
102 205 255
102 205 255
102 205 255
102 205 255
102 205 255
102 205 255
102 205 255
102 205 255
102 205 255
102 205 255
102 205 255
102 205 255
102 205 255
102 205 255
102 205 255
102 205 255
102 205 255
102 205 255
102 205 255
102 205 255
102 205 255
102 205 255
102 205 255
102 205 255
102 205 255
102 205 255
102 205 255
102 205 255
102 205 255
102 205 255
102 205 255
102 205 255
102 205 255
102 205 255
102 205 255
102 205 255
102 205 255
102 205 255
102 205 255
102 205 255
102 205 255
102 205 255
102 205 255
102 205 255
102 205 255
102 205 255
102 205 255
102 205 255
102 205 255
102 205 255
102 205 255
102 205 255
102 205 255
102 205 255
102 204 255
102 204 255
102 204 255
102 204 255
102 204 255
102 204 255
102 204 255
102 204 255
102 204 255
102 204 255
102 204 255
102 204 255
102 204 255
102 204 255
102 204 255
102 204 255
102 204 255
102 204 255
102 204 255
102 204 255
102 204 255
102 204 255
102 204 255
102 204 255
102 204 255
102 204 255
102 204 255
102 204 255
102 204 255
102 204 255
102 204 255
102 204 255
102 204 255
102 204 255
102 204 255
102 204 255
102 204 255
102 204 255
102 204 255
102 204 255
102 204 255
102 204 255
102 204 255
102 204 255
102 204 255
102 204 255
102 204 255
102 204 255
102 204 255
102 204 255
102 204 255
102 204 255
102 204 255
102 204 255
102 204 255
102 204 255
102 204 255
102 204 255
102 204 255
102 204 255
102 204 255
102 204 255
102 204 255
102 204 255
102 204 255
102 204 255
102 204 255
102 204 255
102 204 255
102 204 255
102 204 255
102 204 255
101 202 255
101 202 255
101 202 255
101 202 255
101 202 255
101 202 255
101 202 255
101 202 255
101 202 255
101 202 255
101 202 255
101 202 255
101 202 255
101 202 255
101 202 255
101 202 255
101 202 255
101 202 255
101 202 255
101 202 255
101 202 255
101 202 255
101 202 255
101 202 255
101 202 255
101 202 255
101 202 255
101 202 255
101 202 255
101 202 255
101 202 255
101 202 255
101 202 255
101 202 255
101 202 255
101 202 255
101 202 255
101 202 255
101 202 255
101 202 255
101 202 255
101 202 255
101 202 255
101 202 255
101 202 255
101 202 255
101 202 255
101 202 255
101 202 255
101 202 255
101 202 255
101 202 255
101 202 255
101 202 255
101 202 255
101 202 255
101 202 255
101 202 255
101 202 255
101 202 255
101 202 255
101 202 255
101 202 255
101 202 255
101 202 255
101 202 255
101 202 255
101 202 255
101 202 255
101 202 255
101 202 255
101 202 255
101 201 255
101 201 255
101 201 255
101 201 255
101 201 255
101 201 255
101 201 255
101 201 255
101 201 255
101 201 255
101 201 255
101 201 255
101 201 255
101 201 255
101 201 255
101 201 255
101 201 255
101 201 255
101 201 255
101 201 255
101 201 255
101 201 255
101 201 255
101 201 255
101 201 255
101 201 255
101 201 255
101 201 255
101 201 255
101 201 255
101 201 255
101 201 255
101 201 255
101 201 255
101 201 255
101 201 255
101 201 255
101 201 255
101 201 255
101 201 255
101 201 255
101 201 255
101 201 255
101 201 255
101 201 255
101 201 255
101 201 255
101 201 255
101 201 255
101 201 255
101 201 255
101 201 255
101 201 255
101 201 255
101 201 255
101 201 255
101 201 255
101 201 255
101 201 255
101 201 255
101 201 255
101 201 255
101 201 255
101 201 255
101 201 255
101 201 255
101 201 255
101 201 255
101 201 255
101 201 255
101 201 255
101 201 255
100 200 255
100 200 255
100 200 255
100 200 255
100 200 255
100 200 255
100 200 255
100 200 255
100 200 255
100 200 255
100 200 255
100 200 255
100 200 255
100 200 255
100 200 255
100 200 255
100 200 255
100 200 255
100 200 255
100 200 255
100 200 255
100 200 255
100 200 255
100 200 255
100 200 255
100 200 255
100 200 255
100 200 255
100 200 255
100 200 255
100 200 255
100 200 255
100 200 255
100 200 255
100 200 255
100 200 255
100 200 255
100 200 255
100 200 255
100 200 255
100 200 255
100 200 255
100 200 255
100 200 255
100 200 255
100 200 255
100 200 255
100 200 255
100 200 255
100 200 255
100 200 255
100 200 255
100 200 255
100 200 255
100 200 255
100 200 255
100 200 255
100 200 255
100 200 255
100 200 255
100 200 255
100 200 255
100 200 255
100 200 255
100 200 255
100 200 255
100 200 255
100 200 255
100 200 255
100 200 255
100 200 255
100 200 255
100 199 255
100 199 255
100 199 255
100 199 255
100 199 255
100 199 255
100 199 255
100 199 255
100 199 255
100 199 255
100 199 255
100 199 255
100 199 255
100 199 255
100 199 255
100 199 255
100 199 255
100 199 255
100 199 255
100 199 255
100 199 255
100 199 255
100 199 255
100 199 255
100 199 255
100 199 255
100 199 255
100 199 255
100 199 255
100 199 255
100 199 255
100 199 255
100 199 255
100 199 255
100 199 255
100 199 255
100 199 255
100 199 255
100 199 255
100 199 255
100 199 255
100 199 255
100 199 255
100 199 255
100 199 255
100 199 255
100 199 255
100 199 255
100 199 255
100 199 255
100 199 255
100 199 255
100 199 255
100 199 255
100 199 255
100 199 255
100 199 255
100 199 255
100 199 255
100 199 255
100 199 255
100 199 255
100 199 255
100 199 255
100 199 255
100 199 255
100 199 255
100 199 255
100 199 255
100 199 255
100 199 255
100 199 255
99 198 255
99 198 255
99 198 255
99 198 255
99 198 255
99 198 255
99 198 255
99 198 255
99 198 255
99 198 255
99 198 255
99 198 255
99 198 255
99 198 255
99 198 255
99 198 255
99 198 255
99 198 255
99 198 255
99 198 255
99 198 255
99 198 255
99 198 255
99 198 255
99 198 255
99 198 255
99 198 255
99 198 255
99 198 255
99 198 255
99 198 255
99 198 255
99 198 255
99 198 255
99 198 255
99 198 255
99 198 255
99 198 255
99 198 255
99 198 255
99 198 255
99 198 255
99 198 255
99 198 255
99 198 255
99 198 255
99 198 255
99 198 255
99 198 255
99 198 255
99 198 255
99 198 255
99 198 255
99 198 255
99 198 255
99 198 255
99 198 255
99 198 255
99 198 255
99 198 255
99 198 255
99 198 255
99 198 255
99 198 255
99 198 255
99 198 255
99 198 255
99 198 255
99 198 255
99 198 255
99 198 255
99 198 255
98 197 255
98 197 255
98 197 255
98 197 255
98 197 255
98 197 255
98 197 255
98 197 255
98 197 255
98 197 255
98 197 255
98 197 255
98 197 255
98 197 255
98 197 255
98 197 255
98 197 255
98 197 255
98 197 255
98 197 255
98 197 255
98 197 255
98 197 255
98 197 255
98 197 255
98 197 255
98 197 255
98 197 255
98 197 255
98 197 255
98 197 255
98 197 255
98 197 255
98 197 255
98 197 255
98 197 255
98 197 255
98 197 255
98 197 255
98 197 255
98 197 255
98 197 255
98 197 255
98 197 255
98 197 255
98 197 255
98 197 255
98 197 255
98 197 255
98 197 255
98 197 255
98 197 255
98 197 255
98 197 255
98 197 255
98 197 255
98 197 255
98 197 255
98 197 255
98 197 255
98 197 255
98 197 255
98 197 255
98 197 255
98 197 255
98 197 255
98 197 255
98 197 255
98 197 255
98 197 255
98 197 255
98 197 255
98 196 255
98 196 255
98 196 255
98 196 255
98 196 255
98 196 255
98 196 255
98 196 255
98 196 255
98 196 255
98 196 255
98 196 255
98 196 255
98 196 255
98 196 255
98 196 255
98 196 255
98 196 255
98 196 255
98 196 255
98 196 255
98 196 255
98 196 255
98 196 255
98 196 255
98 196 255
98 196 255
98 196 255
98 196 255
98 196 255
98 196 255
98 196 255
98 196 255
98 196 255
98 196 255
98 196 255
98 196 255
98 196 255
98 196 255
98 196 255
98 196 255
98 196 255
98 196 255
98 196 255
98 196 255
98 196 255
98 196 255
98 196 255
98 196 255
98 196 255
98 196 255
98 196 255
98 196 255
98 196 255
98 196 255
98 196 255
98 196 255
98 196 255
98 196 255
98 196 255
98 196 255
98 196 255
98 196 255
98 196 255
98 196 255
98 196 255
98 196 255
98 196 255
98 196 255
98 196 255
98 196 255
98 196 255
97 195 255
97 195 255
97 195 255
97 195 255
97 195 255
97 195 255
97 195 255
97 195 255
97 195 255
97 195 255
97 195 255
97 195 255
97 195 255
97 195 255
97 195 255
97 195 255
97 195 255
97 195 255
97 195 255
97 195 255
97 195 255
97 195 255
97 195 255
97 195 255
97 195 255
97 195 255
97 195 255
97 195 255
97 195 255
97 195 255
97 195 255
97 195 255
97 195 255
97 195 255
97 195 255
97 195 255
97 195 255
97 195 255
97 195 255
97 195 255
97 195 255
97 195 255
97 195 255
97 195 255
97 195 255
97 195 255
97 195 255
97 195 255
97 195 255
97 195 255
97 195 255
97 195 255
97 195 255
97 195 255
97 195 255
97 195 255
97 195 255
97 195 255
97 195 255
97 195 255
97 195 255
97 195 255
97 195 255
97 195 255
97 195 255
97 195 255
97 195 255
97 195 255
97 195 255
97 195 255
97 195 255
97 195 255
97 194 255
97 194 255
97 194 255
97 194 255
97 194 255
97 194 255
97 194 255
97 194 255
97 194 255
97 194 255
97 194 255
97 194 255
97 194 255
97 194 255
97 194 255
97 194 255
97 194 255
97 194 255
97 194 255
97 194 255
97 194 255
97 194 255
97 194 255
97 194 255
97 194 255
97 194 255
97 194 255
97 194 255
97 194 255
97 194 255
97 194 255
97 194 255
97 194 255
97 194 255
97 194 255
97 194 255
97 194 255
97 194 255
97 194 255
97 194 255
97 194 255
97 194 255
97 194 255
97 194 255
97 194 255
97 194 255
97 194 255
97 194 255
97 194 255
97 194 255
97 194 255
97 194 255
97 194 255
97 194 255
97 194 255
97 194 255
97 194 255
97 194 255
97 194 255
97 194 255
97 194 255
97 194 255
97 194 255
97 194 255
97 194 255
97 194 255
97 194 255
97 194 255
97 194 255
97 194 255
97 194 255
97 194 255
96 193 255
96 193 255
96 193 255
96 193 255
96 193 255
96 193 255
96 193 255
96 193 255
96 193 255
96 193 255
96 193 255
96 193 255
96 193 255
96 193 255
96 193 255
96 193 255
96 193 255
96 193 255
96 193 255
96 193 255
96 193 255
96 193 255
96 193 255
96 193 255
96 193 255
96 193 255
96 193 255
96 193 255
96 193 255
96 193 255
96 193 255
96 193 255
96 193 255
96 193 255
96 193 255
96 193 255
96 193 255
96 193 255
96 193 255
96 193 255
96 193 255
96 193 255
96 193 255
96 193 255
96 193 255
96 193 255
96 193 255
96 193 255
96 193 255
96 193 255
96 193 255
96 193 255
96 193 255
96 193 255
96 193 255
96 193 255
96 193 255
96 193 255
96 193 255
96 193 255
96 193 255
96 193 255
96 193 255
96 193 255
96 193 255
96 193 255
96 193 255
96 193 255
96 193 255
96 193 255
96 193 255
96 193 255
96 192 255
96 192 255
96 192 255
96 192 255
96 192 255
96 192 255
96 192 255
96 192 255
96 192 255
96 192 255
96 192 255
96 192 255
96 192 255
96 192 255
96 192 255
96 192 255
96 192 255
96 192 255
96 192 255
96 192 255
96 192 255
96 192 255
96 192 255
96 192 255
96 192 255
96 192 255
96 192 255
96 192 255
96 192 255
96 192 255
96 192 255
96 192 255
96 192 255
96 192 255
96 192 255
96 192 255
96 192 255
96 192 255
96 192 255
96 192 255
96 192 255
96 192 255
96 192 255
96 192 255
96 192 255
96 192 255
96 192 255
96 192 255
96 192 255
96 192 255
96 192 255
96 192 255
96 192 255
96 192 255
96 192 255
96 192 255
96 192 255
96 192 255
96 192 255
96 192 255
96 192 255
96 192 255
96 192 255
96 192 255
96 192 255
96 192 255
96 192 255
96 192 255
96 192 255
96 192 255
96 192 255
96 192 255
95 190 255
95 190 255
95 190 255
95 190 255
95 190 255
95 190 255
95 190 255
95 190 255
95 190 255
95 190 255
95 190 255
95 190 255
95 190 255
95 190 255
95 190 255
95 190 255
95 190 255
95 190 255
95 190 255
95 190 255
95 190 255
95 190 255
95 190 255
95 190 255
95 190 255
95 190 255
95 190 255
95 190 255
95 190 255
95 190 255
95 190 255
95 190 255
95 190 255
95 190 255
95 190 255
95 190 255
95 190 255
95 190 255
95 190 255
95 190 255
95 190 255
95 190 255
95 190 255
95 190 255
95 190 255
95 190 255
95 190 255
95 190 255
95 190 255
95 190 255
95 190 255
95 190 255
95 190 255
95 190 255
95 190 255
95 190 255
95 190 255
95 190 255
95 190 255
95 190 255
95 190 255
95 190 255
95 190 255
95 190 255
95 190 255
95 190 255
95 190 255
95 190 255
95 190 255
95 190 255
95 190 255
95 190 255
95 189 255
95 189 255
95 189 255
95 189 255
95 189 255
95 189 255
95 189 255
95 189 255
95 189 255
95 189 255
95 189 255
95 189 255
95 189 255
95 189 255
95 189 255
95 189 255
95 189 255
95 189 255
95 189 255
95 189 255
95 189 255
95 189 255
95 189 255
95 189 255
95 189 255
95 189 255
95 189 255
95 189 255
95 189 255
95 189 255
95 189 255
95 189 255
95 189 255
95 189 255
95 189 255
95 189 255
95 189 255
95 189 255
95 189 255
95 189 255
95 189 255
95 189 255
95 189 255
95 189 255
95 189 255
95 189 255
95 189 255
95 189 255
95 189 255
95 189 255
95 189 255
95 189 255
95 189 255
95 189 255
95 189 255
95 189 255
95 189 255
95 189 255
95 189 255
95 189 255
95 189 255
95 189 255
95 189 255
95 189 255
95 189 255
95 189 255
95 189 255
95 189 255
95 189 255
95 189 255
95 189 255
95 189 255
94 188 255
94 188 255
94 188 255
94 188 255
94 188 255
94 188 255
94 188 255
94 188 255
94 188 255
94 188 255
94 188 255
94 188 255
94 188 255
94 188 255
94 188 255
94 188 255
94 188 255
94 188 255
94 188 255
94 188 255
94 188 255
94 188 255
94 188 255
94 188 255
94 188 255
94 188 255
94 188 255
94 188 255
94 188 255
94 188 255
94 188 255
94 188 255
94 188 255
94 188 255
94 188 255
94 188 255
94 188 255
94 188 255
94 188 255
94 188 255
94 188 255
94 188 255
94 188 255
94 188 255
94 188 255
94 188 255
94 188 255
94 188 255
94 188 255
94 188 255
94 188 255
94 188 255
94 188 255
94 188 255
94 188 255
94 188 255
94 188 255
94 188 255
94 188 255
94 188 255
94 188 255
94 188 255
94 188 255
94 188 255
94 188 255
94 188 255
94 188 255
94 188 255
94 188 255
94 188 255
94 188 255
94 188 255
94 187 255
94 187 255
94 187 255
94 187 255
94 187 255
94 187 255
94 187 255
94 187 255
94 187 255
94 187 255
94 187 255
94 187 255
94 187 255
94 187 255
94 187 255
94 187 255
94 187 255
94 187 255
94 187 255
94 187 255
94 187 255
94 187 255
94 187 255
94 187 255
94 187 255
94 187 255
94 187 255
94 187 255
94 187 255
94 187 255
94 187 255
94 187 255
94 187 255
94 187 255
94 187 255
94 187 255
94 187 255
94 187 255
94 187 255
94 187 255
94 187 255
94 187 255
94 187 255
94 187 255
94 187 255
94 187 255
94 187 255
94 187 255
94 187 255
94 187 255
94 187 255
94 187 255
94 187 255
94 187 255
94 187 255
94 187 255
94 187 255
94 187 255
94 187 255
94 187 255
94 187 255
94 187 255
94 187 255
94 187 255
94 187 255
94 187 255
94 187 255
94 187 255
94 187 255
94 187 255
94 187 255
94 187 255
93 186 255
93 186 255
93 186 255
93 186 255
93 186 255
93 186 255
93 186 255
93 186 255
93 186 255
93 186 255
93 186 255
93 186 255
93 186 255
93 186 255
93 186 255
93 186 255
93 186 255
93 186 255
93 186 255
93 186 255
93 186 255
93 186 255
93 186 255
93 186 255
93 186 255
93 186 255
93 186 255
93 186 255
93 186 255
93 186 255
93 186 255
93 186 255
93 186 255
93 186 255
93 186 255
93 186 255
93 186 255
93 186 255
93 186 255
93 186 255
93 186 255
93 186 255
93 186 255
93 186 255
93 186 255
93 186 255
93 186 255
93 186 255
93 186 255
93 186 255
93 186 255
93 186 255
93 186 255
93 186 255
93 186 255
93 186 255
93 186 255
93 186 255
93 186 255
93 186 255
93 186 255
93 186 255
93 186 255
93 186 255
93 186 255
93 186 255
93 186 255
93 186 255
93 186 255
93 186 255
93 186 255
93 186 255
92 185 255
92 185 255
92 185 255
92 185 255
92 185 255
92 185 255
92 185 255
92 185 255
92 185 255
92 185 255
92 185 255
92 185 255
92 185 255
92 185 255
92 185 255
92 185 255
92 185 255
92 185 255
92 185 255
92 185 255
92 185 255
92 185 255
92 185 255
92 185 255
92 185 255
92 185 255
92 185 255
92 185 255
92 185 255
92 185 255
92 185 255
92 185 255
92 185 255
92 185 255
92 185 255
92 185 255
92 185 255
92 185 255
92 185 255
92 185 255
92 185 255
92 185 255
92 185 255
92 185 255
92 185 255
92 185 255
92 185 255
92 185 255
92 185 255
92 185 255
92 185 255
92 185 255
92 185 255
92 185 255
92 185 255
92 185 255
92 185 255
92 185 255
92 185 255
92 185 255
92 185 255
92 185 255
92 185 255
92 185 255
92 185 255
92 185 255
92 185 255
92 185 255
92 185 255
92 185 255
92 185 255
92 185 255
92 184 255
92 184 255
92 184 255
92 184 255
92 184 255
92 184 255
92 184 255
92 184 255
92 184 255
92 184 255
92 184 255
92 184 255
92 184 255
92 184 255
92 184 255
92 184 255
92 184 255
92 184 255
92 184 255
92 184 255
92 184 255
92 184 255
92 184 255
92 184 255
92 184 255
92 184 255
92 184 255
92 184 255
92 184 255
92 184 255
92 184 255
92 184 255
92 184 255
92 184 255
92 184 255
92 184 255
92 184 255
92 184 255
92 184 255
92 184 255
92 184 255
92 184 255
92 184 255
92 184 255
92 184 255
92 184 255
92 184 255
92 184 255
92 184 255
92 184 255
92 184 255
92 184 255
92 184 255
92 184 255
92 184 255
92 184 255
92 184 255
92 184 255
92 184 255
92 184 255
92 184 255
92 184 255
92 184 255
92 184 255
92 184 255
92 184 255
92 184 255
92 184 255
92 184 255
92 184 255
92 184 255
92 184 255
91 183 255
91 183 255
91 183 255
91 183 255
91 183 255
91 183 255
91 183 255
91 183 255
91 183 255
91 183 255
91 183 255
91 183 255
91 183 255
91 183 255
91 183 255
91 183 255
91 183 255
91 183 255
91 183 255
91 183 255
91 183 255
91 183 255
91 183 255
91 183 255
91 183 255
91 183 255
91 183 255
91 183 255
91 183 255
91 183 255
91 183 255
91 183 255
91 183 255
91 183 255
91 183 255
91 183 255
91 183 255
91 183 255
91 183 255
91 183 255
91 183 255
91 183 255
91 183 255
91 183 255
91 183 255
91 183 255
91 183 255
91 183 255
91 183 255
91 183 255
91 183 255
91 183 255
91 183 255
91 183 255
91 183 255
91 183 255
91 183 255
91 183 255
91 183 255
91 183 255
91 183 255
91 183 255
91 183 255
91 183 255
91 183 255
91 183 255
91 183 255
91 183 255
91 183 255
91 183 255
91 183 255
91 183 255
91 182 255
91 182 255
91 182 255
91 182 255
91 182 255
91 182 255
91 182 255
91 182 255
91 182 255
91 182 255
91 182 255
91 182 255
91 182 255
91 182 255
91 182 255
91 182 255
91 182 255
91 182 255
91 182 255
91 182 255
91 182 255
91 182 255
91 182 255
91 182 255
91 182 255
91 182 255
91 182 255
91 182 255
91 182 255
91 182 255
91 182 255
91 182 255
91 182 255
91 182 255
91 182 255
91 182 255
91 182 255
91 182 255
91 182 255
91 182 255
91 182 255
91 182 255
91 182 255
91 182 255
91 182 255
91 182 255
91 182 255
91 182 255
91 182 255
91 182 255
91 182 255
91 182 255
91 182 255
91 182 255
91 182 255
91 182 255
91 182 255
91 182 255
91 182 255
91 182 255
91 182 255
91 182 255
91 182 255
91 182 255
91 182 255
91 182 255
91 182 255
91 182 255
91 182 255
91 182 255
91 182 255
91 182 255
90 181 255
90 181 255
90 181 255
90 181 255
90 181 255
90 181 255
90 181 255
90 181 255
90 181 255
90 181 255
90 181 255
90 181 255
90 181 255
90 181 255
90 181 255
90 181 255
90 181 255
90 181 255
90 181 255
90 181 255
90 181 255
90 181 255
90 181 255
90 181 255
90 181 255
90 181 255
90 181 255
90 181 255
90 181 255
90 181 255
90 181 255
90 181 255
90 181 255
90 181 255
90 181 255
90 181 255
90 181 255
90 181 255
90 181 255
90 181 255
90 181 255
90 181 255
90 181 255
90 181 255
90 181 255
90 181 255
90 181 255
90 181 255
90 181 255
90 181 255
90 181 255
90 181 255
90 181 255
90 181 255
90 181 255
90 181 255
90 181 255
90 181 255
90 181 255
90 181 255
90 181 255
90 181 255
90 181 255
90 181 255
90 181 255
90 181 255
90 181 255
90 181 255
90 181 255
90 181 255
90 181 255
90 181 255
90 179 255
90 179 255
90 179 255
90 179 255
90 179 255
90 179 255
90 179 255
90 179 255
90 179 255
90 179 255
90 179 255
90 179 255
90 179 255
90 179 255
90 179 255
90 179 255
90 179 255
90 179 255
90 179 255
90 179 255
90 179 255
90 179 255
90 179 255
90 179 255
90 179 255
90 179 255
90 179 255
90 179 255
90 179 255
90 179 255
90 179 255
90 179 255
90 179 255
90 179 255
90 179 255
90 179 255
90 179 255
90 179 255
90 179 255
90 179 255
90 179 255
90 179 255
90 179 255
90 179 255
90 179 255
90 179 255
90 179 255
90 179 255
90 179 255
90 179 255
90 179 255
90 179 255
90 179 255
90 179 255
90 179 255
90 179 255
90 179 255
90 179 255
90 179 255
90 179 255
90 179 255
90 179 255
90 179 255
90 179 255
90 179 255
90 179 255
90 179 255
90 179 255
90 179 255
90 179 255
90 179 255
90 179 255
89 178 255
89 178 255
89 178 255
89 178 255
89 178 255
89 178 255
89 178 255
89 178 255
89 178 255
89 178 255
89 178 255
89 178 255
89 178 255
89 178 255
89 178 255
89 178 255
89 178 255
89 178 255
89 178 255
89 178 255
89 178 255
89 178 255
89 178 255
89 178 255
89 178 255
89 178 255
89 178 255
89 178 255
89 178 255
89 178 255
89 178 255
89 178 255
89 178 255
89 178 255
89 178 255
89 178 255
89 178 255
89 178 255
89 178 255
89 178 255
89 178 255
89 178 255
89 178 255
89 178 255
89 178 255
89 178 255
89 178 255
89 178 255
89 178 255
89 178 255
89 178 255
89 178 255
89 178 255
89 178 255
89 178 255
89 178 255
89 178 255
89 178 255
89 178 255
89 178 255
89 178 255
89 178 255
89 178 255
89 178 255
89 178 255
89 178 255
89 178 255
89 178 255
89 178 255
89 178 255
89 178 255
89 178 255
89 177 255
89 177 255
89 177 255
89 177 255
89 177 255
89 177 255
89 177 255
89 177 255
89 177 255
89 177 255
89 177 255
89 177 255
89 177 255
89 177 255
89 177 255
89 177 255
89 177 255
89 177 255
89 177 255
89 177 255
89 177 255
89 177 255
89 177 255
89 177 255
89 177 255
89 177 255
89 177 255
89 177 255
89 177 255
89 177 255
89 177 255
89 177 255
89 177 255
89 177 255
89 177 255
89 177 255
89 177 255
89 177 255
89 177 255
89 177 255
89 177 255
89 177 255
89 177 255
89 177 255
89 177 255
89 177 255
89 177 255
89 177 255
89 177 255
89 177 255
89 177 255
89 177 255
89 177 255
89 177 255
89 177 255
89 177 255
89 177 255
89 177 255
89 177 255
89 177 255
89 177 255
89 177 255
89 177 255
89 177 255
89 177 255
89 177 255
89 177 255
89 177 255
89 177 255
89 177 255
89 177 255
89 177 255
88 176 255
88 176 255
88 176 255
88 176 255
88 176 255
88 176 255
88 176 255
88 176 255
88 176 255
88 176 255
88 176 255
88 176 255
88 176 255
88 176 255
88 176 255
88 176 255
88 176 255
88 176 255
88 176 255
88 176 255
88 176 255
88 176 255
88 176 255
88 176 255
88 176 255
88 176 255
88 176 255
88 176 255
88 176 255
88 176 255
88 176 255
88 176 255
88 176 255
88 176 255
88 176 255
88 176 255
88 176 255
88 176 255
88 176 255
88 176 255
88 176 255
88 176 255
88 176 255
88 176 255
88 176 255
88 176 255
88 176 255
88 176 255
88 176 255
88 176 255
88 176 255
88 176 255
88 176 255
88 176 255
88 176 255
88 176 255
88 176 255
88 176 255
88 176 255
88 176 255
88 176 255
88 176 255
88 176 255
88 176 255
88 176 255
88 176 255
88 176 255
88 176 255
88 176 255
88 176 255
88 176 255
88 176 255
88 175 255
88 175 255
88 175 255
88 175 255
88 175 255
88 175 255
88 175 255
88 175 255
88 175 255
88 175 255
88 175 255
88 175 255
88 175 255
88 175 255
88 175 255
88 175 255
88 175 255
88 175 255
88 175 255
88 175 255
88 175 255
88 175 255
88 175 255
88 175 255
88 175 255
88 175 255
88 175 255
88 175 255
88 175 255
88 175 255
88 175 255
88 175 255
88 175 255
88 175 255
88 175 255
88 175 255
88 175 255
88 175 255
88 175 255
88 175 255
88 175 255
88 175 255
88 175 255
88 175 255
88 175 255
88 175 255
88 175 255
88 175 255
88 175 255
88 175 255
88 175 255
88 175 255
88 175 255
88 175 255
88 175 255
88 175 255
88 175 255
88 175 255
88 175 255
88 175 255
88 175 255
88 175 255
88 175 255
88 175 255
88 175 255
88 175 255
88 175 255
88 175 255
88 175 255
88 175 255
88 175 255
88 175 255
87 174 255
87 174 255
87 174 255
87 174 255
87 174 255
87 174 255
87 174 255
87 174 255
87 174 255
87 174 255
87 174 255
87 174 255
87 174 255
87 174 255
87 174 255
87 174 255
87 174 255
87 174 255
87 174 255
87 174 255
87 174 255
87 174 255
87 174 255
87 174 255
87 174 255
87 174 255
87 174 255
87 174 255
87 174 255
87 174 255
87 174 255
87 174 255
87 174 255
87 174 255
87 174 255
87 174 255
87 174 255
87 174 255
87 174 255
87 174 255
87 174 255
87 174 255
87 174 255
87 174 255
87 174 255
87 174 255
87 174 255
87 174 255
87 174 255
87 174 255
87 174 255
87 174 255
87 174 255
87 174 255
87 174 255
87 174 255
87 174 255
87 174 255
87 174 255
87 174 255
87 174 255
87 174 255
87 174 255
87 174 255
87 174 255
87 174 255
87 174 255
87 174 255
87 174 255
87 174 255
87 174 255
87 174 255
86 173 255
86 173 255
86 173 255
86 173 255
86 173 255
86 173 255
86 173 255
86 173 255
86 173 255
86 173 255
86 173 255
86 173 255
86 173 255
86 173 255
86 173 255
86 173 255
86 173 255
86 173 255
86 173 255
86 173 255
86 173 255
86 173 255
86 173 255
86 173 255
86 173 255
86 173 255
86 173 255
86 173 255
86 173 255
86 173 255
86 173 255
86 173 255
86 173 255
86 173 255
86 173 255
86 173 255
86 173 255
86 173 255
86 173 255
86 173 255
86 173 255
86 173 255
86 173 255
86 173 255
86 173 255
86 173 255
86 173 255
86 173 255
86 173 255
86 173 255
86 173 255
86 173 255
86 173 255
86 173 255
86 173 255
86 173 255
86 173 255
86 173 255
86 173 255
86 173 255
86 173 255
86 173 255
86 173 255
86 173 255
86 173 255
86 173 255
86 173 255
86 173 255
86 173 255
86 173 255
86 173 255
86 173 255
86 172 255
86 172 255
86 172 255
86 172 255
86 172 255
86 172 255
86 172 255
86 172 255
86 172 255
86 172 255
86 172 255
86 172 255
86 172 255
86 172 255
86 172 255
86 172 255
86 172 255
86 172 255
86 172 255
86 172 255
86 172 255
86 172 255
86 172 255
86 172 255
86 172 255
86 172 255
86 172 255
86 172 255
86 172 255
86 172 255
86 172 255
86 172 255
86 172 255
86 172 255
86 172 255
86 172 255
86 172 255
86 172 255
86 172 255
86 172 255
86 172 255
86 172 255
86 172 255
86 172 255
86 172 255
86 172 255
86 172 255
86 172 255
86 172 255
86 172 255
86 172 255
86 172 255
86 172 255
86 172 255
86 172 255
86 172 255
86 172 255
86 172 255
86 172 255
86 172 255
86 172 255
86 172 255
86 172 255
86 172 255
86 172 255
86 172 255
86 172 255
86 172 255
86 172 255
86 172 255
86 172 255
86 172 255
85 171 255
85 171 255
85 171 255
85 171 255
85 171 255
85 171 255
85 171 255
85 171 255
85 171 255
85 171 255
85 171 255
85 171 255
85 171 255
85 171 255
85 171 255
85 171 255
85 171 255
85 171 255
85 171 255
85 171 255
85 171 255
85 171 255
85 171 255
85 171 255
85 171 255
85 171 255
85 171 255
85 171 255
85 171 255
85 171 255
85 171 255
85 171 255
85 171 255
85 171 255
85 171 255
85 171 255
85 171 255
85 171 255
85 171 255
85 171 255
85 171 255
85 171 255
85 171 255
85 171 255
85 171 255
85 171 255
85 171 255
85 171 255
85 171 255
85 171 255
85 171 255
85 171 255
85 171 255
85 171 255
85 171 255
85 171 255
85 171 255
85 171 255
85 171 255
85 171 255
85 171 255
85 171 255
85 171 255
85 171 255
85 171 255
85 171 255
85 171 255
85 171 255
85 171 255
85 171 255
85 171 255
85 171 255
85 170 255
85 170 255
85 170 255
85 170 255
85 170 255
85 170 255
85 170 255
85 170 255
85 170 255
85 170 255
85 170 255
85 170 255
85 170 255
85 170 255
85 170 255
85 170 255
85 170 255
85 170 255
85 170 255
85 170 255
85 170 255
85 170 255
85 170 255
85 170 255
85 170 255
85 170 255
85 170 255
85 170 255
85 170 255
85 170 255
85 170 255
85 170 255
85 170 255
85 170 255
85 170 255
85 170 255
85 170 255
85 170 255
85 170 255
85 170 255
85 170 255
85 170 255
85 170 255
85 170 255
85 170 255
85 170 255
85 170 255
85 170 255
85 170 255
85 170 255
85 170 255
85 170 255
85 170 255
85 170 255
85 170 255
85 170 255
85 170 255
85 170 255
85 170 255
85 170 255
85 170 255
85 170 255
85 170 255
85 170 255
85 170 255
85 170 255
85 170 255
85 170 255
85 170 255
85 170 255
85 170 255
85 170 255
84 169 255
84 169 255
84 169 255
84 169 255
84 169 255
84 169 255
84 169 255
84 169 255
84 169 255
84 169 255
84 169 255
84 169 255
84 169 255
84 169 255
84 169 255
84 169 255
84 169 255
84 169 255
84 169 255
84 169 255
84 169 255
84 169 255
84 169 255
84 169 255
84 169 255
84 169 255
84 169 255
84 169 255
84 169 255
84 169 255
84 169 255
84 169 255
84 169 255
84 169 255
84 169 255
84 169 255
84 169 255
84 169 255
84 169 255
84 169 255
84 169 255
84 169 255
84 169 255
84 169 255
84 169 255
84 169 255
84 169 255
84 169 255
84 169 255
84 169 255
84 169 255
84 169 255
84 169 255
84 169 255
84 169 255
84 169 255
84 169 255
84 169 255
84 169 255
84 169 255
84 169 255
84 169 255
84 169 255
84 169 255
84 169 255
84 169 255
84 169 255
84 169 255
84 169 255
84 169 255
84 169 255
84 169 255
84 167 255
84 167 255
84 167 255
84 167 255
84 167 255
84 167 255
84 167 255
84 167 255
84 167 255
84 167 255
84 167 255
84 167 255
84 167 255
84 167 255
84 167 255
84 167 255
84 167 255
84 167 255
84 167 255
84 167 255
84 167 255
84 167 255
84 167 255
84 167 255
84 167 255
84 167 255
84 167 255
84 167 255
84 167 255
84 167 255
84 167 255
84 167 255
84 167 255
84 167 255
84 167 255
84 167 255
84 167 255
84 167 255
84 167 255
84 167 255
84 167 255
84 167 255
84 167 255
84 167 255
84 167 255
84 167 255
84 167 255
84 167 255
84 167 255
84 167 255
84 167 255
84 167 255
84 167 255
84 167 255
84 167 255
84 167 255
84 167 255
84 167 255
84 167 255
84 167 255
84 167 255
84 167 255
84 167 255
84 167 255
84 167 255
84 167 255
84 167 255
84 167 255
84 167 255
84 167 255
84 167 255
84 167 255
83 166 255
83 166 255
83 166 255
83 166 255
83 166 255
83 166 255
83 166 255
83 166 255
83 166 255
83 166 255
83 166 255
83 166 255
83 166 255
83 166 255
83 166 255
83 166 255
83 166 255
83 166 255
83 166 255
83 166 255
83 166 255
83 166 255
83 166 255
83 166 255
83 166 255
83 166 255
83 166 255
83 166 255
83 166 255
83 166 255
83 166 255
83 166 255
83 166 255
83 166 255
83 166 255
83 166 255
83 166 255
83 166 255
83 166 255
83 166 255
83 166 255
83 166 255
83 166 255
83 166 255
83 166 255
83 166 255
83 166 255
83 166 255
83 166 255
83 166 255
83 166 255
83 166 255
83 166 255
83 166 255
83 166 255
83 166 255
83 166 255
83 166 255
83 166 255
83 166 255
83 166 255
83 166 255
83 166 255
83 166 255
83 166 255
83 166 255
83 166 255
83 166 255
83 166 255
83 166 255
83 166 255
83 166 255
83 165 255
83 165 255
83 165 255
83 165 255
83 165 255
83 165 255
83 165 255
83 165 255
83 165 255
83 165 255
83 165 255
83 165 255
83 165 255
83 165 255
83 165 255
83 165 255
83 165 255
83 165 255
83 165 255
83 165 255
83 165 255
83 165 255
83 165 255
83 165 255
83 165 255
83 165 255
83 165 255
83 165 255
83 165 255
83 165 255
83 165 255
83 165 255
83 165 255
83 165 255
83 165 255
83 165 255
83 165 255
83 165 255
83 165 255
83 165 255
83 165 255
83 165 255
83 165 255
83 165 255
83 165 255
83 165 255
83 165 255
83 165 255
83 165 255
83 165 255
83 165 255
83 165 255
83 165 255
83 165 255
83 165 255
83 165 255
83 165 255
83 165 255
83 165 255
83 165 255
83 165 255
83 165 255
83 165 255
83 165 255
83 165 255
83 165 255
83 165 255
83 165 255
83 165 255
83 165 255
83 165 255
83 165 255
82 164 255
82 164 255
82 164 255
82 164 255
82 164 255
82 164 255
82 164 255
82 164 255
82 164 255
82 164 255
82 164 255
82 164 255
82 164 255
82 164 255
82 164 255
82 164 255
82 164 255
82 164 255
82 164 255
82 164 255
82 164 255
82 164 255
82 164 255
82 164 255
82 164 255
82 164 255
82 164 255
82 164 255
82 164 255
82 164 255
82 164 255
82 164 255
82 164 255
82 164 255
82 164 255
82 164 255
82 164 255
82 164 255
82 164 255
82 164 255
82 164 255
82 164 255
82 164 255
82 164 255
82 164 255
82 164 255
82 164 255
82 164 255
82 164 255
82 164 255
82 164 255
82 164 255
82 164 255
82 164 255
82 164 255
82 164 255
82 164 255
82 164 255
82 164 255
82 164 255
82 164 255
82 164 255
82 164 255
82 164 255
82 164 255
82 164 255
82 164 255
82 164 255
82 164 255
82 164 255
82 164 255
82 164 255
82 163 255
82 163 255
82 163 255
82 163 255
82 163 255
82 163 255
82 163 255
82 163 255
82 163 255
82 163 255
82 163 255
82 163 255
82 163 255
82 163 255
82 163 255
82 163 255
82 163 255
82 163 255
82 163 255
82 163 255
82 163 255
82 163 255
82 163 255
82 163 255
82 163 255
82 163 255
82 163 255
82 163 255
82 163 255
82 163 255
82 163 255
82 163 255
82 163 255
82 163 255
82 163 255
82 163 255
82 163 255
82 163 255
82 163 255
82 163 255
82 163 255
82 163 255
82 163 255
82 163 255
82 163 255
82 163 255
82 163 255
82 163 255
82 163 255
82 163 255
82 163 255
82 163 255
82 163 255
82 163 255
82 163 255
82 163 255
82 163 255
82 163 255
82 163 255
82 163 255
82 163 255
82 163 255
82 163 255
82 163 255
82 163 255
82 163 255
82 163 255
82 163 255
82 163 255
82 163 255
82 163 255
82 163 255
81 162 255
81 162 255
81 162 255
81 162 255
81 162 255
81 162 255
81 162 255
81 162 255
81 162 255
81 162 255
81 162 255
81 162 255
81 162 255
81 162 255
81 162 255
81 162 255
81 162 255
81 162 255
81 162 255
81 162 255
81 162 255
81 162 255
81 162 255
81 162 255
81 162 255
81 162 255
81 162 255
81 162 255
81 162 255
81 162 255
81 162 255
81 162 255
81 162 255
81 162 255
81 162 255
81 162 255
81 162 255
81 162 255
81 162 255
81 162 255
81 162 255
81 162 255
81 162 255
81 162 255
81 162 255
81 162 255
81 162 255
81 162 255
81 162 255
81 162 255
81 162 255
81 162 255
81 162 255
81 162 255
81 162 255
81 162 255
81 162 255
81 162 255
81 162 255
81 162 255
81 162 255
81 162 255
81 162 255
81 162 255
81 162 255
81 162 255
81 162 255
81 162 255
81 162 255
81 162 255
81 162 255
81 162 255
80 161 255
80 161 255
80 161 255
80 161 255
80 161 255
80 161 255
80 161 255
80 161 255
80 161 255
80 161 255
80 161 255
80 161 255
80 161 255
80 161 255
80 161 255
80 161 255
80 161 255
80 161 255
80 161 255
80 161 255
80 161 255
80 161 255
80 161 255
80 161 255
80 161 255
80 161 255
80 161 255
80 161 255
80 161 255
80 161 255
80 161 255
80 161 255
80 161 255
80 161 255
80 161 255
80 161 255
80 161 255
80 161 255
80 161 255
80 161 255
80 161 255
80 161 255
80 161 255
80 161 255
80 161 255
80 161 255
80 161 255
80 161 255
80 161 255
80 161 255
80 161 255
80 161 255
80 161 255
80 161 255
80 161 255
80 161 255
80 161 255
80 161 255
80 161 255
80 161 255
80 161 255
80 161 255
80 161 255
80 161 255
80 161 255
80 161 255
80 161 255
80 161 255
80 161 255
80 161 255
80 161 255
80 161 255
80 160 255
80 160 255
80 160 255
80 160 255
80 160 255
80 160 255
80 160 255
80 160 255
80 160 255
80 160 255
80 160 255
80 160 255
80 160 255
80 160 255
80 160 255
80 160 255
80 160 255
80 160 255
80 160 255
80 160 255
80 160 255
80 160 255
80 160 255
80 160 255
80 160 255
80 160 255
80 160 255
80 160 255
80 160 255
80 160 255
80 160 255
80 160 255
80 160 255
80 160 255
80 160 255
80 160 255
80 160 255
80 160 255
80 160 255
80 160 255
80 160 255
80 160 255
80 160 255
80 160 255
80 160 255
80 160 255
80 160 255
80 160 255
80 160 255
80 160 255
80 160 255
80 160 255
80 160 255
80 160 255
80 160 255
80 160 255
80 160 255
80 160 255
80 160 255
80 160 255
80 160 255
80 160 255
80 160 255
80 160 255
80 160 255
80 160 255
80 160 255
80 160 255
80 160 255
80 160 255
80 160 255
80 160 255
79 159 255
79 159 255
79 159 255
79 159 255
79 159 255
79 159 255
79 159 255
79 159 255
79 159 255
79 159 255
79 159 255
79 159 255
79 159 255
79 159 255
79 159 255
79 159 255
79 159 255
79 159 255
79 159 255
79 159 255
79 159 255
79 159 255
79 159 255
79 159 255
79 159 255
79 159 255
79 159 255
79 159 255
79 159 255
79 159 255
79 159 255
79 159 255
79 159 255
79 159 255
79 159 255
79 159 255
79 159 255
79 159 255
79 159 255
79 159 255
79 159 255
79 159 255
79 159 255
79 159 255
79 159 255
79 159 255
79 159 255
79 159 255
79 159 255
79 159 255
79 159 255
79 159 255
79 159 255
79 159 255
79 159 255
79 159 255
79 159 255
79 159 255
79 159 255
79 159 255
79 159 255
79 159 255
79 159 255
79 159 255
79 159 255
79 159 255
79 159 255
79 159 255
79 159 255
79 159 255
79 159 255
79 159 255
79 158 255
79 158 255
79 158 255
79 158 255
79 158 255
79 158 255
79 158 255
79 158 255
79 158 255
79 158 255
79 158 255
79 158 255
79 158 255
79 158 255
79 158 255
79 158 255
79 158 255
79 158 255
79 158 255
79 158 255
79 158 255
79 158 255
79 158 255
79 158 255
79 158 255
79 158 255
79 158 255
79 158 255
79 158 255
79 158 255
79 158 255
79 158 255
79 158 255
79 158 255
79 158 255
79 158 255
79 158 255
79 158 255
79 158 255
79 158 255
79 158 255
79 158 255
79 158 255
79 158 255
79 158 255
79 158 255
79 158 255
79 158 255
79 158 255
79 158 255
79 158 255
79 158 255
79 158 255
79 158 255
79 158 255
79 158 255
79 158 255
79 158 255
79 158 255
79 158 255
79 158 255
79 158 255
79 158 255
79 158 255
79 158 255
79 158 255
79 158 255
79 158 255
79 158 255
79 158 255
79 158 255
79 158 255
78 157 255
78 157 255
78 157 255
78 157 255
78 157 255
78 157 255
78 157 255
78 157 255
78 157 255
78 157 255
78 157 255
78 157 255
78 157 255
78 157 255
78 157 255
78 157 255
78 157 255
78 157 255
78 157 255
78 157 255
78 157 255
78 157 255
78 157 255
78 157 255
78 157 255
78 157 255
78 157 255
78 157 255
78 157 255
78 157 255
78 157 255
78 157 255
78 157 255
78 157 255
78 157 255
78 157 255
78 157 255
78 157 255
78 157 255
78 157 255
78 157 255
78 157 255
78 157 255
78 157 255
78 157 255
78 157 255
78 157 255
78 157 255
78 157 255
78 157 255
78 157 255
78 157 255
78 157 255
78 157 255
78 157 255
78 157 255
78 157 255
78 157 255
78 157 255
78 157 255
78 157 255
78 157 255
78 157 255
78 157 255
78 157 255
78 157 255
78 157 255
78 157 255
78 157 255
78 157 255
78 157 255
78 157 255
78 155 255
78 155 255
78 155 255
78 155 255
78 155 255
78 155 255
78 155 255
78 155 255
78 155 255
78 155 255
78 155 255
78 155 255
78 155 255
78 155 255
78 155 255
78 155 255
78 155 255
78 155 255
78 155 255
78 155 255
78 155 255
78 155 255
78 155 255
78 155 255
78 155 255
78 155 255
78 155 255
78 155 255
78 155 255
78 155 255
78 155 255
78 155 255
78 155 255
78 155 255
78 155 255
78 155 255
78 155 255
78 155 255
78 155 255
78 155 255
78 155 255
78 155 255
78 155 255
78 155 255
78 155 255
78 155 255
78 155 255
78 155 255
78 155 255
78 155 255
78 155 255
78 155 255
78 155 255
78 155 255
78 155 255
78 155 255
78 155 255
78 155 255
78 155 255
78 155 255
78 155 255
78 155 255
78 155 255
78 155 255
78 155 255
78 155 255
78 155 255
78 155 255
78 155 255
78 155 255
78 155 255
78 155 255
77 154 255
77 154 255
77 154 255
77 154 255
77 154 255
77 154 255
77 154 255
77 154 255
77 154 255
77 154 255
77 154 255
77 154 255
77 154 255
77 154 255
77 154 255
77 154 255
77 154 255
77 154 255
77 154 255
77 154 255
77 154 255
77 154 255
77 154 255
77 154 255
77 154 255
77 154 255
77 154 255
77 154 255
77 154 255
77 154 255
77 154 255
77 154 255
77 154 255
77 154 255
77 154 255
77 154 255
77 154 255
77 154 255
77 154 255
77 154 255
77 154 255
77 154 255
77 154 255
77 154 255
77 154 255
77 154 255
77 154 255
77 154 255
77 154 255
77 154 255
77 154 255
77 154 255
77 154 255
77 154 255
77 154 255
77 154 255
77 154 255
77 154 255
77 154 255
77 154 255
77 154 255
77 154 255
77 154 255
77 154 255
77 154 255
77 154 255
77 154 255
77 154 255
77 154 255
77 154 255
77 154 255
77 154 255
77 153 255
77 153 255
77 153 255
77 153 255
77 153 255
77 153 255
77 153 255
77 153 255
77 153 255
77 153 255
77 153 255
77 153 255
77 153 255
77 153 255
77 153 255
77 153 255
77 153 255
77 153 255
77 153 255
77 153 255
77 153 255
77 153 255
77 153 255
77 153 255
77 153 255
77 153 255
77 153 255
77 153 255
77 153 255
77 153 255
77 153 255
77 153 255
77 153 255
77 153 255
77 153 255
77 153 255
77 153 255
77 153 255
77 153 255
77 153 255
77 153 255
77 153 255
77 153 255
77 153 255
77 153 255
77 153 255
77 153 255
77 153 255
77 153 255
77 153 255
77 153 255
77 153 255
77 153 255
77 153 255
77 153 255
77 153 255
77 153 255
77 153 255
77 153 255
77 153 255
77 153 255
77 153 255
77 153 255
77 153 255
77 153 255
77 153 255
77 153 255
77 153 255
77 153 255
77 153 255
77 153 255
77 153 255
76 152 255
76 152 255
76 152 255
76 152 255
76 152 255
76 152 255
76 152 255
76 152 255
76 152 255
76 152 255
76 152 255
76 152 255
76 152 255
76 152 255
76 152 255
76 152 255
76 152 255
76 152 255
76 152 255
76 152 255
76 152 255
76 152 255
76 152 255
76 152 255
76 152 255
76 152 255
76 152 255
76 152 255
76 152 255
76 152 255
76 152 255
76 152 255
76 152 255
76 152 255
76 152 255
76 152 255
76 152 255
76 152 255
76 152 255
76 152 255
76 152 255
76 152 255
76 152 255
76 152 255
76 152 255
76 152 255
76 152 255
76 152 255
76 152 255
76 152 255
76 152 255
76 152 255
76 152 255
76 152 255
76 152 255
76 152 255
76 152 255
76 152 255
76 152 255
76 152 255
76 152 255
76 152 255
76 152 255
76 152 255
76 152 255
76 152 255
76 152 255
76 152 255
76 152 255
76 152 255
76 152 255
76 152 255
76 151 255
76 151 255
76 151 255
76 151 255
76 151 255
76 151 255
76 151 255
76 151 255
76 151 255
76 151 255
76 151 255
76 151 255
76 151 255
76 151 255
76 151 255
76 151 255
76 151 255
76 151 255
76 151 255
76 151 255
76 151 255
76 151 255
76 151 255
76 151 255
76 151 255
76 151 255
76 151 255
76 151 255
76 151 255
76 151 255
76 151 255
76 151 255
76 151 255
76 151 255
76 151 255
76 151 255
76 151 255
76 151 255
76 151 255
76 151 255
76 151 255
76 151 255
76 151 255
76 151 255
76 151 255
76 151 255
76 151 255
76 151 255
76 151 255
76 151 255
76 151 255
76 151 255
76 151 255
76 151 255
76 151 255
76 151 255
76 151 255
76 151 255
76 151 255
76 151 255
76 151 255
76 151 255
76 151 255
76 151 255
76 151 255
76 151 255
76 151 255
76 151 255
76 151 255
76 151 255
76 151 255
76 151 255
75 150 255
75 150 255
75 150 255
75 150 255
75 150 255
75 150 255
75 150 255
75 150 255
75 150 255
75 150 255
75 150 255
75 150 255
75 150 255
75 150 255
75 150 255
75 150 255
75 150 255
75 150 255
75 150 255
75 150 255
75 150 255
75 150 255
75 150 255
75 150 255
75 150 255
75 150 255
75 150 255
75 150 255
75 150 255
75 150 255
75 150 255
75 150 255
75 150 255
75 150 255
75 150 255
75 150 255
75 150 255
75 150 255
75 150 255
75 150 255
75 150 255
75 150 255
75 150 255
75 150 255
75 150 255
75 150 255
75 150 255
75 150 255
75 150 255
75 150 255
75 150 255
75 150 255
75 150 255
75 150 255
75 150 255
75 150 255
75 150 255
75 150 255
75 150 255
75 150 255
75 150 255
75 150 255
75 150 255
75 150 255
75 150 255
75 150 255
75 150 255
75 150 255
75 150 255
75 150 255
75 150 255
75 150 255
74 149 255
74 149 255
74 149 255
74 149 255
74 149 255
74 149 255
74 149 255
74 149 255
74 149 255
74 149 255
74 149 255
74 149 255
74 149 255
74 149 255
74 149 255
74 149 255
74 149 255
74 149 255
74 149 255
74 149 255
74 149 255
74 149 255
74 149 255
74 149 255
74 149 255
74 149 255
74 149 255
74 149 255
74 149 255
74 149 255
74 149 255
74 149 255
74 149 255
74 149 255
74 149 255
74 149 255
74 149 255
74 149 255
74 149 255
74 149 255
74 149 255
74 149 255
74 149 255
74 149 255
74 149 255
74 149 255
74 149 255
74 149 255
74 149 255
74 149 255
74 149 255
74 149 255
74 149 255
74 149 255
74 149 255
74 149 255
74 149 255
74 149 255
74 149 255
74 149 255
74 149 255
74 149 255
74 149 255
74 149 255
74 149 255
74 149 255
74 149 255
74 149 255
74 149 255
74 149 255
74 149 255
74 149 255
74 148 255
74 148 255
74 148 255
74 148 255
74 148 255
74 148 255
74 148 255
74 148 255
74 148 255
74 148 255
74 148 255
74 148 255
74 148 255
74 148 255
74 148 255
74 148 255
74 148 255
74 148 255
74 148 255
74 148 255
74 148 255
74 148 255
74 148 255
74 148 255
74 148 255
74 148 255
74 148 255
74 148 255
74 148 255
74 148 255
74 148 255
74 148 255
74 148 255
74 148 255
74 148 255
74 148 255
74 148 255
74 148 255
74 148 255
74 148 255
74 148 255
74 148 255
74 148 255
74 148 255
74 148 255
74 148 255
74 148 255
74 148 255
74 148 255
74 148 255
74 148 255
74 148 255
74 148 255
74 148 255
74 148 255
74 148 255
74 148 255
74 148 255
74 148 255
74 148 255
74 148 255
74 148 255
74 148 255
74 148 255
74 148 255
74 148 255
74 148 255
74 148 255
74 148 255
74 148 255
74 148 255
74 148 255
73 147 255
73 147 255
73 147 255
73 147 255
73 147 255
73 147 255
73 147 255
73 147 255
73 147 255
73 147 255
73 147 255
73 147 255
73 147 255
73 147 255
73 147 255
73 147 255
73 147 255
73 147 255
73 147 255
73 147 255
73 147 255
73 147 255
73 147 255
73 147 255
73 147 255
73 147 255
73 147 255
73 147 255
73 147 255
73 147 255
73 147 255
73 147 255
73 147 255
73 147 255
73 147 255
73 147 255
73 147 255
73 147 255
73 147 255
73 147 255
73 147 255
73 147 255
73 147 255
73 147 255
73 147 255
73 147 255
73 147 255
73 147 255
73 147 255
73 147 255
73 147 255
73 147 255
73 147 255
73 147 255
73 147 255
73 147 255
73 147 255
73 147 255
73 147 255
73 147 255
73 147 255
73 147 255
73 147 255
73 147 255
73 147 255
73 147 255
73 147 255
73 147 255
73 147 255
73 147 255
73 147 255
73 147 255
73 146 255
73 146 255
73 146 255
73 146 255
73 146 255
73 146 255
73 146 255
73 146 255
73 146 255
73 146 255
73 146 255
73 146 255
73 146 255
73 146 255
73 146 255
73 146 255
73 146 255
73 146 255
73 146 255
73 146 255
73 146 255
73 146 255
73 146 255
73 146 255
73 146 255
73 146 255
73 146 255
73 146 255
73 146 255
73 146 255
73 146 255
73 146 255
73 146 255
73 146 255
73 146 255
73 146 255
73 146 255
73 146 255
73 146 255
73 146 255
73 146 255
73 146 255
73 146 255
73 146 255
73 146 255
73 146 255
73 146 255
73 146 255
73 146 255
73 146 255
73 146 255
73 146 255
73 146 255
73 146 255
73 146 255
73 146 255
73 146 255
73 146 255
73 146 255
73 146 255
73 146 255
73 146 255
73 146 255
73 146 255
73 146 255
73 146 255
73 146 255
73 146 255
73 146 255
73 146 255
73 146 255
73 146 255
72 144 255
72 144 255
72 144 255
72 144 255
72 144 255
72 144 255
72 144 255
72 144 255
72 144 255
72 144 255
72 144 255
72 144 255
72 144 255
72 144 255
72 144 255
72 144 255
72 144 255
72 144 255
72 144 255
72 144 255
72 144 255
72 144 255
72 144 255
72 144 255
72 144 255
72 144 255
72 144 255
72 144 255
72 144 255
72 144 255
72 144 255
72 144 255
72 144 255
72 144 255
72 144 255
72 144 255
72 144 255
72 144 255
72 144 255
72 144 255
72 144 255
72 144 255
72 144 255
72 144 255
72 144 255
72 144 255
72 144 255
72 144 255
72 144 255
72 144 255
72 144 255
72 144 255
72 144 255
72 144 255
72 144 255
72 144 255
72 144 255
72 144 255
72 144 255
72 144 255
72 144 255
72 144 255
72 144 255
72 144 255
72 144 255
72 144 255
72 144 255
72 144 255
72 144 255
72 144 255
72 144 255
72 144 255
72 143 255
72 143 255
72 143 255
72 143 255
72 143 255
72 143 255
72 143 255
72 143 255
72 143 255
72 143 255
72 143 255
72 143 255
72 143 255
72 143 255
72 143 255
72 143 255
72 143 255
72 143 255
72 143 255
72 143 255
72 143 255
72 143 255
72 143 255
72 143 255
72 143 255
72 143 255
72 143 255
72 143 255
72 143 255
72 143 255
72 143 255
72 143 255
72 143 255
72 143 255
72 143 255
72 143 255
72 143 255
72 143 255
72 143 255
72 143 255
72 143 255
72 143 255
72 143 255
72 143 255
72 143 255
72 143 255
72 143 255
72 143 255
72 143 255
72 143 255
72 143 255
72 143 255
72 143 255
72 143 255
72 143 255
72 143 255
72 143 255
72 143 255
72 143 255
72 143 255
72 143 255
72 143 255
72 143 255
72 143 255
72 143 255
72 143 255
72 143 255
72 143 255
72 143 255
72 143 255
72 143 255
72 143 255
71 142 255
71 142 255
71 142 255
71 142 255
71 142 255
71 142 255
71 142 255
71 142 255
71 142 255
71 142 255
71 142 255
71 142 255
71 142 255
71 142 255
71 142 255
71 142 255
71 142 255
71 142 255
71 142 255
71 142 255
71 142 255
71 142 255
71 142 255
71 142 255
71 142 255
71 142 255
71 142 255
71 142 255
71 142 255
71 142 255
71 142 255
71 142 255
71 142 255
71 142 255
71 142 255
71 142 255
71 142 255
71 142 255
71 142 255
71 142 255
71 142 255
71 142 255
71 142 255
71 142 255
71 142 255
71 142 255
71 142 255
71 142 255
71 142 255
71 142 255
71 142 255
71 142 255
71 142 255
71 142 255
71 142 255
71 142 255
71 142 255
71 142 255
71 142 255
71 142 255
71 142 255
71 142 255
71 142 255
71 142 255
71 142 255
71 142 255
71 142 255
71 142 255
71 142 255
71 142 255
71 142 255
71 142 255
71 141 255
71 141 255
71 141 255
71 141 255
71 141 255
71 141 255
71 141 255
71 141 255
71 141 255
71 141 255
71 141 255
71 141 255
71 141 255
71 141 255
71 141 255
71 141 255
71 141 255
71 141 255
71 141 255
71 141 255
71 141 255
71 141 255
71 141 255
71 141 255
71 141 255
71 141 255
71 141 255
71 141 255
71 141 255
71 141 255
71 141 255
71 141 255
71 141 255
71 141 255
71 141 255
71 141 255
71 141 255
71 141 255
71 141 255
71 141 255
71 141 255
71 141 255
71 141 255
71 141 255
71 141 255
71 141 255
71 141 255
71 141 255
71 141 255
71 141 255
71 141 255
71 141 255
71 141 255
71 141 255
71 141 255
71 141 255
71 141 255
71 141 255
71 141 255
71 141 255
71 141 255
71 141 255
71 141 255
71 141 255
71 141 255
71 141 255
71 141 255
71 141 255
71 141 255
71 141 255
71 141 255
71 141 255
70 140 255
70 140 255
70 140 255
70 140 255
70 140 255
70 140 255
70 140 255
70 140 255
70 140 255
70 140 255
70 140 255
70 140 255
70 140 255
70 140 255
70 140 255
70 140 255
70 140 255
70 140 255
70 140 255
70 140 255
70 140 255
70 140 255
70 140 255
70 140 255
70 140 255
70 140 255
70 140 255
70 140 255
70 140 255
70 140 255
70 140 255
70 140 255
70 140 255
70 140 255
70 140 255
70 140 255
70 140 255
70 140 255
70 140 255
70 140 255
70 140 255
70 140 255
70 140 255
70 140 255
70 140 255
70 140 255
70 140 255
70 140 255
70 140 255
70 140 255
70 140 255
70 140 255
70 140 255
70 140 255
70 140 255
70 140 255
70 140 255
70 140 255
70 140 255
70 140 255
70 140 255
70 140 255
70 140 255
70 140 255
70 140 255
70 140 255
70 140 255
70 140 255
70 140 255
70 140 255
70 140 255
70 140 255
69 139 255
69 139 255
69 139 255
69 139 255
69 139 255
69 139 255
69 139 255
69 139 255
69 139 255
69 139 255
69 139 255
69 139 255
69 139 255
69 139 255
69 139 255
69 139 255
69 139 255
69 139 255
69 139 255
69 139 255
69 139 255
69 139 255
69 139 255
69 139 255
69 139 255
69 139 255
69 139 255
69 139 255
69 139 255
69 139 255
69 139 255
69 139 255
69 139 255
69 139 255
69 139 255
69 139 255
69 139 255
69 139 255
69 139 255
69 139 255
69 139 255
69 139 255
69 139 255
69 139 255
69 139 255
69 139 255
69 139 255
69 139 255
69 139 255
69 139 255
69 139 255
69 139 255
69 139 255
69 139 255
69 139 255
69 139 255
69 139 255
69 139 255
69 139 255
69 139 255
69 139 255
69 139 255
69 139 255
69 139 255
69 139 255
69 139 255
69 139 255
69 139 255
69 139 255
69 139 255
69 139 255
69 139 255
69 138 255
69 138 255
69 138 255
69 138 255
69 138 255
69 138 255
69 138 255
69 138 255
69 138 255
69 138 255
69 138 255
69 138 255
69 138 255
69 138 255
69 138 255
69 138 255
69 138 255
69 138 255
69 138 255
69 138 255
69 138 255
69 138 255
69 138 255
69 138 255
69 138 255
69 138 255
69 138 255
69 138 255
69 138 255
69 138 255
69 138 255
69 138 255
69 138 255
69 138 255
69 138 255
69 138 255
69 138 255
69 138 255
69 138 255
69 138 255
69 138 255
69 138 255
69 138 255
69 138 255
69 138 255
69 138 255
69 138 255
69 138 255
69 138 255
69 138 255
69 138 255
69 138 255
69 138 255
69 138 255
69 138 255
69 138 255
69 138 255
69 138 255
69 138 255
69 138 255
69 138 255
69 138 255
69 138 255
69 138 255
69 138 255
69 138 255
69 138 255
69 138 255
69 138 255
69 138 255
69 138 255
69 138 255
68 137 255
68 137 255
68 137 255
68 137 255
68 137 255
68 137 255
68 137 255
68 137 255
68 137 255
68 137 255
68 137 255
68 137 255
68 137 255
68 137 255
68 137 255
68 137 255
68 137 255
68 137 255
68 137 255
68 137 255
68 137 255
68 137 255
68 137 255
68 137 255
68 137 255
68 137 255
68 137 255
68 137 255
68 137 255
68 137 255
68 137 255
68 137 255
68 137 255
68 137 255
68 137 255
68 137 255
68 137 255
68 137 255
68 137 255
68 137 255
68 137 255
68 137 255
68 137 255
68 137 255
68 137 255
68 137 255
68 137 255
68 137 255
68 137 255
68 137 255
68 137 255
68 137 255
68 137 255
68 137 255
68 137 255
68 137 255
68 137 255
68 137 255
68 137 255
68 137 255
68 137 255
68 137 255
68 137 255
68 137 255
68 137 255
68 137 255
68 137 255
68 137 255
68 137 255
68 137 255
68 137 255
68 137 255
68 136 255
68 136 255
68 136 255
68 136 255
68 136 255
68 136 255
68 136 255
68 136 255
68 136 255
68 136 255
68 136 255
68 136 255
68 136 255
68 136 255
68 136 255
68 136 255
68 136 255
68 136 255
68 136 255
68 136 255
68 136 255
68 136 255
68 136 255
68 136 255
68 136 255
68 136 255
68 136 255
68 136 255
68 136 255
68 136 255
68 136 255
68 136 255
68 136 255
68 136 255
68 136 255
68 136 255
68 136 255
68 136 255
68 136 255
68 136 255
68 136 255
68 136 255
68 136 255
68 136 255
68 136 255
68 136 255
68 136 255
68 136 255
68 136 255
68 136 255
68 136 255
68 136 255
68 136 255
68 136 255
68 136 255
68 136 255
68 136 255
68 136 255
68 136 255
68 136 255
68 136 255
68 136 255
68 136 255
68 136 255
68 136 255
68 136 255
68 136 255
68 136 255
68 136 255
68 136 255
68 136 255
68 136 255
67 135 255
67 135 255
67 135 255
67 135 255
67 135 255
67 135 255
67 135 255
67 135 255
67 135 255
67 135 255
67 135 255
67 135 255
67 135 255
67 135 255
67 135 255
67 135 255
67 135 255
67 135 255
67 135 255
67 135 255
67 135 255
67 135 255
67 135 255
67 135 255
67 135 255
67 135 255
67 135 255
67 135 255
67 135 255
67 135 255
67 135 255
67 135 255
67 135 255
67 135 255
67 135 255
67 135 255
67 135 255
67 135 255
67 135 255
67 135 255
67 135 255
67 135 255
67 135 255
67 135 255
67 135 255
67 135 255
67 135 255
67 135 255
67 135 255
67 135 255
67 135 255
67 135 255
67 135 255
67 135 255
67 135 255
67 135 255
67 135 255
67 135 255
67 135 255
67 135 255
67 135 255
67 135 255
67 135 255
67 135 255
67 135 255
67 135 255
67 135 255
67 135 255
67 135 255
67 135 255
67 135 255
67 135 255
67 134 255
67 134 255
67 134 255
67 134 255
67 134 255
67 134 255
67 134 255
67 134 255
67 134 255
67 134 255
67 134 255
67 134 255
67 134 255
67 134 255
67 134 255
67 134 255
67 134 255
67 134 255
67 134 255
67 134 255
67 134 255
67 134 255
67 134 255
67 134 255
67 134 255
67 134 255
67 134 255
67 134 255
67 134 255
67 134 255
67 134 255
67 134 255
67 134 255
67 134 255
67 134 255
67 134 255
67 134 255
67 134 255
67 134 255
67 134 255
67 134 255
67 134 255
67 134 255
67 134 255
67 134 255
67 134 255
67 134 255
67 134 255
67 134 255
67 134 255
67 134 255
67 134 255
67 134 255
67 134 255
67 134 255
67 134 255
67 134 255
67 134 255
67 134 255
67 134 255
67 134 255
67 134 255
67 134 255
67 134 255
67 134 255
67 134 255
67 134 255
67 134 255
67 134 255
67 134 255
67 134 255
67 134 255
66 132 255
66 132 255
66 132 255
66 132 255
66 132 255
66 132 255
66 132 255
66 132 255
66 132 255
66 132 255
66 132 255
66 132 255
66 132 255
66 132 255
66 132 255
66 132 255
66 132 255
66 132 255
66 132 255
66 132 255
66 132 255
66 132 255
66 132 255
66 132 255
66 132 255
66 132 255
66 132 255
66 132 255
66 132 255
66 132 255
66 132 255
66 132 255
66 132 255
66 132 255
66 132 255
66 132 255
66 132 255
66 132 255
66 132 255
66 132 255
66 132 255
66 132 255
66 132 255
66 132 255
66 132 255
66 132 255
66 132 255
66 132 255
66 132 255
66 132 255
66 132 255
66 132 255
66 132 255
66 132 255
66 132 255
66 132 255
66 132 255
66 132 255
66 132 255
66 132 255
66 132 255
66 132 255
66 132 255
66 132 255
66 132 255
66 132 255
66 132 255
66 132 255
66 132 255
66 132 255
66 132 255
66 132 255
66 131 255
66 131 255
66 131 255
66 131 255
66 131 255
66 131 255
66 131 255
66 131 255
66 131 255
66 131 255
66 131 255
66 131 255
66 131 255
66 131 255
66 131 255
66 131 255
66 131 255
66 131 255
66 131 255
66 131 255
66 131 255
66 131 255
66 131 255
66 131 255
66 131 255
66 131 255
66 131 255
66 131 255
66 131 255
66 131 255
66 131 255
66 131 255
66 131 255
66 131 255
66 131 255
66 131 255
66 131 255
66 131 255
66 131 255
66 131 255
66 131 255
66 131 255
66 131 255
66 131 255
66 131 255
66 131 255
66 131 255
66 131 255
66 131 255
66 131 255
66 131 255
66 131 255
66 131 255
66 131 255
66 131 255
66 131 255
66 131 255
66 131 255
66 131 255
66 131 255
66 131 255
66 131 255
66 131 255
66 131 255
66 131 255
66 131 255
66 131 255
66 131 255
66 131 255
66 131 255
66 131 255
66 131 255
65 130 255
65 130 255
65 130 255
65 130 255
65 130 255
65 130 255
65 130 255
65 130 255
65 130 255
65 130 255
65 130 255
65 130 255
65 130 255
65 130 255
65 130 255
65 130 255
65 130 255
65 130 255
65 130 255
65 130 255
65 130 255
65 130 255
65 130 255
65 130 255
65 130 255
65 130 255
65 130 255
65 130 255
65 130 255
65 130 255
65 130 255
65 130 255
65 130 255
65 130 255
65 130 255
65 130 255
65 130 255
65 130 255
65 130 255
65 130 255
65 130 255
65 130 255
65 130 255
65 130 255
65 130 255
65 130 255
65 130 255
65 130 255
65 130 255
65 130 255
65 130 255
65 130 255
65 130 255
65 130 255
65 130 255
65 130 255
65 130 255
65 130 255
65 130 255
65 130 255
65 130 255
65 130 255
65 130 255
65 130 255
65 130 255
65 130 255
65 130 255
65 130 255
65 130 255
65 130 255
65 130 255
65 130 255
65 129 255
65 129 255
65 129 255
65 129 255
65 129 255
65 129 255
65 129 255
65 129 255
65 129 255
65 129 255
65 129 255
65 129 255
65 129 255
65 129 255
65 129 255
65 129 255
65 129 255
65 129 255
65 129 255
65 129 255
65 129 255
65 129 255
65 129 255
65 129 255
65 129 255
65 129 255
65 129 255
65 129 255
65 129 255
65 129 255
65 129 255
65 129 255
65 129 255
65 129 255
65 129 255
65 129 255
65 129 255
65 129 255
65 129 255
65 129 255
65 129 255
65 129 255
65 129 255
65 129 255
65 129 255
65 129 255
65 129 255
65 129 255
65 129 255
65 129 255
65 129 255
65 129 255
65 129 255
65 129 255
65 129 255
65 129 255
65 129 255
65 129 255
65 129 255
65 129 255
65 129 255
65 129 255
65 129 255
65 129 255
65 129 255
65 129 255
65 129 255
65 129 255
65 129 255
65 129 255
65 129 255
65 129 255
64 128 255
64 128 255
64 128 255
64 128 255
64 128 255
64 128 255
64 128 255
64 128 255
64 128 255
64 128 255
64 128 255
64 128 255
64 128 255
64 128 255
64 128 255
64 128 255
64 128 255
64 128 255
64 128 255
64 128 255
64 128 255
64 128 255
64 128 255
64 128 255
64 128 255
64 128 255
64 128 255
64 128 255
64 128 255
64 128 255
64 128 255
64 128 255
64 128 255
64 128 255
64 128 255
64 128 255
64 128 255
64 128 255
64 128 255
64 128 255
64 128 255
64 128 255
64 128 255
64 128 255
64 128 255
64 128 255
64 128 255
64 128 255
64 128 255
64 128 255
64 128 255
64 128 255
64 128 255
64 128 255
64 128 255
64 128 255
64 128 255
64 128 255
64 128 255
64 128 255
64 128 255
64 128 255
64 128 255
64 128 255
64 128 255
64 128 255
64 128 255
64 128 255
64 128 255
64 128 255
64 128 255
64 128 255
63 127 255
63 127 255
63 127 255
63 127 255
63 127 255
63 127 255
63 127 255
63 127 255
63 127 255
63 127 255
63 127 255
63 127 255
63 127 255
63 127 255
63 127 255
63 127 255
63 127 255
63 127 255
63 127 255
63 127 255
63 127 255
63 127 255
63 127 255
63 127 255
63 127 255
63 127 255
63 127 255
63 127 255
63 127 255
63 127 255
63 127 255
63 127 255
63 127 255
63 127 255
63 127 255
63 127 255
63 127 255
63 127 255
63 127 255
63 127 255
63 127 255
63 127 255
63 127 255
63 127 255
63 127 255
63 127 255
63 127 255
63 127 255
63 127 255
63 127 255
63 127 255
63 127 255
63 127 255
63 127 255
63 127 255
63 127 255
63 127 255
63 127 255
63 127 255
63 127 255
63 127 255
63 127 255
63 127 255
63 127 255
63 127 255
63 127 255
63 127 255
63 127 255
63 127 255
63 127 255
63 127 255
63 127 255
63 126 255
63 126 255
63 126 255
63 126 255
63 126 255
63 126 255
63 126 255
63 126 255
63 126 255
63 126 255
63 126 255
63 126 255
63 126 255
63 126 255
63 126 255
63 126 255
63 126 255
63 126 255
63 126 255
63 126 255
63 126 255
63 126 255
63 126 255
63 126 255
63 126 255
63 126 255
63 126 255
63 126 255
63 126 255
63 126 255
63 126 255
63 126 255
63 126 255
63 126 255
63 126 255
63 126 255
63 126 255
63 126 255
63 126 255
63 126 255
63 126 255
63 126 255
63 126 255
63 126 255
63 126 255
63 126 255
63 126 255
63 126 255
63 126 255
63 126 255
63 126 255
63 126 255
63 126 255
63 126 255
63 126 255
63 126 255
63 126 255
63 126 255
63 126 255
63 126 255
63 126 255
63 126 255
63 126 255
63 126 255
63 126 255
63 126 255
63 126 255
63 126 255
63 126 255
63 126 255
63 126 255
63 126 255
62 125 255
62 125 255
62 125 255
62 125 255
62 125 255
62 125 255
62 125 255
62 125 255
62 125 255
62 125 255
62 125 255
62 125 255
62 125 255
62 125 255
62 125 255
62 125 255
62 125 255
62 125 255
62 125 255
62 125 255
62 125 255
62 125 255
62 125 255
62 125 255
62 125 255
62 125 255
62 125 255
62 125 255
62 125 255
62 125 255
62 125 255
62 125 255
62 125 255
62 125 255
62 125 255
62 125 255
62 125 255
62 125 255
62 125 255
62 125 255
62 125 255
62 125 255
62 125 255
62 125 255
62 125 255
62 125 255
62 125 255
62 125 255
62 125 255
62 125 255
62 125 255
62 125 255
62 125 255
62 125 255
62 125 255
62 125 255
62 125 255
62 125 255
62 125 255
62 125 255
62 125 255
62 125 255
62 125 255
62 125 255
62 125 255
62 125 255
62 125 255
62 125 255
62 125 255
62 125 255
62 125 255
62 125 255
62 124 255
62 124 255
62 124 255
62 124 255
62 124 255
62 124 255
62 124 255
62 124 255
62 124 255
62 124 255
62 124 255
62 124 255
62 124 255
62 124 255
62 124 255
62 124 255
62 124 255
62 124 255
62 124 255
62 124 255
62 124 255
62 124 255
62 124 255
62 124 255
62 124 255
62 124 255
62 124 255
62 124 255
62 124 255
62 124 255
62 124 255
62 124 255
62 124 255
62 124 255
62 124 255
62 124 255
62 124 255
62 124 255
62 124 255
62 124 255
62 124 255
62 124 255
62 124 255
62 124 255
62 124 255
62 124 255
62 124 255
62 124 255
62 124 255
62 124 255
62 124 255
62 124 255
62 124 255
62 124 255
62 124 255
62 124 255
62 124 255
62 124 255
62 124 255
62 124 255
62 124 255
62 124 255
62 124 255
62 124 255
62 124 255
62 124 255
62 124 255
62 124 255
62 124 255
62 124 255
62 124 255
62 124 255
61 123 255
61 123 255
61 123 255
61 123 255
61 123 255
61 123 255
61 123 255
61 123 255
61 123 255
61 123 255
61 123 255
61 123 255
61 123 255
61 123 255
61 123 255
61 123 255
61 123 255
61 123 255
61 123 255
61 123 255
61 123 255
61 123 255
61 123 255
61 123 255
61 123 255
61 123 255
61 123 255
61 123 255
61 123 255
61 123 255
61 123 255
61 123 255
61 123 255
61 123 255
61 123 255
61 123 255
61 123 255
61 123 255
61 123 255
61 123 255
61 123 255
61 123 255
61 123 255
61 123 255
61 123 255
61 123 255
61 123 255
61 123 255
61 123 255
61 123 255
61 123 255
61 123 255
61 123 255
61 123 255
61 123 255
61 123 255
61 123 255
61 123 255
61 123 255
61 123 255
61 123 255
61 123 255
61 123 255
61 123 255
61 123 255
61 123 255
61 123 255
61 123 255
61 123 255
61 123 255
61 123 255
61 123 255
61 121 255
61 121 255
61 121 255
61 121 255
61 121 255
61 121 255
61 121 255
61 121 255
61 121 255
61 121 255
61 121 255
61 121 255
61 121 255
61 121 255
61 121 255
61 121 255
61 121 255
61 121 255
61 121 255
61 121 255
61 121 255
61 121 255
61 121 255
61 121 255
61 121 255
61 121 255
61 121 255
61 121 255
61 121 255
61 121 255
61 121 255
61 121 255
61 121 255
61 121 255
61 121 255
61 121 255
61 121 255
61 121 255
61 121 255
61 121 255
61 121 255
61 121 255
61 121 255
61 121 255
61 121 255
61 121 255
61 121 255
61 121 255
61 121 255
61 121 255
61 121 255
61 121 255
61 121 255
61 121 255
61 121 255
61 121 255
61 121 255
61 121 255
61 121 255
61 121 255
61 121 255
61 121 255
61 121 255
61 121 255
61 121 255
61 121 255
61 121 255
61 121 255
61 121 255
61 121 255
61 121 255
61 121 255
60 120 255
60 120 255
60 120 255
60 120 255
60 120 255
60 120 255
60 120 255
60 120 255
60 120 255
60 120 255
60 120 255
60 120 255
60 120 255
60 120 255
60 120 255
60 120 255
60 120 255
60 120 255
60 120 255
60 120 255
60 120 255
60 120 255
60 120 255
60 120 255
60 120 255
60 120 255
60 120 255
60 120 255
60 120 255
60 120 255
60 120 255
60 120 255
60 120 255
60 120 255
60 120 255
60 120 255
60 120 255
60 120 255
60 120 255
60 120 255
60 120 255
60 120 255
60 120 255
60 120 255
60 120 255
60 120 255
60 120 255
60 120 255
60 120 255
60 120 255
60 120 255
60 120 255
60 120 255
60 120 255
60 120 255
60 120 255
60 120 255
60 120 255
60 120 255
60 120 255
60 120 255
60 120 255
60 120 255
60 120 255
60 120 255
60 120 255
60 120 255
60 120 255
60 120 255
60 120 255
60 120 255
60 120 255
60 119 255
60 119 255
60 119 255
60 119 255
60 119 255
60 119 255
60 119 255
60 119 255
60 119 255
60 119 255
60 119 255
60 119 255
60 119 255
60 119 255
60 119 255
60 119 255
60 119 255
60 119 255
60 119 255
60 119 255
60 119 255
60 119 255
60 119 255
60 119 255
60 119 255
60 119 255
60 119 255
60 119 255
60 119 255
60 119 255
60 119 255
60 119 255
60 119 255
60 119 255
60 119 255
60 119 255
60 119 255
60 119 255
60 119 255
60 119 255
60 119 255
60 119 255
60 119 255
60 119 255
60 119 255
60 119 255
60 119 255
60 119 255
60 119 255
60 119 255
60 119 255
60 119 255
60 119 255
60 119 255
60 119 255
60 119 255
60 119 255
60 119 255
60 119 255
60 119 255
60 119 255
60 119 255
60 119 255
60 119 255
60 119 255
60 119 255
60 119 255
60 119 255
60 119 255
60 119 255
60 119 255
60 119 255
59 118 255
59 118 255
59 118 255
59 118 255
59 118 255
59 118 255
59 118 255
59 118 255
59 118 255
59 118 255
59 118 255
59 118 255
59 118 255
59 118 255
59 118 255
59 118 255
59 118 255
59 118 255
59 118 255
59 118 255
59 118 255
59 118 255
59 118 255
59 118 255
59 118 255
59 118 255
59 118 255
59 118 255
59 118 255
59 118 255
59 118 255
59 118 255
59 118 255
59 118 255
59 118 255
59 118 255
59 118 255
59 118 255
59 118 255
59 118 255
59 118 255
59 118 255
59 118 255
59 118 255
59 118 255
59 118 255
59 118 255
59 118 255
59 118 255
59 118 255
59 118 255
59 118 255
59 118 255
59 118 255
59 118 255
59 118 255
59 118 255
59 118 255
59 118 255
59 118 255
59 118 255
59 118 255
59 118 255
59 118 255
59 118 255
59 118 255
59 118 255
59 118 255
59 118 255
59 118 255
59 118 255
59 118 255
59 117 255
59 117 255
59 117 255
59 117 255
59 117 255
59 117 255
59 117 255
59 117 255
59 117 255
59 117 255
59 117 255
59 117 255
59 117 255
59 117 255
59 117 255
59 117 255
59 117 255
59 117 255
59 117 255
59 117 255
59 117 255
59 117 255
59 117 255
59 117 255
59 117 255
59 117 255
59 117 255
59 117 255
59 117 255
59 117 255
59 117 255
59 117 255
59 117 255
59 117 255
59 117 255
59 117 255
59 117 255
59 117 255
59 117 255
59 117 255
59 117 255
59 117 255
59 117 255
59 117 255
59 117 255
59 117 255
59 117 255
59 117 255
59 117 255
59 117 255
59 117 255
59 117 255
59 117 255
59 117 255
59 117 255
59 117 255
59 117 255
59 117 255
59 117 255
59 117 255
59 117 255
59 117 255
59 117 255
59 117 255
59 117 255
59 117 255
59 117 255
59 117 255
59 117 255
59 117 255
59 117 255
59 117 255
58 116 255
58 116 255
58 116 255
58 116 255
58 116 255
58 116 255
58 116 255
58 116 255
58 116 255
58 116 255
58 116 255
58 116 255
58 116 255
58 116 255
58 116 255
58 116 255
58 116 255
58 116 255
58 116 255
58 116 255
58 116 255
58 116 255
58 116 255
58 116 255
58 116 255
58 116 255
58 116 255
58 116 255
58 116 255
58 116 255
58 116 255
58 116 255
58 116 255
58 116 255
58 116 255
58 116 255
58 116 255
58 116 255
58 116 255
58 116 255
58 116 255
58 116 255
58 116 255
58 116 255
58 116 255
58 116 255
58 116 255
58 116 255
58 116 255
58 116 255
58 116 255
58 116 255
58 116 255
58 116 255
58 116 255
58 116 255
58 116 255
58 116 255
58 116 255
58 116 255
58 116 255
58 116 255
58 116 255
58 116 255
58 116 255
58 116 255
58 116 255
58 116 255
58 116 255
58 116 255
58 116 255
58 116 255
57 115 255
57 115 255
57 115 255
57 115 255
57 115 255
57 115 255
57 115 255
57 115 255
57 115 255
57 115 255
57 115 255
57 115 255
57 115 255
57 115 255
57 115 255
57 115 255
57 115 255
57 115 255
57 115 255
57 115 255
57 115 255
57 115 255
57 115 255
57 115 255
57 115 255
57 115 255
57 115 255
57 115 255
57 115 255
57 115 255
57 115 255
57 115 255
57 115 255
57 115 255
57 115 255
57 115 255
57 115 255
57 115 255
57 115 255
57 115 255
57 115 255
57 115 255
57 115 255
57 115 255
57 115 255
57 115 255
57 115 255
57 115 255
57 115 255
57 115 255
57 115 255
57 115 255
57 115 255
57 115 255
57 115 255
57 115 255
57 115 255
57 115 255
57 115 255
57 115 255
57 115 255
57 115 255
57 115 255
57 115 255
57 115 255
57 115 255
57 115 255
57 115 255
57 115 255
57 115 255
57 115 255
57 115 255
57 114 255
57 114 255
57 114 255
57 114 255
57 114 255
57 114 255
57 114 255
57 114 255
57 114 255
57 114 255
57 114 255
57 114 255
57 114 255
57 114 255
57 114 255
57 114 255
57 114 255
57 114 255
57 114 255
57 114 255
57 114 255
57 114 255
57 114 255
57 114 255
57 114 255
57 114 255
57 114 255
57 114 255
57 114 255
57 114 255
57 114 255
57 114 255
57 114 255
57 114 255
57 114 255
57 114 255
57 114 255
57 114 255
57 114 255
57 114 255
57 114 255
57 114 255
57 114 255
57 114 255
57 114 255
57 114 255
57 114 255
57 114 255
57 114 255
57 114 255
57 114 255
57 114 255
57 114 255
57 114 255
57 114 255
57 114 255
57 114 255
57 114 255
57 114 255
57 114 255
57 114 255
57 114 255
57 114 255
57 114 255
57 114 255
57 114 255
57 114 255
57 114 255
57 114 255
57 114 255
57 114 255
57 114 255
56 113 255
56 113 255
56 113 255
56 113 255
56 113 255
56 113 255
56 113 255
56 113 255
56 113 255
56 113 255
56 113 255
56 113 255
56 113 255
56 113 255
56 113 255
56 113 255
56 113 255
56 113 255
56 113 255
56 113 255
56 113 255
56 113 255
56 113 255
56 113 255
56 113 255
56 113 255
56 113 255
56 113 255
56 113 255
56 113 255
56 113 255
56 113 255
56 113 255
56 113 255
56 113 255
56 113 255
56 113 255
56 113 255
56 113 255
56 113 255
56 113 255
56 113 255
56 113 255
56 113 255
56 113 255
56 113 255
56 113 255
56 113 255
56 113 255
56 113 255
56 113 255
56 113 255
56 113 255
56 113 255
56 113 255
56 113 255
56 113 255
56 113 255
56 113 255
56 113 255
56 113 255
56 113 255
56 113 255
56 113 255
56 113 255
56 113 255
56 113 255
56 113 255
56 113 255
56 113 255
56 113 255
56 113 255
56 112 255
56 112 255
56 112 255
56 112 255
56 112 255
56 112 255
56 112 255
56 112 255
56 112 255
56 112 255
56 112 255
56 112 255
56 112 255
56 112 255
56 112 255
56 112 255
56 112 255
56 112 255
56 112 255
56 112 255
56 112 255
56 112 255
56 112 255
56 112 255
56 112 255
56 112 255
56 112 255
56 112 255
56 112 255
56 112 255
56 112 255
56 112 255
56 112 255
56 112 255
56 112 255
56 112 255
56 112 255
56 112 255
56 112 255
56 112 255
56 112 255
56 112 255
56 112 255
56 112 255
56 112 255
56 112 255
56 112 255
56 112 255
56 112 255
56 112 255
56 112 255
56 112 255
56 112 255
56 112 255
56 112 255
56 112 255
56 112 255
56 112 255
56 112 255
56 112 255
56 112 255
56 112 255
56 112 255
56 112 255
56 112 255
56 112 255
56 112 255
56 112 255
56 112 255
56 112 255
56 112 255
56 112 255
55 111 255
55 111 255
55 111 255
55 111 255
55 111 255
55 111 255
55 111 255
55 111 255
55 111 255
55 111 255
55 111 255
55 111 255
55 111 255
55 111 255
55 111 255
55 111 255
55 111 255
55 111 255
55 111 255
55 111 255
55 111 255
55 111 255
55 111 255
55 111 255
55 111 255
55 111 255
55 111 255
55 111 255
55 111 255
55 111 255
55 111 255
55 111 255
55 111 255
55 111 255
55 111 255
55 111 255
55 111 255
55 111 255
55 111 255
55 111 255
55 111 255
55 111 255
55 111 255
55 111 255
55 111 255
55 111 255
55 111 255
55 111 255
55 111 255
55 111 255
55 111 255
55 111 255
55 111 255
55 111 255
55 111 255
55 111 255
55 111 255
55 111 255
55 111 255
55 111 255
55 111 255
55 111 255
55 111 255
55 111 255
55 111 255
55 111 255
55 111 255
55 111 255
55 111 255
55 111 255
55 111 255
55 111 255
55 109 255
55 109 255
55 109 255
55 109 255
55 109 255
55 109 255
55 109 255
55 109 255
55 109 255
55 109 255
55 109 255
55 109 255
55 109 255
55 109 255
55 109 255
55 109 255
55 109 255
55 109 255
55 109 255
55 109 255
55 109 255
55 109 255
55 109 255
55 109 255
55 109 255
55 109 255
55 109 255
55 109 255
55 109 255
55 109 255
55 109 255
55 109 255
55 109 255
55 109 255
55 109 255
55 109 255
55 109 255
55 109 255
55 109 255
55 109 255
55 109 255
55 109 255
55 109 255
55 109 255
55 109 255
55 109 255
55 109 255
55 109 255
55 109 255
55 109 255
55 109 255
55 109 255
55 109 255
55 109 255
55 109 255
55 109 255
55 109 255
55 109 255
55 109 255
55 109 255
55 109 255
55 109 255
55 109 255
55 109 255
55 109 255
55 109 255
55 109 255
55 109 255
55 109 255
55 109 255
55 109 255
55 109 255
54 108 255
54 108 255
54 108 255
54 108 255
54 108 255
54 108 255
54 108 255
54 108 255
54 108 255
54 108 255
54 108 255
54 108 255
54 108 255
54 108 255
54 108 255
54 108 255
54 108 255
54 108 255
54 108 255
54 108 255
54 108 255
54 108 255
54 108 255
54 108 255
54 108 255
54 108 255
54 108 255
54 108 255
54 108 255
54 108 255
54 108 255
54 108 255
54 108 255
54 108 255
54 108 255
54 108 255
54 108 255
54 108 255
54 108 255
54 108 255
54 108 255
54 108 255
54 108 255
54 108 255
54 108 255
54 108 255
54 108 255
54 108 255
54 108 255
54 108 255
54 108 255
54 108 255
54 108 255
54 108 255
54 108 255
54 108 255
54 108 255
54 108 255
54 108 255
54 108 255
54 108 255
54 108 255
54 108 255
54 108 255
54 108 255
54 108 255
54 108 255
54 108 255
54 108 255
54 108 255
54 108 255
54 108 255
54 107 255
54 107 255
54 107 255
54 107 255
54 107 255
54 107 255
54 107 255
54 107 255
54 107 255
54 107 255
54 107 255
54 107 255
54 107 255
54 107 255
54 107 255
54 107 255
54 107 255
54 107 255
54 107 255
54 107 255
54 107 255
54 107 255
54 107 255
54 107 255
54 107 255
54 107 255
54 107 255
54 107 255
54 107 255
54 107 255
54 107 255
54 107 255
54 107 255
54 107 255
54 107 255
54 107 255
54 107 255
54 107 255
54 107 255
54 107 255
54 107 255
54 107 255
54 107 255
54 107 255
54 107 255
54 107 255
54 107 255
54 107 255
54 107 255
54 107 255
54 107 255
54 107 255
54 107 255
54 107 255
54 107 255
54 107 255
54 107 255
54 107 255
54 107 255
54 107 255
54 107 255
54 107 255
54 107 255
54 107 255
54 107 255
54 107 255
54 107 255
54 107 255
54 107 255
54 107 255
54 107 255
54 107 255
0 0 0
0 0 0
0 0 0
0 0 0
0 0 0
0 0 0
0 0 0
0 0 0
0 0 0
0 0 0
0 0 0
0 0 0
0 0 0
0 0 0
53 106 255
53 106 255
53 106 255
53 106 255
53 106 255
53 106 255
53 106 255
53 106 255
53 106 255
53 106 255
53 106 255
53 106 255
53 106 255
53 106 255
53 106 255
53 106 255
53 106 255
53 106 255
53 106 255
53 106 255
53 106 255
53 106 255
53 106 255
53 106 255
53 106 255
53 106 255
53 106 255
53 106 255
53 106 255
53 106 255
53 106 255
53 106 255
53 106 255
53 106 255
53 106 255
53 106 255
53 106 255
53 106 255
53 106 255
53 106 255
53 106 255
53 106 255
53 106 255
53 106 255
53 106 255
53 106 255
53 106 255
53 106 255
53 106 255
53 106 255
53 106 255
53 106 255
53 106 255
53 106 255
53 106 255
53 106 255
53 106 255
53 106 255
0 0 0
0 0 0
0 0 0
0 0 0
0 0 0
0 0 0
0 0 0
0 0 0
0 0 0
0 0 0
0 0 0
0 0 0
0 0 0
0 0 0
53 105 255
53 105 255
53 105 255
53 105 255
53 105 255
53 105 255
53 105 255
53 105 255
53 105 255
53 105 255
53 105 255
53 105 255
53 105 255
53 105 255
53 105 255
53 105 255
53 105 255
53 105 255
53 105 255
53 105 255
53 105 255
53 105 255
53 105 255
53 105 255
53 105 255
53 105 255
53 105 255
53 105 255
53 105 255
53 105 255
53 105 255
53 105 255
53 105 255
53 105 255
53 105 255
53 105 255
53 105 255
53 105 255
53 105 255
53 105 255
53 105 255
53 105 255
53 105 255
53 105 255
53 105 255
53 105 255
53 105 255
53 105 255
53 105 255
53 105 255
53 105 255
53 105 255
53 105 255
53 105 255
53 105 255
53 105 255
53 105 255
53 105 255
0 0 0
0 0 0
0 0 0
0 0 0
0 0 0
0 0 0
0 0 0
0 0 0
0 0 0
0 0 0
0 0 0
0 0 0
0 0 0
0 0 0
52 104 255
52 104 255
52 104 255
52 104 255
52 104 255
52 104 255
52 104 255
52 104 255
52 104 255
52 104 255
52 104 255
52 104 255
52 104 255
52 104 255
52 104 255
52 104 255
52 104 255
52 104 255
52 104 255
52 104 255
52 104 255
52 104 255
52 104 255
52 104 255
52 104 255
52 104 255
52 104 255
52 104 255
52 104 255
52 104 255
52 104 255
52 104 255
52 104 255
52 104 255
52 104 255
52 104 255
52 104 255
52 104 255
52 104 255
52 104 255
52 104 255
52 104 255
52 104 255
52 104 255
52 104 255
52 104 255
52 104 255
52 104 255
52 104 255
52 104 255
52 104 255
52 104 255
52 104 255
52 104 255
52 104 255
52 104 255
52 104 255
52 104 255
51 103 255
51 103 255
51 103 255
51 103 255
51 103 255
51 103 255
51 103 255
51 103 255
51 103 255
51 103 255
51 103 255
51 103 255
51 103 255
51 103 255
51 103 255
51 103 255
51 103 255
51 103 255
51 103 255
51 103 255
51 103 255
51 103 255
51 103 255
51 103 255
51 103 255
51 103 255
51 103 255
51 103 255
51 103 255
51 103 255
51 103 255
51 103 255
51 103 255
51 103 255
51 103 255
51 103 255
51 103 255
51 103 255
51 103 255
51 103 255
51 103 255
51 103 255
51 103 255
51 103 255
51 103 255
51 103 255
51 103 255
51 103 255
51 103 255
51 103 255
51 103 255
51 103 255
51 103 255
51 103 255
51 103 255
51 103 255
51 103 255
51 103 255
51 103 255
51 103 255
51 103 255
51 103 255
51 103 255
51 103 255
51 103 255
51 103 255
51 103 255
51 103 255
51 103 255
51 103 255
51 103 255
51 103 255
51 102 255
51 102 255
51 102 255
51 102 255
51 102 255
51 102 255
51 102 255
51 102 255
51 102 255
51 102 255
51 102 255
51 102 255
51 102 255
51 102 255
51 102 255
51 102 255
51 102 255
51 102 255
51 102 255
51 102 255
51 102 255
51 102 255
51 102 255
51 102 255
51 102 255
51 102 255
51 102 255
51 102 255
51 102 255
51 102 255
51 102 255
51 102 255
51 102 255
51 102 255
51 102 255
51 102 255
51 102 255
51 102 255
51 102 255
51 102 255
51 102 255
51 102 255
51 102 255
51 102 255
51 102 255
51 102 255
51 102 255
51 102 255
51 102 255
51 102 255
51 102 255
51 102 255
51 102 255
51 102 255
51 102 255
51 102 255
51 102 255
51 102 255
51 102 255
51 102 255
51 102 255
51 102 255
51 102 255
51 102 255
51 102 255
51 102 255
51 102 255
51 102 255
51 102 255
51 102 255
51 102 255
51 102 255
50 101 255
50 101 255
50 101 255
50 101 255
50 101 255
50 101 255
50 101 255
50 101 255
50 101 255
50 101 255
50 101 255
50 101 255
50 101 255
50 101 255
50 101 255
50 101 255
50 101 255
50 101 255
50 101 255
50 101 255
50 101 255
50 101 255
50 101 255
50 101 255
50 101 255
50 101 255
50 101 255
50 101 255
50 101 255
50 101 255
50 101 255
50 101 255
50 101 255
50 101 255
50 101 255
50 101 255
50 101 255
50 101 255
50 101 255
50 101 255
50 101 255
50 101 255
50 101 255
50 101 255
50 101 255
50 101 255
50 101 255
50 101 255
50 101 255
50 101 255
50 101 255
50 101 255
50 101 255
50 101 255
50 101 255
50 101 255
50 101 255
50 101 255
50 101 255
50 101 255
50 101 255
50 101 255
50 101 255
50 101 255
50 101 255
50 101 255
50 101 255
50 101 255
50 101 255
50 101 255
50 101 255
50 101 255
50 100 255
50 100 255
50 100 255
50 100 255
50 100 255
50 100 255
50 100 255
50 100 255
50 100 255
50 100 255
50 100 255
50 100 255
50 100 255
50 100 255
50 100 255
50 100 255
50 100 255
50 100 255
50 100 255
50 100 255
50 100 255
50 100 255
50 100 255
50 100 255
50 100 255
50 100 255
50 100 255
50 100 255
50 100 255
50 100 255
50 100 255
50 100 255
50 100 255
50 100 255
50 100 255
50 100 255
50 100 255
50 100 255
50 100 255
50 100 255
50 100 255
50 100 255
50 100 255
50 100 255
50 100 255
50 100 255
50 100 255
50 100 255
50 100 255
50 100 255
50 100 255
50 100 255
50 100 255
50 100 255
50 100 255
50 100 255
50 100 255
50 100 255
50 100 255
50 100 255
50 100 255
50 100 255
50 100 255
50 100 255
50 100 255
50 100 255
50 100 255
50 100 255
50 100 255
50 100 255
50 100 255
50 100 255
49 98 255
49 98 255
49 98 255
49 98 255
49 98 255
49 98 255
49 98 255
49 98 255
49 98 255
49 98 255
49 98 255
49 98 255
49 98 255
49 98 255
49 98 255
49 98 255
49 98 255
49 98 255
49 98 255
49 98 255
49 98 255
49 98 255
49 98 255
49 98 255
49 98 255
49 98 255
49 98 255
49 98 255
49 98 255
49 98 255
49 98 255
49 98 255
49 98 255
49 98 255
49 98 255
49 98 255
49 98 255
49 98 255
49 98 255
49 98 255
49 98 255
49 98 255
49 98 255
49 98 255
49 98 255
49 98 255
49 98 255
49 98 255
49 98 255
49 98 255
49 98 255
49 98 255
49 98 255
49 98 255
49 98 255
49 98 255
49 98 255
49 98 255
49 98 255
49 98 255
49 98 255
49 98 255
49 98 255
49 98 255
49 98 255
49 98 255
49 98 255
49 98 255
49 98 255
49 98 255
49 98 255
49 98 255
49 97 255
49 97 255
49 97 255
49 97 255
49 97 255
49 97 255
49 97 255
49 97 255
49 97 255
49 97 255
49 97 255
49 97 255
49 97 255
49 97 255
49 97 255
49 97 255
49 97 255
49 97 255
49 97 255
49 97 255
49 97 255
49 97 255
49 97 255
49 97 255
49 97 255
49 97 255
49 97 255
49 97 255
49 97 255
49 97 255
49 97 255
49 97 255
49 97 255
49 97 255
49 97 255
49 97 255
49 97 255
49 97 255
49 97 255
49 97 255
49 97 255
49 97 255
49 97 255
49 97 255
49 97 255
49 97 255
49 97 255
49 97 255
49 97 255
49 97 255
49 97 255
49 97 255
49 97 255
49 97 255
49 97 255
49 97 255
49 97 255
49 97 255
49 97 255
49 97 255
49 97 255
49 97 255
49 97 255
49 97 255
49 97 255
49 97 255
49 97 255
49 97 255
49 97 255
49 97 255
49 97 255
49 97 255
48 96 255
48 96 255
48 96 255
48 96 255
48 96 255
48 96 255
48 96 255
48 96 255
48 96 255
48 96 255
48 96 255
48 96 255
48 96 255
48 96 255
48 96 255
48 96 255
48 96 255
48 96 255
48 96 255
48 96 255
48 96 255
48 96 255
48 96 255
48 96 255
48 96 255
48 96 255
48 96 255
48 96 255
48 96 255
48 96 255
48 96 255
48 96 255
48 96 255
48 96 255
48 96 255
48 96 255
48 96 255
48 96 255
48 96 255
48 96 255
48 96 255
48 96 255
48 96 255
48 96 255
48 96 255
48 96 255
48 96 255
48 96 255
48 96 255
48 96 255
48 96 255
48 96 255
48 96 255
48 96 255
48 96 255
48 96 255
48 96 255
48 96 255
48 96 255
48 96 255
48 96 255
48 96 255
48 96 255
48 96 255
48 96 255
48 96 255
48 96 255
48 96 255
48 96 255
48 96 255
48 96 255
48 96 255
48 95 255
48 95 255
48 95 255
48 95 255
48 95 255
48 95 255
48 95 255
48 95 255
48 95 255
48 95 255
48 95 255
48 95 255
48 95 255
48 95 255
48 95 255
48 95 255
48 95 255
48 95 255
48 95 255
48 95 255
48 95 255
48 95 255
48 95 255
48 95 255
48 95 255
48 95 255
48 95 255
48 95 255
48 95 255
48 95 255
48 95 255
48 95 255
48 95 255
48 95 255
48 95 255
48 95 255
48 95 255
48 95 255
48 95 255
48 95 255
48 95 255
48 95 255
48 95 255
48 95 255
48 95 255
48 95 255
48 95 255
48 95 255
48 95 255
48 95 255
48 95 255
48 95 255
48 95 255
48 95 255
48 95 255
48 95 255
48 95 255
48 95 255
48 95 255
48 95 255
48 95 255
48 95 255
48 95 255
48 95 255
48 95 255
48 95 255
48 95 255
48 95 255
48 95 255
48 95 255
48 95 255
48 95 255
47 94 255
47 94 255
47 94 255
47 94 255
47 94 255
47 94 255
47 94 255
47 94 255
47 94 255
47 94 255
47 94 255
47 94 255
47 94 255
47 94 255
47 94 255
47 94 255
47 94 255
47 94 255
47 94 255
47 94 255
47 94 255
47 94 255
47 94 255
47 94 255
47 94 255
47 94 255
47 94 255
47 94 255
47 94 255
47 94 255
47 94 255
47 94 255
47 94 255
47 94 255
47 94 255
47 94 255
47 94 255
47 94 255
47 94 255
47 94 255
47 94 255
47 94 255
47 94 255
47 94 255
47 94 255
47 94 255
47 94 255
47 94 255
47 94 255
47 94 255
47 94 255
47 94 255
47 94 255
47 94 255
47 94 255
47 94 255
47 94 255
47 94 255
47 94 255
47 94 255
47 94 255
47 94 255
47 94 255
47 94 255
47 94 255
47 94 255
47 94 255
47 94 255
47 94 255
47 94 255
47 94 255
47 94 255
47 93 255
47 93 255
47 93 255
47 93 255
47 93 255
47 93 255
47 93 255
47 93 255
47 93 255
47 93 255
47 93 255
47 93 255
47 93 255
47 93 255
47 93 255
47 93 255
47 93 255
47 93 255
47 93 255
47 93 255
47 93 255
47 93 255
47 93 255
47 93 255
47 93 255
47 93 255
47 93 255
47 93 255
47 93 255
47 93 255
47 93 255
47 93 255
47 93 255
47 93 255
47 93 255
47 93 255
47 93 255
47 93 255
47 93 255
47 93 255
47 93 255
47 93 255
47 93 255
47 93 255
47 93 255
47 93 255
47 93 255
47 93 255
47 93 255
47 93 255
47 93 255
47 93 255
47 93 255
47 93 255
47 93 255
47 93 255
47 93 255
47 93 255
47 93 255
47 93 255
47 93 255
47 93 255
47 93 255
47 93 255
47 93 255
47 93 255
47 93 255
47 93 255
47 93 255
47 93 255
47 93 255
47 93 255
46 92 255
46 92 255
46 92 255
46 92 255
46 92 255
46 92 255
46 92 255
46 92 255
46 92 255
46 92 255
46 92 255
46 92 255
46 92 255
46 92 255
46 92 255
46 92 255
46 92 255
46 92 255
46 92 255
46 92 255
46 92 255
46 92 255
46 92 255
46 92 255
46 92 255
46 92 255
46 92 255
46 92 255
46 92 255
46 92 255
46 92 255
46 92 255
46 92 255
46 92 255
46 92 255
46 92 255
46 92 255
46 92 255
46 92 255
46 92 255
46 92 255
46 92 255
46 92 255
46 92 255
46 92 255
46 92 255
46 92 255
46 92 255
46 92 255
46 92 255
46 92 255
46 92 255
46 92 255
46 92 255
46 92 255
46 92 255
46 92 255
46 92 255
46 92 255
46 92 255
46 92 255
46 92 255
46 92 255
46 92 255
46 92 255
46 92 255
46 92 255
46 92 255
46 92 255
46 92 255
46 92 255
46 92 255
45 91 255
45 91 255
45 91 255
45 91 255
45 91 255
45 91 255
45 91 255
45 91 255
45 91 255
45 91 255
45 91 255
45 91 255
45 91 255
45 91 255
45 91 255
45 91 255
45 91 255
45 91 255
45 91 255
45 91 255
45 91 255
45 91 255
45 91 255
45 91 255
45 91 255
45 91 255
45 91 255
45 91 255
45 91 255
45 91 255
45 91 255
45 91 255
45 91 255
45 91 255
45 91 255
45 91 255
45 91 255
45 91 255
45 91 255
45 91 255
45 91 255
45 91 255
45 91 255
45 91 255
45 91 255
45 91 255
45 91 255
45 91 255
45 91 255
45 91 255
45 91 255
45 91 255
45 91 255
45 91 255
45 91 255
45 91 255
45 91 255
45 91 255
45 91 255
45 91 255
45 91 255
45 91 255
45 91 255
45 91 255
45 91 255
45 91 255
45 91 255
45 91 255
45 91 255
45 91 255
45 91 255
45 91 255
45 90 255
45 90 255
45 90 255
45 90 255
45 90 255
45 90 255
45 90 255
45 90 255
45 90 255
45 90 255
45 90 255
45 90 255
45 90 255
45 90 255
45 90 255
45 90 255
45 90 255
45 90 255
45 90 255
45 90 255
45 90 255
45 90 255
45 90 255
45 90 255
45 90 255
45 90 255
45 90 255
45 90 255
45 90 255
45 90 255
45 90 255
45 90 255
45 90 255
45 90 255
45 90 255
45 90 255
45 90 255
45 90 255
45 90 255
45 90 255
45 90 255
45 90 255
45 90 255
45 90 255
45 90 255
45 90 255
45 90 255
45 90 255
45 90 255
45 90 255
45 90 255
45 90 255
45 90 255
45 90 255
45 90 255
45 90 255
45 90 255
45 90 255
45 90 255
45 90 255
45 90 255
45 90 255
45 90 255
45 90 255
45 90 255
45 90 255
45 90 255
45 90 255
45 90 255
45 90 255
45 90 255
45 90 255
44 89 255
44 89 255
44 89 255
44 89 255
44 89 255
44 89 255
44 89 255
44 89 255
44 89 255
44 89 255
44 89 255
44 89 255
44 89 255
44 89 255
44 89 255
44 89 255
44 89 255
44 89 255
44 89 255
44 89 255
44 89 255
44 89 255
44 89 255
44 89 255
44 89 255
44 89 255
44 89 255
44 89 255
44 89 255
44 89 255
44 89 255
44 89 255
44 89 255
44 89 255
44 89 255
44 89 255
44 89 255
44 89 255
44 89 255
44 89 255
44 89 255
44 89 255
44 89 255
44 89 255
44 89 255
44 89 255
44 89 255
44 89 255
44 89 255
44 89 255
44 89 255
44 89 255
44 89 255
44 89 255
44 89 255
44 89 255
44 89 255
44 89 255
44 89 255
44 89 255
44 89 255
44 89 255
44 89 255
44 89 255
44 89 255
44 89 255
44 89 255
44 89 255
44 89 255
44 89 255
44 89 255
44 89 255
44 88 255
44 88 255
44 88 255
44 88 255
44 88 255
44 88 255
44 88 255
44 88 255
44 88 255
44 88 255
44 88 255
44 88 255
44 88 255
44 88 255
44 88 255
44 88 255
44 88 255
44 88 255
44 88 255
44 88 255
44 88 255
44 88 255
44 88 255
44 88 255
44 88 255
44 88 255
44 88 255
44 88 255
44 88 255
44 88 255
44 88 255
44 88 255
44 88 255
44 88 255
44 88 255
44 88 255
44 88 255
44 88 255
44 88 255
44 88 255
44 88 255
44 88 255
44 88 255
44 88 255
44 88 255
44 88 255
44 88 255
44 88 255
44 88 255
44 88 255
44 88 255
44 88 255
44 88 255
44 88 255
44 88 255
44 88 255
44 88 255
44 88 255
44 88 255
44 88 255
44 88 255
44 88 255
44 88 255
44 88 255
44 88 255
44 88 255
44 88 255
44 88 255
44 88 255
44 88 255
44 88 255
44 88 255
43 86 255
43 86 255
43 86 255
43 86 255
43 86 255
43 86 255
43 86 255
43 86 255
43 86 255
43 86 255
43 86 255
43 86 255
43 86 255
43 86 255
43 86 255
43 86 255
43 86 255
43 86 255
43 86 255
43 86 255
43 86 255
43 86 255
43 86 255
43 86 255
43 86 255
43 86 255
43 86 255
43 86 255
43 86 255
43 86 255
43 86 255
43 86 255
43 86 255
43 86 255
43 86 255
43 86 255
43 86 255
43 86 255
43 86 255
43 86 255
43 86 255
43 86 255
43 86 255
43 86 255
43 86 255
43 86 255
43 86 255
43 86 255
43 86 255
43 86 255
43 86 255
43 86 255
43 86 255
43 86 255
43 86 255
43 86 255
43 86 255
43 86 255
43 86 255
43 86 255
43 86 255
43 86 255
43 86 255
43 86 255
43 86 255
43 86 255
43 86 255
43 86 255
43 86 255
43 86 255
43 86 255
43 86 255
43 85 255
43 85 255
43 85 255
43 85 255
43 85 255
43 85 255
43 85 255
43 85 255
43 85 255
43 85 255
43 85 255
43 85 255
43 85 255
43 85 255
43 85 255
43 85 255
43 85 255
43 85 255
43 85 255
43 85 255
43 85 255
43 85 255
43 85 255
43 85 255
43 85 255
43 85 255
43 85 255
43 85 255
43 85 255
43 85 255
43 85 255
43 85 255
43 85 255
43 85 255
43 85 255
43 85 255
43 85 255
43 85 255
43 85 255
43 85 255
43 85 255
43 85 255
43 85 255
43 85 255
43 85 255
43 85 255
43 85 255
43 85 255
43 85 255
43 85 255
43 85 255
43 85 255
43 85 255
43 85 255
43 85 255
43 85 255
43 85 255
43 85 255
43 85 255
43 85 255
43 85 255
43 85 255
43 85 255
43 85 255
43 85 255
43 85 255
43 85 255
43 85 255
43 85 255
43 85 255
43 85 255
43 85 255
42 84 255
42 84 255
42 84 255
42 84 255
42 84 255
42 84 255
42 84 255
42 84 255
42 84 255
42 84 255
42 84 255
42 84 255
42 84 255
42 84 255
42 84 255
42 84 255
42 84 255
42 84 255
42 84 255
42 84 255
42 84 255
42 84 255
42 84 255
42 84 255
42 84 255
42 84 255
42 84 255
42 84 255
42 84 255
42 84 255
42 84 255
42 84 255
42 84 255
42 84 255
42 84 255
42 84 255
42 84 255
42 84 255
42 84 255
42 84 255
42 84 255
42 84 255
42 84 255
42 84 255
42 84 255
42 84 255
42 84 255
42 84 255
42 84 255
42 84 255
42 84 255
42 84 255
42 84 255
42 84 255
42 84 255
42 84 255
42 84 255
42 84 255
42 84 255
42 84 255
42 84 255
42 84 255
42 84 255
42 84 255
42 84 255
42 84 255
42 84 255
42 84 255
42 84 255
42 84 255
42 84 255
42 84 255
42 83 255
42 83 255
42 83 255
42 83 255
42 83 255
42 83 255
42 83 255
42 83 255
42 83 255
42 83 255
42 83 255
42 83 255
42 83 255
42 83 255
42 83 255
42 83 255
42 83 255
42 83 255
42 83 255
42 83 255
42 83 255
42 83 255
42 83 255
42 83 255
42 83 255
42 83 255
42 83 255
42 83 255
42 83 255
42 83 255
42 83 255
42 83 255
42 83 255
42 83 255
42 83 255
42 83 255
42 83 255
42 83 255
42 83 255
42 83 255
42 83 255
42 83 255
42 83 255
42 83 255
42 83 255
42 83 255
42 83 255
42 83 255
42 83 255
42 83 255
42 83 255
42 83 255
42 83 255
42 83 255
42 83 255
42 83 255
42 83 255
42 83 255
42 83 255
42 83 255
42 83 255
42 83 255
42 83 255
42 83 255
42 83 255
42 83 255
42 83 255
42 83 255
42 83 255
42 83 255
42 83 255
42 83 255
41 82 255
41 82 255
41 82 255
41 82 255
41 82 255
41 82 255
41 82 255
41 82 255
41 82 255
41 82 255
41 82 255
41 82 255
41 82 255
41 82 255
41 82 255
41 82 255
41 82 255
41 82 255
41 82 255
41 82 255
41 82 255
41 82 255
41 82 255
41 82 255
41 82 255
41 82 255
41 82 255
41 82 255
41 82 255
41 82 255
41 82 255
41 82 255
41 82 255
41 82 255
41 82 255
41 82 255
41 82 255
41 82 255
41 82 255
41 82 255
41 82 255
41 82 255
41 82 255
41 82 255
41 82 255
41 82 255
41 82 255
41 82 255
41 82 255
41 82 255
41 82 255
41 82 255
41 82 255
41 82 255
41 82 255
41 82 255
41 82 255
41 82 255
41 82 255
41 82 255
41 82 255
41 82 255
41 82 255
41 82 255
41 82 255
41 82 255
41 82 255
41 82 255
41 82 255
41 82 255
41 82 255
41 82 255
40 81 255
40 81 255
40 81 255
40 81 255
40 81 255
40 81 255
40 81 255
40 81 255
40 81 255
40 81 255
40 81 255
40 81 255
40 81 255
40 81 255
40 81 255
40 81 255
40 81 255
40 81 255
40 81 255
40 81 255
40 81 255
40 81 255
40 81 255
40 81 255
40 81 255
40 81 255
40 81 255
40 81 255
40 81 255
40 81 255
40 81 255
40 81 255
40 81 255
40 81 255
40 81 255
40 81 255
40 81 255
40 81 255
40 81 255
40 81 255
40 81 255
40 81 255
40 81 255
40 81 255
40 81 255
40 81 255
40 81 255
40 81 255
40 81 255
40 81 255
40 81 255
40 81 255
40 81 255
40 81 255
40 81 255
40 81 255
40 81 255
40 81 255
40 81 255
40 81 255
40 81 255
40 81 255
40 81 255
40 81 255
40 81 255
40 81 255
40 81 255
40 81 255
40 81 255
40 81 255
40 81 255
40 81 255
40 80 255
40 80 255
40 80 255
40 80 255
40 80 255
40 80 255
40 80 255
40 80 255
40 80 255
40 80 255
40 80 255
40 80 255
40 80 255
40 80 255
40 80 255
40 80 255
40 80 255
40 80 255
40 80 255
40 80 255
40 80 255
40 80 255
40 80 255
40 80 255
40 80 255
40 80 255
40 80 255
40 80 255
40 80 255
40 80 255
40 80 255
40 80 255
40 80 255
40 80 255
40 80 255
40 80 255
40 80 255
40 80 255
40 80 255
40 80 255
40 80 255
40 80 255
40 80 255
40 80 255
40 80 255
40 80 255
40 80 255
40 80 255
40 80 255
40 80 255
40 80 255
40 80 255
40 80 255
40 80 255
40 80 255
40 80 255
40 80 255
40 80 255
40 80 255
40 80 255
40 80 255
40 80 255
40 80 255
40 80 255
40 80 255
40 80 255
40 80 255
40 80 255
40 80 255
40 80 255
40 80 255
40 80 255
39 79 255
39 79 255
39 79 255
39 79 255
39 79 255
39 79 255
39 79 255
39 79 255
39 79 255
39 79 255
39 79 255
39 79 255
39 79 255
39 79 255
39 79 255
39 79 255
39 79 255
39 79 255
39 79 255
39 79 255
39 79 255
39 79 255
39 79 255
39 79 255
39 79 255
39 79 255
39 79 255
39 79 255
39 79 255
39 79 255
39 79 255
39 79 255
39 79 255
39 79 255
39 79 255
39 79 255
39 79 255
39 79 255
39 79 255
39 79 255
39 79 255
39 79 255
39 79 255
39 79 255
39 79 255
39 79 255
39 79 255
39 79 255
39 79 255
39 79 255
39 79 255
39 79 255
39 79 255
39 79 255
39 79 255
39 79 255
39 79 255
39 79 255
39 79 255
39 79 255
39 79 255
39 79 255
39 79 255
39 79 255
39 79 255
39 79 255
39 79 255
39 79 255
39 79 255
39 79 255
39 79 255
39 79 255
39 78 255
39 78 255
39 78 255
39 78 255
39 78 255
39 78 255
39 78 255
39 78 255
39 78 255
39 78 255
39 78 255
39 78 255
39 78 255
39 78 255
39 78 255
39 78 255
39 78 255
39 78 255
39 78 255
39 78 255
39 78 255
39 78 255
39 78 255
39 78 255
39 78 255
39 78 255
39 78 255
39 78 255
39 78 255
39 78 255
39 78 255
39 78 255
39 78 255
39 78 255
39 78 255
39 78 255
39 78 255
39 78 255
39 78 255
39 78 255
39 78 255
39 78 255
39 78 255
39 78 255
39 78 255
39 78 255
39 78 255
39 78 255
39 78 255
39 78 255
39 78 255
39 78 255
39 78 255
39 78 255
39 78 255
39 78 255
39 78 255
39 78 255
39 78 255
39 78 255
39 78 255
39 78 255
39 78 255
39 78 255
39 78 255
39 78 255
39 78 255
39 78 255
39 78 255
39 78 255
39 78 255
39 78 255
38 77 255
38 77 255
38 77 255
38 77 255
38 77 255
38 77 255
38 77 255
38 77 255
38 77 255
38 77 255
38 77 255
38 77 255
38 77 255
38 77 255
38 77 255
38 77 255
38 77 255
38 77 255
38 77 255
38 77 255
38 77 255
38 77 255
38 77 255
38 77 255
38 77 255
38 77 255
38 77 255
38 77 255
38 77 255
38 77 255
38 77 255
38 77 255
38 77 255
38 77 255
38 77 255
38 77 255
38 77 255
38 77 255
38 77 255
38 77 255
38 77 255
38 77 255
38 77 255
38 77 255
38 77 255
38 77 255
38 77 255
38 77 255
38 77 255
38 77 255
38 77 255
38 77 255
38 77 255
38 77 255
38 77 255
38 77 255
38 77 255
38 77 255
38 77 255
38 77 255
38 77 255
38 77 255
38 77 255
38 77 255
38 77 255
38 77 255
38 77 255
38 77 255
38 77 255
38 77 255
38 77 255
38 77 255
38 76 255
38 76 255
38 76 255
38 76 255
38 76 255
38 76 255
38 76 255
38 76 255
38 76 255
38 76 255
38 76 255
38 76 255
38 76 255
38 76 255
38 76 255
38 76 255
38 76 255
38 76 255
38 76 255
38 76 255
38 76 255
38 76 255
38 76 255
38 76 255
38 76 255
38 76 255
38 76 255
38 76 255
38 76 255
38 76 255
38 76 255
38 76 255
38 76 255
38 76 255
38 76 255
38 76 255
38 76 255
38 76 255
38 76 255
38 76 255
38 76 255
38 76 255
38 76 255
38 76 255
38 76 255
38 76 255
38 76 255
38 76 255
38 76 255
38 76 255
38 76 255
38 76 255
38 76 255
38 76 255
38 76 255
38 76 255
38 76 255
38 76 255
38 76 255
38 76 255
38 76 255
38 76 255
38 76 255
38 76 255
38 76 255
38 76 255
38 76 255
38 76 255
38 76 255
38 76 255
38 76 255
38 76 255
37 74 255
37 74 255
37 74 255
37 74 255
37 74 255
37 74 255
37 74 255
37 74 255
37 74 255
37 74 255
37 74 255
37 74 255
37 74 255
37 74 255
37 74 255
37 74 255
37 74 255
37 74 255
37 74 255
37 74 255
37 74 255
37 74 255
37 74 255
37 74 255
37 74 255
37 74 255
37 74 255
37 74 255
37 74 255
37 74 255
37 74 255
37 74 255
37 74 255
37 74 255
37 74 255
37 74 255
37 74 255
37 74 255
37 74 255
37 74 255
37 74 255
37 74 255
37 74 255
37 74 255
37 74 255
37 74 255
37 74 255
37 74 255
37 74 255
37 74 255
37 74 255
37 74 255
37 74 255
37 74 255
37 74 255
37 74 255
37 74 255
37 74 255
37 74 255
37 74 255
37 74 255
37 74 255
37 74 255
37 74 255
37 74 255
37 74 255
37 74 255
37 74 255
37 74 255
37 74 255
37 74 255
37 74 255
37 73 255
37 73 255
37 73 255
37 73 255
37 73 255
37 73 255
37 73 255
37 73 255
37 73 255
37 73 255
37 73 255
37 73 255
37 73 255
37 73 255
37 73 255
37 73 255
37 73 255
37 73 255
37 73 255
37 73 255
37 73 255
37 73 255
37 73 255
37 73 255
37 73 255
37 73 255
37 73 255
37 73 255
37 73 255
37 73 255
37 73 255
37 73 255
37 73 255
37 73 255
37 73 255
37 73 255
37 73 255
37 73 255
37 73 255
37 73 255
37 73 255
37 73 255
37 73 255
37 73 255
37 73 255
37 73 255
37 73 255
37 73 255
37 73 255
37 73 255
37 73 255
37 73 255
37 73 255
37 73 255
37 73 255
37 73 255
37 73 255
37 73 255
37 73 255
37 73 255
37 73 255
37 73 255
37 73 255
37 73 255
37 73 255
37 73 255
37 73 255
37 73 255
37 73 255
37 73 255
37 73 255
37 73 255
36 72 255
36 72 255
36 72 255
36 72 255
36 72 255
36 72 255
36 72 255
36 72 255
36 72 255
36 72 255
36 72 255
36 72 255
36 72 255
36 72 255
36 72 255
36 72 255
36 72 255
36 72 255
36 72 255
36 72 255
36 72 255
36 72 255
36 72 255
36 72 255
36 72 255
36 72 255
36 72 255
36 72 255
36 72 255
36 72 255
36 72 255
36 72 255
36 72 255
36 72 255
36 72 255
36 72 255
36 72 255
36 72 255
36 72 255
36 72 255
36 72 255
36 72 255
36 72 255
36 72 255
36 72 255
36 72 255
36 72 255
36 72 255
36 72 255
36 72 255
36 72 255
36 72 255
36 72 255
36 72 255
36 72 255
36 72 255
36 72 255
36 72 255
36 72 255
36 72 255
36 72 255
36 72 255
36 72 255
36 72 255
36 72 255
36 72 255
36 72 255
36 72 255
36 72 255
36 72 255
36 72 255
36 72 255
36 71 255
36 71 255
36 71 255
36 71 255
36 71 255
36 71 255
36 71 255
36 71 255
36 71 255
36 71 255
36 71 255
36 71 255
36 71 255
36 71 255
36 71 255
36 71 255
36 71 255
36 71 255
36 71 255
36 71 255
36 71 255
36 71 255
36 71 255
36 71 255
36 71 255
36 71 255
36 71 255
36 71 255
36 71 255
36 71 255
36 71 255
36 71 255
36 71 255
36 71 255
36 71 255
36 71 255
36 71 255
36 71 255
36 71 255
36 71 255
36 71 255
36 71 255
36 71 255
36 71 255
36 71 255
36 71 255
36 71 255
36 71 255
36 71 255
36 71 255
36 71 255
36 71 255
36 71 255
36 71 255
36 71 255
36 71 255
36 71 255
36 71 255
36 71 255
36 71 255
36 71 255
36 71 255
36 71 255
36 71 255
36 71 255
36 71 255
36 71 255
36 71 255
36 71 255
36 71 255
36 71 255
36 71 255
35 70 255
35 70 255
35 70 255
35 70 255
35 70 255
35 70 255
35 70 255
35 70 255
35 70 255
35 70 255
35 70 255
35 70 255
35 70 255
35 70 255
35 70 255
35 70 255
35 70 255
35 70 255
35 70 255
35 70 255
35 70 255
35 70 255
35 70 255
35 70 255
35 70 255
35 70 255
35 70 255
35 70 255
35 70 255
35 70 255
35 70 255
35 70 255
35 70 255
35 70 255
35 70 255
35 70 255
35 70 255
35 70 255
35 70 255
35 70 255
35 70 255
35 70 255
35 70 255
35 70 255
35 70 255
35 70 255
35 70 255
35 70 255
35 70 255
35 70 255
35 70 255
35 70 255
35 70 255
35 70 255
35 70 255
35 70 255
35 70 255
35 70 255
35 70 255
35 70 255
35 70 255
35 70 255
35 70 255
35 70 255
35 70 255
35 70 255
35 70 255
35 70 255
35 70 255
35 70 255
35 70 255
35 70 255
34 69 255
34 69 255
34 69 255
34 69 255
34 69 255
34 69 255
34 69 255
34 69 255
34 69 255
34 69 255
34 69 255
34 69 255
34 69 255
34 69 255
34 69 255
34 69 255
34 69 255
34 69 255
34 69 255
34 69 255
34 69 255
34 69 255
34 69 255
34 69 255
34 69 255
34 69 255
34 69 255
34 69 255
34 69 255
34 69 255
34 69 255
34 69 255
34 69 255
34 69 255
34 69 255
34 69 255
34 69 255
34 69 255
34 69 255
34 69 255
34 69 255
34 69 255
34 69 255
34 69 255
34 69 255
34 69 255
34 69 255
34 69 255
34 69 255
34 69 255
34 69 255
34 69 255
34 69 255
34 69 255
34 69 255
34 69 255
34 69 255
34 69 255
34 69 255
34 69 255
34 69 255
34 69 255
34 69 255
34 69 255
34 69 255
34 69 255
34 69 255
34 69 255
34 69 255
34 69 255
34 69 255
34 69 255
34 68 255
34 68 255
34 68 255
34 68 255
34 68 255
34 68 255
34 68 255
34 68 255
34 68 255
34 68 255
34 68 255
34 68 255
34 68 255
34 68 255
34 68 255
34 68 255
34 68 255
34 68 255
34 68 255
34 68 255
34 68 255
34 68 255
34 68 255
34 68 255
34 68 255
34 68 255
34 68 255
34 68 255
34 68 255
34 68 255
34 68 255
34 68 255
34 68 255
34 68 255
34 68 255
34 68 255
34 68 255
34 68 255
34 68 255
34 68 255
34 68 255
34 68 255
34 68 255
34 68 255
34 68 255
34 68 255
34 68 255
34 68 255
34 68 255
34 68 255
34 68 255
34 68 255
34 68 255
34 68 255
34 68 255
34 68 255
34 68 255
34 68 255
34 68 255
34 68 255
34 68 255
34 68 255
34 68 255
34 68 255
34 68 255
34 68 255
34 68 255
34 68 255
34 68 255
34 68 255
34 68 255
34 68 255
33 67 255
33 67 255
33 67 255
33 67 255
33 67 255
33 67 255
33 67 255
33 67 255
33 67 255
33 67 255
33 67 255
33 67 255
33 67 255
33 67 255
33 67 255
33 67 255
33 67 255
33 67 255
33 67 255
33 67 255
33 67 255
33 67 255
33 67 255
33 67 255
33 67 255
33 67 255
33 67 255
33 67 255
33 67 255
33 67 255
33 67 255
33 67 255
33 67 255
33 67 255
33 67 255
33 67 255
33 67 255
33 67 255
33 67 255
33 67 255
33 67 255
33 67 255
33 67 255
33 67 255
33 67 255
33 67 255
33 67 255
33 67 255
33 67 255
33 67 255
33 67 255
33 67 255
33 67 255
33 67 255
33 67 255
33 67 255
33 67 255
33 67 255
33 67 255
33 67 255
33 67 255
33 67 255
33 67 255
33 67 255
33 67 255
33 67 255
33 67 255
33 67 255
33 67 255
33 67 255
33 67 255
33 67 255
33 66 255
33 66 255
33 66 255
33 66 255
33 66 255
33 66 255
33 66 255
33 66 255
33 66 255
33 66 255
33 66 255
33 66 255
33 66 255
33 66 255
33 66 255
33 66 255
33 66 255
33 66 255
33 66 255
33 66 255
33 66 255
33 66 255
33 66 255
33 66 255
33 66 255
33 66 255
33 66 255
33 66 255
33 66 255
33 66 255
33 66 255
33 66 255
33 66 255
33 66 255
33 66 255
33 66 255
33 66 255
33 66 255
33 66 255
33 66 255
33 66 255
33 66 255
33 66 255
33 66 255
33 66 255
33 66 255
33 66 255
33 66 255
33 66 255
33 66 255
33 66 255
33 66 255
33 66 255
33 66 255
33 66 255
33 66 255
33 66 255
33 66 255
33 66 255
33 66 255
33 66 255
33 66 255
33 66 255
33 66 255
33 66 255
33 66 255
33 66 255
33 66 255
33 66 255
33 66 255
33 66 255
33 66 255
32 65 255
32 65 255
32 65 255
32 65 255
32 65 255
32 65 255
32 65 255
32 65 255
32 65 255
32 65 255
32 65 255
32 65 255
32 65 255
32 65 255
32 65 255
32 65 255
32 65 255
32 65 255
32 65 255
32 65 255
32 65 255
32 65 255
32 65 255
32 65 255
32 65 255
32 65 255
32 65 255
32 65 255
32 65 255
32 65 255
32 65 255
32 65 255
32 65 255
32 65 255
32 65 255
32 65 255
32 65 255
32 65 255
32 65 255
32 65 255
32 65 255
32 65 255
32 65 255
32 65 255
32 65 255
32 65 255
32 65 255
32 65 255
32 65 255
32 65 255
32 65 255
32 65 255
32 65 255
32 65 255
32 65 255
32 65 255
32 65 255
32 65 255
32 65 255
32 65 255
32 65 255
32 65 255
32 65 255
32 65 255
32 65 255
32 65 255
32 65 255
32 65 255
32 65 255
32 65 255
32 65 255
32 65 255
32 63 255
32 63 255
32 63 255
32 63 255
32 63 255
32 63 255
32 63 255
32 63 255
32 63 255
32 63 255
32 63 255
32 63 255
32 63 255
32 63 255
32 63 255
32 63 255
32 63 255
32 63 255
32 63 255
32 63 255
32 63 255
32 63 255
32 63 255
32 63 255
32 63 255
32 63 255
32 63 255
32 63 255
32 63 255
32 63 255
32 63 255
32 63 255
32 63 255
32 63 255
32 63 255
32 63 255
32 63 255
32 63 255
32 63 255
32 63 255
32 63 255
32 63 255
32 63 255
32 63 255
32 63 255
32 63 255
32 63 255
32 63 255
32 63 255
32 63 255
32 63 255
32 63 255
32 63 255
32 63 255
32 63 255
32 63 255
32 63 255
32 63 255
32 63 255
32 63 255
32 63 255
32 63 255
32 63 255
32 63 255
32 63 255
32 63 255
32 63 255
32 63 255
32 63 255
32 63 255
32 63 255
32 63 255
31 62 255
31 62 255
31 62 255
31 62 255
31 62 255
31 62 255
31 62 255
31 62 255
31 62 255
31 62 255
31 62 255
31 62 255
31 62 255
31 62 255
31 62 255
31 62 255
31 62 255
31 62 255
31 62 255
31 62 255
31 62 255
31 62 255
31 62 255
31 62 255
31 62 255
31 62 255
31 62 255
31 62 255
31 62 255
31 62 255
31 62 255
31 62 255
31 62 255
31 62 255
31 62 255
31 62 255
31 62 255
31 62 255
31 62 255
31 62 255
31 62 255
31 62 255
31 62 255
31 62 255
31 62 255
31 62 255
31 62 255
31 62 255
31 62 255
31 62 255
31 62 255
31 62 255
31 62 255
31 62 255
31 62 255
31 62 255
31 62 255
31 62 255
31 62 255
31 62 255
31 62 255
31 62 255
31 62 255
31 62 255
31 62 255
31 62 255
31 62 255
31 62 255
31 62 255
31 62 255
31 62 255
31 62 255
31 61 255
31 61 255
31 61 255
31 61 255
31 61 255
31 61 255
31 61 255
31 61 255
31 61 255
31 61 255
31 61 255
31 61 255
31 61 255
31 61 255
31 61 255
31 61 255
31 61 255
31 61 255
31 61 255
31 61 255
31 61 255
31 61 255
31 61 255
31 61 255
31 61 255
31 61 255
31 61 255
31 61 255
31 61 255
31 61 255
31 61 255
31 61 255
31 61 255
31 61 255
31 61 255
31 61 255
31 61 255
31 61 255
31 61 255
31 61 255
31 61 255
31 61 255
31 61 255
31 61 255
31 61 255
31 61 255
31 61 255
31 61 255
31 61 255
31 61 255
31 61 255
31 61 255
31 61 255
31 61 255
31 61 255
31 61 255
31 61 255
31 61 255
31 61 255
31 61 255
31 61 255
31 61 255
31 61 255
31 61 255
31 61 255
31 61 255
31 61 255
31 61 255
31 61 255
31 61 255
31 61 255
31 61 255
30 60 255
30 60 255
30 60 255
30 60 255
30 60 255
30 60 255
30 60 255
30 60 255
30 60 255
30 60 255
30 60 255
30 60 255
30 60 255
30 60 255
30 60 255
30 60 255
30 60 255
30 60 255
30 60 255
30 60 255
30 60 255
30 60 255
30 60 255
30 60 255
30 60 255
30 60 255
30 60 255
30 60 255
30 60 255
30 60 255
30 60 255
30 60 255
30 60 255
30 60 255
30 60 255
30 60 255
30 60 255
30 60 255
30 60 255
30 60 255
30 60 255
30 60 255
30 60 255
30 60 255
30 60 255
30 60 255
30 60 255
30 60 255
30 60 255
30 60 255
30 60 255
30 60 255
30 60 255
30 60 255
30 60 255
30 60 255
30 60 255
30 60 255
30 60 255
30 60 255
30 60 255
30 60 255
30 60 255
30 60 255
30 60 255
30 60 255
30 60 255
30 60 255
30 60 255
30 60 255
30 60 255
30 60 255
30 59 255
30 59 255
30 59 255
30 59 255
30 59 255
30 59 255
30 59 255
30 59 255
30 59 255
30 59 255
30 59 255
30 59 255
30 59 255
30 59 255
30 59 255
30 59 255
30 59 255
30 59 255
30 59 255
30 59 255
30 59 255
30 59 255
30 59 255
30 59 255
30 59 255
30 59 255
30 59 255
30 59 255
30 59 255
30 59 255
30 59 255
30 59 255
30 59 255
30 59 255
30 59 255
30 59 255
30 59 255
30 59 255
30 59 255
30 59 255
30 59 255
30 59 255
30 59 255
30 59 255
30 59 255
30 59 255
30 59 255
30 59 255
30 59 255
30 59 255
30 59 255
30 59 255
30 59 255
30 59 255
30 59 255
30 59 255
30 59 255
30 59 255
30 59 255
30 59 255
30 59 255
30 59 255
30 59 255
30 59 255
30 59 255
30 59 255
30 59 255
30 59 255
30 59 255
30 59 255
30 59 255
30 59 255
29 58 255
29 58 255
29 58 255
29 58 255
29 58 255
29 58 255
29 58 255
29 58 255
29 58 255
29 58 255
29 58 255
29 58 255
29 58 255
29 58 255
29 58 255
29 58 255
29 58 255
29 58 255
29 58 255
29 58 255
29 58 255
29 58 255
29 58 255
29 58 255
29 58 255
29 58 255
29 58 255
29 58 255
29 58 255
29 58 255
29 58 255
29 58 255
29 58 255
29 58 255
29 58 255
29 58 255
29 58 255
29 58 255
29 58 255
29 58 255
29 58 255
29 58 255
29 58 255
29 58 255
29 58 255
29 58 255
29 58 255
29 58 255
29 58 255
29 58 255
29 58 255
29 58 255
29 58 255
29 58 255
29 58 255
29 58 255
29 58 255
29 58 255
29 58 255
29 58 255
29 58 255
29 58 255
29 58 255
29 58 255
29 58 255
29 58 255
29 58 255
29 58 255
29 58 255
29 58 255
29 58 255
29 58 255
28 57 255
28 57 255
28 57 255
28 57 255
28 57 255
28 57 255
28 57 255
28 57 255
28 57 255
28 57 255
28 57 255
28 57 255
28 57 255
28 57 255
28 57 255
28 57 255
28 57 255
28 57 255
28 57 255
28 57 255
28 57 255
28 57 255
28 57 255
28 57 255
28 57 255
28 57 255
28 57 255
28 57 255
28 57 255
28 57 255
28 57 255
28 57 255
28 57 255
28 57 255
28 57 255
28 57 255
28 57 255
28 57 255
28 57 255
28 57 255
28 57 255
28 57 255
28 57 255
28 57 255
28 57 255
28 57 255
28 57 255
28 57 255
28 57 255
28 57 255
28 57 255
28 57 255
28 57 255
28 57 255
28 57 255
28 57 255
28 57 255
28 57 255
28 57 255
28 57 255
28 57 255
28 57 255
28 57 255
28 57 255
28 57 255
28 57 255
28 57 255
28 57 255
28 57 255
28 57 255
28 57 255
28 57 255
28 56 255
28 56 255
28 56 255
28 56 255
28 56 255
28 56 255
28 56 255
28 56 255
28 56 255
28 56 255
28 56 255
28 56 255
28 56 255
28 56 255
28 56 255
28 56 255
28 56 255
28 56 255
28 56 255
28 56 255
28 56 255
28 56 255
28 56 255
28 56 255
28 56 255
28 56 255
28 56 255
28 56 255
28 56 255
28 56 255
28 56 255
28 56 255
28 56 255
28 56 255
28 56 255
28 56 255
28 56 255
28 56 255
28 56 255
28 56 255
28 56 255
28 56 255
28 56 255
28 56 255
28 56 255
28 56 255
28 56 255
28 56 255
28 56 255
28 56 255
28 56 255
28 56 255
28 56 255
28 56 255
28 56 255
28 56 255
28 56 255
28 56 255
28 56 255
28 56 255
28 56 255
28 56 255
28 56 255
28 56 255
28 56 255
28 56 255
28 56 255
28 56 255
28 56 255
28 56 255
28 56 255
28 56 255
27 55 255
27 55 255
27 55 255
27 55 255
27 55 255
27 55 255
27 55 255
27 55 255
27 55 255
27 55 255
27 55 255
27 55 255
27 55 255
27 55 255
27 55 255
27 55 255
27 55 255
27 55 255
27 55 255
27 55 255
27 55 255
27 55 255
27 55 255
27 55 255
27 55 255
27 55 255
27 55 255
27 55 255
27 55 255
27 55 255
27 55 255
27 55 255
27 55 255
27 55 255
27 55 255
27 55 255
27 55 255
27 55 255
27 55 255
27 55 255
27 55 255
27 55 255
27 55 255
27 55 255
27 55 255
27 55 255
27 55 255
27 55 255
27 55 255
27 55 255
27 55 255
27 55 255
27 55 255
27 55 255
27 55 255
27 55 255
27 55 255
27 55 255
27 55 255
27 55 255
27 55 255
27 55 255
27 55 255
27 55 255
27 55 255
27 55 255
27 55 255
27 55 255
27 55 255
27 55 255
27 55 255
27 55 255
27 54 255
27 54 255
27 54 255
27 54 255
27 54 255
27 54 255
27 54 255
27 54 255
27 54 255
27 54 255
27 54 255
27 54 255
27 54 255
27 54 255
27 54 255
27 54 255
27 54 255
27 54 255
27 54 255
27 54 255
27 54 255
27 54 255
27 54 255
27 54 255
27 54 255
27 54 255
27 54 255
27 54 255
27 54 255
27 54 255
27 54 255
27 54 255
27 54 255
27 54 255
27 54 255
27 54 255
27 54 255
27 54 255
27 54 255
27 54 255
27 54 255
27 54 255
27 54 255
27 54 255
27 54 255
27 54 255
27 54 255
27 54 255
27 54 255
27 54 255
27 54 255
27 54 255
27 54 255
27 54 255
27 54 255
27 54 255
27 54 255
27 54 255
27 54 255
27 54 255
27 54 255
27 54 255
27 54 255
27 54 255
27 54 255
27 54 255
27 54 255
27 54 255
27 54 255
27 54 255
27 54 255
27 54 255
26 53 255
26 53 255
26 53 255
26 53 255
26 53 255
26 53 255
26 53 255
26 53 255
26 53 255
26 53 255
26 53 255
26 53 255
26 53 255
26 53 255
26 53 255
26 53 255
26 53 255
26 53 255
26 53 255
26 53 255
26 53 255
26 53 255
26 53 255
26 53 255
26 53 255
26 53 255
26 53 255
26 53 255
26 53 255
26 53 255
26 53 255
26 53 255
26 53 255
26 53 255
26 53 255
26 53 255
26 53 255
26 53 255
26 53 255
26 53 255
26 53 255
26 53 255
26 53 255
26 53 255
26 53 255
26 53 255
26 53 255
26 53 255
26 53 255
26 53 255
26 53 255
26 53 255
26 53 255
26 53 255
26 53 255
26 53 255
26 53 255
26 53 255
26 53 255
26 53 255
26 53 255
26 53 255
26 53 255
26 53 255
26 53 255
26 53 255
26 53 255
26 53 255
26 53 255
26 53 255
26 53 255
26 53 255
26 51 255
26 51 255
26 51 255
26 51 255
26 51 255
26 51 255
26 51 255
26 51 255
26 51 255
26 51 255
26 51 255
26 51 255
26 51 255
26 51 255
26 51 255
26 51 255
26 51 255
26 51 255
26 51 255
26 51 255
26 51 255
26 51 255
26 51 255
26 51 255
26 51 255
26 51 255
26 51 255
26 51 255
26 51 255
26 51 255
26 51 255
26 51 255
26 51 255
26 51 255
26 51 255
26 51 255
26 51 255
26 51 255
26 51 255
26 51 255
26 51 255
26 51 255
26 51 255
26 51 255
26 51 255
26 51 255
26 51 255
26 51 255
26 51 255
26 51 255
26 51 255
26 51 255
26 51 255
26 51 255
26 51 255
26 51 255
26 51 255
26 51 255
26 51 255
26 51 255
26 51 255
26 51 255
26 51 255
26 51 255
26 51 255
26 51 255
26 51 255
26 51 255
26 51 255
26 51 255
26 51 255
26 51 255
25 50 255
25 50 255
25 50 255
25 50 255
25 50 255
25 50 255
25 50 255
25 50 255
25 50 255
25 50 255
25 50 255
25 50 255
25 50 255
25 50 255
25 50 255
25 50 255
25 50 255
25 50 255
25 50 255
25 50 255
25 50 255
25 50 255
25 50 255
25 50 255
25 50 255
25 50 255
25 50 255
25 50 255
25 50 255
25 50 255
25 50 255
25 50 255
25 50 255
25 50 255
25 50 255
25 50 255
25 50 255
25 50 255
25 50 255
25 50 255
25 50 255
25 50 255
25 50 255
25 50 255
25 50 255
25 50 255
25 50 255
25 50 255
25 50 255
25 50 255
25 50 255
25 50 255
25 50 255
25 50 255
25 50 255
25 50 255
25 50 255
25 50 255
25 50 255
25 50 255
25 50 255
25 50 255
25 50 255
25 50 255
25 50 255
25 50 255
25 50 255
25 50 255
25 50 255
25 50 255
25 50 255
25 50 255
25 49 255
25 49 255
25 49 255
25 49 255
25 49 255
25 49 255
25 49 255
25 49 255
25 49 255
25 49 255
25 49 255
25 49 255
25 49 255
25 49 255
25 49 255
25 49 255
25 49 255
25 49 255
25 49 255
25 49 255
25 49 255
25 49 255
25 49 255
25 49 255
25 49 255
25 49 255
25 49 255
25 49 255
25 49 255
25 49 255
25 49 255
25 49 255
25 49 255
25 49 255
25 49 255
25 49 255
25 49 255
25 49 255
25 49 255
25 49 255
25 49 255
25 49 255
25 49 255
25 49 255
25 49 255
25 49 255
25 49 255
25 49 255
25 49 255
25 49 255
25 49 255
25 49 255
25 49 255
25 49 255
25 49 255
25 49 255
25 49 255
25 49 255
25 49 255
25 49 255
25 49 255
25 49 255
25 49 255
25 49 255
25 49 255
25 49 255
25 49 255
25 49 255
25 49 255
25 49 255
25 49 255
25 49 255
24 48 255
24 48 255
24 48 255
24 48 255
24 48 255
24 48 255
24 48 255
24 48 255
24 48 255
24 48 255
24 48 255
24 48 255
24 48 255
24 48 255
24 48 255
24 48 255
24 48 255
24 48 255
24 48 255
24 48 255
24 48 255
24 48 255
24 48 255
24 48 255
24 48 255
24 48 255
24 48 255
24 48 255
24 48 255
24 48 255
24 48 255
24 48 255
24 48 255
24 48 255
24 48 255
24 48 255
24 48 255
24 48 255
24 48 255
24 48 255
24 48 255
24 48 255
24 48 255
24 48 255
24 48 255
24 48 255
24 48 255
24 48 255
24 48 255
24 48 255
24 48 255
24 48 255
24 48 255
24 48 255
24 48 255
24 48 255
24 48 255
24 48 255
24 48 255
24 48 255
24 48 255
24 48 255
24 48 255
24 48 255
24 48 255
24 48 255
24 48 255
24 48 255
24 48 255
24 48 255
24 48 255
24 48 255
24 47 255
24 47 255
24 47 255
24 47 255
24 47 255
24 47 255
24 47 255
24 47 255
24 47 255
24 47 255
24 47 255
24 47 255
24 47 255
24 47 255
24 47 255
24 47 255
24 47 255
24 47 255
24 47 255
24 47 255
24 47 255
24 47 255
24 47 255
24 47 255
24 47 255
24 47 255
24 47 255
24 47 255
24 47 255
24 47 255
24 47 255
24 47 255
24 47 255
24 47 255
24 47 255
24 47 255
24 47 255
24 47 255
24 47 255
24 47 255
24 47 255
24 47 255
24 47 255
24 47 255
24 47 255
24 47 255
24 47 255
24 47 255
24 47 255
24 47 255
24 47 255
24 47 255
24 47 255
24 47 255
24 47 255
24 47 255
24 47 255
24 47 255
24 47 255
24 47 255
24 47 255
24 47 255
24 47 255
24 47 255
24 47 255
24 47 255
24 47 255
24 47 255
24 47 255
24 47 255
24 47 255
24 47 255
23 46 255
23 46 255
23 46 255
23 46 255
23 46 255
23 46 255
23 46 255
23 46 255
23 46 255
23 46 255
23 46 255
23 46 255
23 46 255
23 46 255
23 46 255
23 46 255
23 46 255
23 46 255
23 46 255
23 46 255
23 46 255
23 46 255
23 46 255
23 46 255
23 46 255
23 46 255
23 46 255
23 46 255
23 46 255
23 46 255
23 46 255
23 46 255
23 46 255
23 46 255
23 46 255
23 46 255
23 46 255
23 46 255
23 46 255
23 46 255
23 46 255
23 46 255
23 46 255
23 46 255
23 46 255
23 46 255
23 46 255
23 46 255
23 46 255
23 46 255
23 46 255
23 46 255
23 46 255
23 46 255
23 46 255
23 46 255
23 46 255
23 46 255
23 46 255
23 46 255
23 46 255
23 46 255
23 46 255
23 46 255
23 46 255
23 46 255
23 46 255
23 46 255
23 46 255
23 46 255
23 46 255
23 46 255
22 45 255
22 45 255
22 45 255
22 45 255
22 45 255
22 45 255
22 45 255
22 45 255
22 45 255
22 45 255
22 45 255
22 45 255
22 45 255
22 45 255
22 45 255
22 45 255
22 45 255
22 45 255
22 45 255
22 45 255
22 45 255
22 45 255
22 45 255
22 45 255
22 45 255
22 45 255
22 45 255
22 45 255
22 45 255
22 45 255
22 45 255
22 45 255
22 45 255
22 45 255
22 45 255
22 45 255
22 45 255
22 45 255
22 45 255
22 45 255
22 45 255
22 45 255
22 45 255
22 45 255
22 45 255
22 45 255
22 45 255
22 45 255
22 45 255
22 45 255
22 45 255
22 45 255
22 45 255
22 45 255
22 45 255
22 45 255
22 45 255
22 45 255
22 45 255
22 45 255
22 45 255
22 45 255
22 45 255
22 45 255
22 45 255
22 45 255
22 45 255
22 45 255
22 45 255
22 45 255
22 45 255
22 45 255
22 44 255
22 44 255
22 44 255
22 44 255
22 44 255
22 44 255
22 44 255
22 44 255
22 44 255
22 44 255
22 44 255
22 44 255
22 44 255
22 44 255
22 44 255
22 44 255
22 44 255
22 44 255
22 44 255
22 44 255
22 44 255
22 44 255
22 44 255
22 44 255
22 44 255
22 44 255
22 44 255
22 44 255
22 44 255
22 44 255
22 44 255
22 44 255
22 44 255
22 44 255
22 44 255
22 44 255
22 44 255
22 44 255
22 44 255
22 44 255
22 44 255
22 44 255
22 44 255
22 44 255
22 44 255
22 44 255
22 44 255
22 44 255
22 44 255
22 44 255
22 44 255
22 44 255
22 44 255
22 44 255
22 44 255
22 44 255
22 44 255
22 44 255
22 44 255
22 44 255
22 44 255
22 44 255
22 44 255
22 44 255
22 44 255
22 44 255
22 44 255
22 44 255
22 44 255
22 44 255
22 44 255
22 44 255
21 43 255
21 43 255
21 43 255
21 43 255
21 43 255
21 43 255
21 43 255
21 43 255
21 43 255
21 43 255
21 43 255
21 43 255
21 43 255
21 43 255
21 43 255
21 43 255
21 43 255
21 43 255
21 43 255
21 43 255
21 43 255
21 43 255
21 43 255
21 43 255
21 43 255
21 43 255
21 43 255
21 43 255
21 43 255
21 43 255
21 43 255
21 43 255
21 43 255
21 43 255
21 43 255
21 43 255
21 43 255
21 43 255
21 43 255
21 43 255
21 43 255
21 43 255
21 43 255
21 43 255
21 43 255
21 43 255
21 43 255
21 43 255
21 43 255
21 43 255
21 43 255
21 43 255
21 43 255
21 43 255
21 43 255
21 43 255
21 43 255
21 43 255
21 43 255
21 43 255
21 43 255
21 43 255
21 43 255
21 43 255
21 43 255
21 43 255
21 43 255
21 43 255
21 43 255
21 43 255
21 43 255
21 43 255
21 42 255
21 42 255
21 42 255
21 42 255
21 42 255
21 42 255
21 42 255
21 42 255
21 42 255
21 42 255
21 42 255
21 42 255
21 42 255
21 42 255
21 42 255
21 42 255
21 42 255
21 42 255
21 42 255
21 42 255
21 42 255
21 42 255
21 42 255
21 42 255
21 42 255
21 42 255
21 42 255
21 42 255
21 42 255
21 42 255
21 42 255
21 42 255
21 42 255
21 42 255
21 42 255
21 42 255
21 42 255
21 42 255
21 42 255
21 42 255
21 42 255
21 42 255
21 42 255
21 42 255
21 42 255
21 42 255
21 42 255
21 42 255
21 42 255
21 42 255
21 42 255
21 42 255
21 42 255
21 42 255
21 42 255
21 42 255
21 42 255
21 42 255
21 42 255
21 42 255
21 42 255
21 42 255
21 42 255
21 42 255
21 42 255
21 42 255
21 42 255
21 42 255
21 42 255
21 42 255
21 42 255
21 42 255
20 40 255
20 40 255
20 40 255
20 40 255
20 40 255
20 40 255
20 40 255
20 40 255
20 40 255
20 40 255
20 40 255
20 40 255
20 40 255
20 40 255
20 40 255
20 40 255
20 40 255
20 40 255
20 40 255
20 40 255
20 40 255
20 40 255
20 40 255
20 40 255
20 40 255
20 40 255
20 40 255
20 40 255
20 40 255
20 40 255
20 40 255
20 40 255
20 40 255
20 40 255
20 40 255
20 40 255
20 40 255
20 40 255
20 40 255
20 40 255
20 40 255
20 40 255
20 40 255
20 40 255
20 40 255
20 40 255
20 40 255
20 40 255
20 40 255
20 40 255
20 40 255
20 40 255
20 40 255
20 40 255
20 40 255
20 40 255
20 40 255
20 40 255
20 40 255
20 40 255
20 40 255
20 40 255
20 40 255
20 40 255
20 40 255
20 40 255
20 40 255
20 40 255
20 40 255
20 40 255
20 40 255
20 40 255
20 39 255
20 39 255
20 39 255
20 39 255
20 39 255
20 39 255
20 39 255
20 39 255
20 39 255
20 39 255
20 39 255
20 39 255
20 39 255
20 39 255
20 39 255
20 39 255
20 39 255
20 39 255
20 39 255
20 39 255
20 39 255
20 39 255
20 39 255
20 39 255
20 39 255
20 39 255
20 39 255
20 39 255
20 39 255
20 39 255
20 39 255
20 39 255
20 39 255
20 39 255
20 39 255
20 39 255
20 39 255
20 39 255
20 39 255
20 39 255
20 39 255
20 39 255
20 39 255
20 39 255
20 39 255
20 39 255
20 39 255
20 39 255
20 39 255
20 39 255
20 39 255
20 39 255
20 39 255
20 39 255
20 39 255
20 39 255
20 39 255
20 39 255
20 39 255
20 39 255
20 39 255
20 39 255
20 39 255
20 39 255
20 39 255
20 39 255
20 39 255
20 39 255
20 39 255
20 39 255
20 39 255
20 39 255
19 38 255
19 38 255
19 38 255
19 38 255
19 38 255
19 38 255
19 38 255
19 38 255
19 38 255
19 38 255
19 38 255
19 38 255
19 38 255
19 38 255
19 38 255
19 38 255
19 38 255
19 38 255
19 38 255
19 38 255
19 38 255
19 38 255
19 38 255
19 38 255
19 38 255
19 38 255
19 38 255
19 38 255
19 38 255
19 38 255
19 38 255
19 38 255
19 38 255
19 38 255
19 38 255
19 38 255
19 38 255
19 38 255
19 38 255
19 38 255
19 38 255
19 38 255
19 38 255
19 38 255
19 38 255
19 38 255
19 38 255
19 38 255
19 38 255
19 38 255
19 38 255
19 38 255
19 38 255
19 38 255
19 38 255
19 38 255
19 38 255
19 38 255
19 38 255
19 38 255
19 38 255
19 38 255
19 38 255
19 38 255
19 38 255
19 38 255
19 38 255
19 38 255
19 38 255
19 38 255
19 38 255
19 38 255
19 37 255
19 37 255
19 37 255
19 37 255
19 37 255
19 37 255
19 37 255
19 37 255
19 37 255
19 37 255
19 37 255
19 37 255
19 37 255
19 37 255
19 37 255
19 37 255
19 37 255
19 37 255
19 37 255
19 37 255
19 37 255
19 37 255
19 37 255
19 37 255
19 37 255
19 37 255
19 37 255
19 37 255
19 37 255
19 37 255
19 37 255
19 37 255
19 37 255
19 37 255
19 37 255
19 37 255
19 37 255
19 37 255
19 37 255
19 37 255
19 37 255
19 37 255
19 37 255
19 37 255
19 37 255
19 37 255
19 37 255
19 37 255
19 37 255
19 37 255
19 37 255
19 37 255
19 37 255
19 37 255
19 37 255
19 37 255
19 37 255
19 37 255
19 37 255
19 37 255
19 37 255
19 37 255
19 37 255
19 37 255
19 37 255
19 37 255
19 37 255
19 37 255
19 37 255
19 37 255
19 37 255
19 37 255
18 36 255
18 36 255
18 36 255
18 36 255
18 36 255
18 36 255
18 36 255
18 36 255
18 36 255
18 36 255
18 36 255
18 36 255
18 36 255
18 36 255
18 36 255
18 36 255
18 36 255
18 36 255
18 36 255
18 36 255
18 36 255
18 36 255
18 36 255
18 36 255
18 36 255
18 36 255
18 36 255
18 36 255
18 36 255
18 36 255
18 36 255
18 36 255
18 36 255
18 36 255
18 36 255
18 36 255
18 36 255
18 36 255
18 36 255
18 36 255
18 36 255
18 36 255
18 36 255
18 36 255
18 36 255
18 36 255
18 36 255
18 36 255
18 36 255
18 36 255
18 36 255
18 36 255
18 36 255
18 36 255
18 36 255
18 36 255
18 36 255
18 36 255
18 36 255
18 36 255
18 36 255
18 36 255
18 36 255
18 36 255
18 36 255
18 36 255
18 36 255
18 36 255
18 36 255
18 36 255
18 36 255
18 36 255
18 35 255
18 35 255
18 35 255
18 35 255
18 35 255
18 35 255
18 35 255
18 35 255
18 35 255
18 35 255
18 35 255
18 35 255
18 35 255
18 35 255
18 35 255
18 35 255
18 35 255
18 35 255
18 35 255
18 35 255
18 35 255
18 35 255
18 35 255
18 35 255
18 35 255
18 35 255
18 35 255
18 35 255
18 35 255
18 35 255
18 35 255
18 35 255
18 35 255
18 35 255
18 35 255
18 35 255
18 35 255
18 35 255
18 35 255
18 35 255
18 35 255
18 35 255
18 35 255
18 35 255
18 35 255
18 35 255
18 35 255
18 35 255
18 35 255
18 35 255
18 35 255
18 35 255
18 35 255
18 35 255
18 35 255
18 35 255
18 35 255
18 35 255
18 35 255
18 35 255
18 35 255
18 35 255
18 35 255
18 35 255
18 35 255
18 35 255
18 35 255
18 35 255
18 35 255
18 35 255
18 35 255
18 35 255
17 34 255
17 34 255
17 34 255
17 34 255
17 34 255
17 34 255
17 34 255
17 34 255
17 34 255
17 34 255
17 34 255
17 34 255
17 34 255
17 34 255
17 34 255
17 34 255
17 34 255
17 34 255
17 34 255
17 34 255
17 34 255
17 34 255
17 34 255
17 34 255
17 34 255
17 34 255
17 34 255
17 34 255
17 34 255
17 34 255
17 34 255
17 34 255
17 34 255
17 34 255
17 34 255
17 34 255
17 34 255
17 34 255
17 34 255
17 34 255
17 34 255
17 34 255
17 34 255
17 34 255
17 34 255
17 34 255
17 34 255
17 34 255
17 34 255
17 34 255
17 34 255
17 34 255
17 34 255
17 34 255
17 34 255
17 34 255
17 34 255
17 34 255
17 34 255
17 34 255
17 34 255
17 34 255
17 34 255
17 34 255
17 34 255
17 34 255
17 34 255
17 34 255
17 34 255
17 34 255
17 34 255
17 34 255
16 33 255
16 33 255
16 33 255
16 33 255
16 33 255
16 33 255
16 33 255
16 33 255
16 33 255
16 33 255
16 33 255
16 33 255
16 33 255
16 33 255
16 33 255
16 33 255
16 33 255
16 33 255
16 33 255
16 33 255
16 33 255
16 33 255
16 33 255
16 33 255
16 33 255
16 33 255
16 33 255
16 33 255
16 33 255
16 33 255
16 33 255
16 33 255
16 33 255
16 33 255
16 33 255
16 33 255
16 33 255
16 33 255
16 33 255
16 33 255
16 33 255
16 33 255
16 33 255
16 33 255
16 33 255
16 33 255
16 33 255
16 33 255
16 33 255
16 33 255
16 33 255
16 33 255
16 33 255
16 33 255
16 33 255
16 33 255
16 33 255
16 33 255
16 33 255
16 33 255
16 33 255
16 33 255
16 33 255
16 33 255
16 33 255
16 33 255
16 33 255
16 33 255
16 33 255
16 33 255
16 33 255
16 33 255
16 32 255
16 32 255
16 32 255
16 32 255
16 32 255
16 32 255
16 32 255
16 32 255
16 32 255
16 32 255
16 32 255
16 32 255
16 32 255
16 32 255
16 32 255
16 32 255
16 32 255
16 32 255
16 32 255
16 32 255
16 32 255
16 32 255
16 32 255
16 32 255
16 32 255
16 32 255
16 32 255
16 32 255
16 32 255
16 32 255
16 32 255
16 32 255
16 32 255
16 32 255
16 32 255
16 32 255
16 32 255
16 32 255
16 32 255
16 32 255
16 32 255
16 32 255
16 32 255
16 32 255
16 32 255
16 32 255
16 32 255
16 32 255
16 32 255
16 32 255
16 32 255
16 32 255
16 32 255
16 32 255
16 32 255
16 32 255
16 32 255
16 32 255
16 32 255
16 32 255
16 32 255
16 32 255
16 32 255
16 32 255
16 32 255
16 32 255
16 32 255
16 32 255
16 32 255
16 32 255
16 32 255
16 32 255
15 31 255
15 31 255
15 31 255
15 31 255
15 31 255
15 31 255
15 31 255
15 31 255
15 31 255
15 31 255
15 31 255
15 31 255
15 31 255
15 31 255
15 31 255
15 31 255
15 31 255
15 31 255
15 31 255
15 31 255
15 31 255
15 31 255
15 31 255
15 31 255
15 31 255
15 31 255
15 31 255
15 31 255
15 31 255
15 31 255
15 31 255
15 31 255
15 31 255
15 31 255
15 31 255
15 31 255
15 31 255
15 31 255
15 31 255
15 31 255
15 31 255
15 31 255
15 31 255
15 31 255
15 31 255
15 31 255
15 31 255
15 31 255
15 31 255
15 31 255
15 31 255
15 31 255
15 31 255
15 31 255
15 31 255
15 31 255
15 31 255
15 31 255
15 31 255
15 31 255
15 31 255
15 31 255
15 31 255
15 31 255
15 31 255
15 31 255
15 31 255
15 31 255
15 31 255
15 31 255
15 31 255
15 31 255
15 30 255
15 30 255
15 30 255
15 30 255
15 30 255
15 30 255
15 30 255
15 30 255
15 30 255
15 30 255
15 30 255
15 30 255
15 30 255
15 30 255
15 30 255
15 30 255
15 30 255
15 30 255
15 30 255
15 30 255
15 30 255
15 30 255
15 30 255
15 30 255
15 30 255
15 30 255
15 30 255
15 30 255
15 30 255
15 30 255
15 30 255
15 30 255
15 30 255
15 30 255
15 30 255
15 30 255
15 30 255
15 30 255
15 30 255
15 30 255
15 30 255
15 30 255
15 30 255
15 30 255
15 30 255
15 30 255
15 30 255
15 30 255
15 30 255
15 30 255
15 30 255
15 30 255
15 30 255
15 30 255
15 30 255
15 30 255
15 30 255
15 30 255
15 30 255
15 30 255
15 30 255
15 30 255
15 30 255
15 30 255
15 30 255
15 30 255
15 30 255
15 30 255
15 30 255
15 30 255
15 30 255
15 30 255
14 28 255
14 28 255
14 28 255
14 28 255
14 28 255
14 28 255
14 28 255
14 28 255
14 28 255
14 28 255
14 28 255
14 28 255
14 28 255
14 28 255
14 28 255
14 28 255
14 28 255
14 28 255
14 28 255
14 28 255
14 28 255
14 28 255
14 28 255
14 28 255
14 28 255
14 28 255
14 28 255
14 28 255
14 28 255
14 28 255
14 28 255
14 28 255
14 28 255
14 28 255
14 28 255
14 28 255
14 28 255
14 28 255
14 28 255
14 28 255
14 28 255
14 28 255
14 28 255
14 28 255
14 28 255
14 28 255
14 28 255
14 28 255
14 28 255
14 28 255
14 28 255
14 28 255
14 28 255
14 28 255
14 28 255
14 28 255
14 28 255
14 28 255
14 28 255
14 28 255
14 28 255
14 28 255
14 28 255
14 28 255
14 28 255
14 28 255
14 28 255
14 28 255
14 28 255
14 28 255
14 28 255
14 28 255
14 27 255
14 27 255
14 27 255
14 27 255
14 27 255
14 27 255
14 27 255
14 27 255
14 27 255
14 27 255
14 27 255
14 27 255
14 27 255
14 27 255
14 27 255
14 27 255
14 27 255
14 27 255
14 27 255
14 27 255
14 27 255
14 27 255
14 27 255
14 27 255
14 27 255
14 27 255
14 27 255
14 27 255
14 27 255
14 27 255
14 27 255
14 27 255
14 27 255
14 27 255
14 27 255
14 27 255
14 27 255
14 27 255
14 27 255
14 27 255
14 27 255
14 27 255
14 27 255
14 27 255
14 27 255
14 27 255
14 27 255
14 27 255
14 27 255
14 27 255
14 27 255
14 27 255
14 27 255
14 27 255
14 27 255
14 27 255
14 27 255
14 27 255
14 27 255
14 27 255
14 27 255
14 27 255
14 27 255
14 27 255
14 27 255
14 27 255
14 27 255
14 27 255
14 27 255
14 27 255
14 27 255
14 27 255
13 26 255
13 26 255
13 26 255
13 26 255
13 26 255
13 26 255
13 26 255
13 26 255
13 26 255
13 26 255
13 26 255
13 26 255
13 26 255
13 26 255
13 26 255
13 26 255
13 26 255
13 26 255
13 26 255
13 26 255
13 26 255
13 26 255
13 26 255
13 26 255
13 26 255
13 26 255
13 26 255
13 26 255
13 26 255
13 26 255
13 26 255
13 26 255
13 26 255
13 26 255
13 26 255
13 26 255
13 26 255
13 26 255
13 26 255
13 26 255
13 26 255
13 26 255
13 26 255
13 26 255
13 26 255
13 26 255
13 26 255
13 26 255
13 26 255
13 26 255
13 26 255
13 26 255
13 26 255
13 26 255
13 26 255
13 26 255
13 26 255
13 26 255
13 26 255
13 26 255
13 26 255
13 26 255
13 26 255
13 26 255
13 26 255
13 26 255
13 26 255
13 26 255
13 26 255
13 26 255
13 26 255
13 26 255
13 25 255
13 25 255
13 25 255
13 25 255
13 25 255
13 25 255
13 25 255
13 25 255
13 25 255
13 25 255
13 25 255
13 25 255
13 25 255
13 25 255
13 25 255
13 25 255
13 25 255
13 25 255
13 25 255
13 25 255
13 25 255
13 25 255
13 25 255
13 25 255
13 25 255
13 25 255
13 25 255
13 25 255
13 25 255
13 25 255
13 25 255
13 25 255
13 25 255
13 25 255
13 25 255
13 25 255
13 25 255
13 25 255
13 25 255
13 25 255
13 25 255
13 25 255
13 25 255
13 25 255
13 25 255
13 25 255
13 25 255
13 25 255
13 25 255
13 25 255
13 25 255
13 25 255
13 25 255
13 25 255
13 25 255
13 25 255
13 25 255
13 25 255
13 25 255
13 25 255
13 25 255
13 25 255
13 25 255
13 25 255
13 25 255
13 25 255
13 25 255
13 25 255
13 25 255
13 25 255
13 25 255
13 25 255
12 24 255
12 24 255
12 24 255
12 24 255
12 24 255
12 24 255
12 24 255
12 24 255
12 24 255
12 24 255
12 24 255
12 24 255
12 24 255
12 24 255
12 24 255
12 24 255
12 24 255
12 24 255
12 24 255
12 24 255
12 24 255
12 24 255
12 24 255
12 24 255
12 24 255
12 24 255
12 24 255
12 24 255
12 24 255
12 24 255
12 24 255
12 24 255
12 24 255
12 24 255
12 24 255
12 24 255
12 24 255
12 24 255
12 24 255
12 24 255
12 24 255
12 24 255
12 24 255
12 24 255
12 24 255
12 24 255
12 24 255
12 24 255
12 24 255
12 24 255
12 24 255
12 24 255
12 24 255
12 24 255
12 24 255
12 24 255
12 24 255
12 24 255
12 24 255
12 24 255
12 24 255
12 24 255
12 24 255
12 24 255
12 24 255
12 24 255
12 24 255
12 24 255
12 24 255
12 24 255
12 24 255
12 24 255
11 23 255
11 23 255
11 23 255
11 23 255
11 23 255
11 23 255
11 23 255
11 23 255
11 23 255
11 23 255
11 23 255
11 23 255
11 23 255
11 23 255
11 23 255
11 23 255
11 23 255
11 23 255
11 23 255
11 23 255
11 23 255
11 23 255
11 23 255
11 23 255
11 23 255
11 23 255
11 23 255
11 23 255
11 23 255
11 23 255
11 23 255
11 23 255
11 23 255
11 23 255
11 23 255
11 23 255
11 23 255
11 23 255
11 23 255
11 23 255
11 23 255
11 23 255
11 23 255
11 23 255
11 23 255
11 23 255
11 23 255
11 23 255
11 23 255
11 23 255
11 23 255
11 23 255
11 23 255
11 23 255
11 23 255
11 23 255
11 23 255
11 23 255
11 23 255
11 23 255
11 23 255
11 23 255
11 23 255
11 23 255
11 23 255
11 23 255
11 23 255
11 23 255
11 23 255
11 23 255
11 23 255
11 23 255
11 22 255
11 22 255
11 22 255
11 22 255
11 22 255
11 22 255
11 22 255
11 22 255
11 22 255
11 22 255
11 22 255
11 22 255
11 22 255
11 22 255
11 22 255
11 22 255
11 22 255
11 22 255
11 22 255
11 22 255
11 22 255
11 22 255
11 22 255
11 22 255
11 22 255
11 22 255
11 22 255
11 22 255
11 22 255
11 22 255
11 22 255
11 22 255
11 22 255
11 22 255
11 22 255
11 22 255
11 22 255
11 22 255
11 22 255
11 22 255
11 22 255
11 22 255
11 22 255
11 22 255
11 22 255
11 22 255
11 22 255
11 22 255
11 22 255
11 22 255
11 22 255
11 22 255
11 22 255
11 22 255
11 22 255
11 22 255
11 22 255
11 22 255
11 22 255
11 22 255
11 22 255
11 22 255
11 22 255
11 22 255
11 22 255
11 22 255
11 22 255
11 22 255
11 22 255
11 22 255
11 22 255
11 22 255
10 21 255
10 21 255
10 21 255
10 21 255
10 21 255
10 21 255
10 21 255
10 21 255
10 21 255
10 21 255
10 21 255
10 21 255
10 21 255
10 21 255
10 21 255
10 21 255
10 21 255
10 21 255
10 21 255
10 21 255
10 21 255
10 21 255
10 21 255
10 21 255
10 21 255
10 21 255
10 21 255
10 21 255
10 21 255
10 21 255
10 21 255
10 21 255
10 21 255
10 21 255
10 21 255
10 21 255
10 21 255
10 21 255
10 21 255
10 21 255
10 21 255
10 21 255
10 21 255
10 21 255
10 21 255
10 21 255
10 21 255
10 21 255
10 21 255
10 21 255
10 21 255
10 21 255
10 21 255
10 21 255
10 21 255
10 21 255
10 21 255
10 21 255
10 21 255
10 21 255
10 21 255
10 21 255
10 21 255
10 21 255
10 21 255
10 21 255
10 21 255
10 21 255
10 21 255
10 21 255
10 21 255
10 21 255
10 20 255
10 20 255
10 20 255
10 20 255
10 20 255
10 20 255
10 20 255
10 20 255
10 20 255
10 20 255
10 20 255
10 20 255
10 20 255
10 20 255
10 20 255
10 20 255
10 20 255
10 20 255
10 20 255
10 20 255
10 20 255
10 20 255
10 20 255
10 20 255
10 20 255
10 20 255
10 20 255
10 20 255
10 20 255
10 20 255
10 20 255
10 20 255
10 20 255
10 20 255
10 20 255
10 20 255
10 20 255
10 20 255
10 20 255
10 20 255
10 20 255
10 20 255
10 20 255
10 20 255
10 20 255
10 20 255
10 20 255
10 20 255
10 20 255
10 20 255
10 20 255
10 20 255
10 20 255
10 20 255
10 20 255
10 20 255
10 20 255
10 20 255
10 20 255
10 20 255
10 20 255
10 20 255
10 20 255
10 20 255
10 20 255
10 20 255
10 20 255
10 20 255
10 20 255
10 20 255
10 20 255
10 20 255
9 19 255
9 19 255
9 19 255
9 19 255
9 19 255
9 19 255
9 19 255
9 19 255
9 19 255
9 19 255
9 19 255
9 19 255
9 19 255
9 19 255
9 19 255
9 19 255
9 19 255
9 19 255
9 19 255
9 19 255
9 19 255
9 19 255
9 19 255
9 19 255
9 19 255
9 19 255
9 19 255
9 19 255
9 19 255
9 19 255
9 19 255
9 19 255
9 19 255
9 19 255
9 19 255
9 19 255
9 19 255
9 19 255
9 19 255
9 19 255
9 19 255
9 19 255
9 19 255
9 19 255
9 19 255
9 19 255
9 19 255
9 19 255
9 19 255
9 19 255
9 19 255
9 19 255
9 19 255
9 19 255
9 19 255
9 19 255
9 19 255
9 19 255
9 19 255
9 19 255
9 19 255
9 19 255
9 19 255
9 19 255
9 19 255
9 19 255
9 19 255
9 19 255
9 19 255
9 19 255
9 19 255
9 19 255
9 18 255
9 18 255
9 18 255
9 18 255
9 18 255
9 18 255
9 18 255
9 18 255
9 18 255
9 18 255
9 18 255
9 18 255
9 18 255
9 18 255
9 18 255
9 18 255
9 18 255
9 18 255
9 18 255
9 18 255
9 18 255
9 18 255
9 18 255
9 18 255
9 18 255
9 18 255
9 18 255
9 18 255
9 18 255
9 18 255
9 18 255
9 18 255
9 18 255
9 18 255
9 18 255
9 18 255
9 18 255
9 18 255
9 18 255
9 18 255
9 18 255
9 18 255
9 18 255
9 18 255
9 18 255
9 18 255
9 18 255
9 18 255
9 18 255
9 18 255
9 18 255
9 18 255
9 18 255
9 18 255
9 18 255
9 18 255
9 18 255
9 18 255
9 18 255
9 18 255
9 18 255
9 18 255
9 18 255
9 18 255
9 18 255
9 18 255
9 18 255
9 18 255
9 18 255
9 18 255
9 18 255
9 18 255
8 16 255
8 16 255
8 16 255
8 16 255
8 16 255
8 16 255
8 16 255
8 16 255
8 16 255
8 16 255
8 16 255
8 16 255
8 16 255
8 16 255
8 16 255
8 16 255
8 16 255
8 16 255
8 16 255
8 16 255
8 16 255
8 16 255
8 16 255
8 16 255
8 16 255
8 16 255
8 16 255
8 16 255
8 16 255
8 16 255
8 16 255
8 16 255
8 16 255
8 16 255
8 16 255
8 16 255
8 16 255
8 16 255
8 16 255
8 16 255
8 16 255
8 16 255
8 16 255
8 16 255
8 16 255
8 16 255
8 16 255
8 16 255
8 16 255
8 16 255
8 16 255
8 16 255
8 16 255
8 16 255
8 16 255
8 16 255
8 16 255
8 16 255
8 16 255
8 16 255
8 16 255
8 16 255
8 16 255
8 16 255
8 16 255
8 16 255
8 16 255
8 16 255
8 16 255
8 16 255
8 16 255
8 16 255
8 15 255
8 15 255
8 15 255
8 15 255
8 15 255
8 15 255
8 15 255
8 15 255
8 15 255
8 15 255
8 15 255
8 15 255
8 15 255
8 15 255
8 15 255
8 15 255
8 15 255
8 15 255
8 15 255
8 15 255
8 15 255
8 15 255
8 15 255
8 15 255
8 15 255
8 15 255
8 15 255
8 15 255
8 15 255
8 15 255
8 15 255
8 15 255
8 15 255
8 15 255
8 15 255
8 15 255
8 15 255
8 15 255
8 15 255
8 15 255
8 15 255
8 15 255
8 15 255
8 15 255
8 15 255
8 15 255
8 15 255
8 15 255
8 15 255
8 15 255
8 15 255
8 15 255
8 15 255
8 15 255
8 15 255
8 15 255
8 15 255
8 15 255
8 15 255
8 15 255
8 15 255
8 15 255
8 15 255
8 15 255
8 15 255
8 15 255
8 15 255
8 15 255
8 15 255
8 15 255
8 15 255
8 15 255
7 14 255
7 14 255
7 14 255
7 14 255
7 14 255
7 14 255
7 14 255
7 14 255
7 14 255
7 14 255
7 14 255
7 14 255
7 14 255
7 14 255
7 14 255
7 14 255
7 14 255
7 14 255
7 14 255
7 14 255
7 14 255
7 14 255
7 14 255
7 14 255
7 14 255
7 14 255
7 14 255
7 14 255
7 14 255
7 14 255
7 14 255
7 14 255
7 14 255
7 14 255
7 14 255
7 14 255
7 14 255
7 14 255
7 14 255
7 14 255
7 14 255
7 14 255
7 14 255
7 14 255
7 14 255
7 14 255
7 14 255
7 14 255
7 14 255
7 14 255
7 14 255
7 14 255
7 14 255
7 14 255
7 14 255
7 14 255
7 14 255
7 14 255
7 14 255
7 14 255
7 14 255
7 14 255
7 14 255
7 14 255
7 14 255
7 14 255
7 14 255
7 14 255
7 14 255
7 14 255
7 14 255
7 14 255
7 13 255
7 13 255
7 13 255
7 13 255
7 13 255
7 13 255
7 13 255
7 13 255
7 13 255
7 13 255
7 13 255
7 13 255
7 13 255
7 13 255
7 13 255
7 13 255
7 13 255
7 13 255
7 13 255
7 13 255
7 13 255
7 13 255
7 13 255
7 13 255
7 13 255
7 13 255
7 13 255
7 13 255
7 13 255
7 13 255
7 13 255
7 13 255
7 13 255
7 13 255
7 13 255
7 13 255
7 13 255
7 13 255
7 13 255
7 13 255
7 13 255
7 13 255
7 13 255
7 13 255
7 13 255
7 13 255
7 13 255
7 13 255
7 13 255
7 13 255
7 13 255
7 13 255
7 13 255
7 13 255
7 13 255
7 13 255
7 13 255
7 13 255
7 13 255
7 13 255
7 13 255
7 13 255
7 13 255
7 13 255
7 13 255
7 13 255
7 13 255
7 13 255
7 13 255
7 13 255
7 13 255
7 13 255
6 12 255
6 12 255
6 12 255
6 12 255
6 12 255
6 12 255
6 12 255
6 12 255
6 12 255
6 12 255
6 12 255
6 12 255
6 12 255
6 12 255
6 12 255
6 12 255
6 12 255
6 12 255
6 12 255
6 12 255
6 12 255
6 12 255
6 12 255
6 12 255
6 12 255
6 12 255
6 12 255
6 12 255
6 12 255
6 12 255
6 12 255
6 12 255
6 12 255
6 12 255
6 12 255
6 12 255
6 12 255
6 12 255
6 12 255
6 12 255
6 12 255
6 12 255
6 12 255
6 12 255
6 12 255
6 12 255
6 12 255
6 12 255
6 12 255
6 12 255
6 12 255
6 12 255
6 12 255
6 12 255
6 12 255
6 12 255
6 12 255
6 12 255
6 12 255
6 12 255
6 12 255
6 12 255
6 12 255
6 12 255
6 12 255
6 12 255
6 12 255
6 12 255
6 12 255
6 12 255
6 12 255
6 12 255
5 11 255
5 11 255
5 11 255
5 11 255
5 11 255
5 11 255
5 11 255
5 11 255
5 11 255
5 11 255
5 11 255
5 11 255
5 11 255
5 11 255
5 11 255
5 11 255
5 11 255
5 11 255
5 11 255
5 11 255
5 11 255
5 11 255
5 11 255
5 11 255
5 11 255
5 11 255
5 11 255
5 11 255
5 11 255
5 11 255
5 11 255
5 11 255
5 11 255
5 11 255
5 11 255
5 11 255
5 11 255
5 11 255
5 11 255
5 11 255
5 11 255
5 11 255
5 11 255
5 11 255
5 11 255
5 11 255
5 11 255
5 11 255
5 11 255
5 11 255
5 11 255
5 11 255
5 11 255
5 11 255
5 11 255
5 11 255
5 11 255
5 11 255
5 11 255
5 11 255
5 11 255
5 11 255
5 11 255
5 11 255
5 11 255
5 11 255
5 11 255
5 11 255
5 11 255
5 11 255
5 11 255
5 11 255
5 10 255
5 10 255
5 10 255
5 10 255
5 10 255
5 10 255
5 10 255
5 10 255
5 10 255
5 10 255
5 10 255
5 10 255
5 10 255
5 10 255
5 10 255
5 10 255
5 10 255
5 10 255
5 10 255
5 10 255
5 10 255
5 10 255
5 10 255
5 10 255
5 10 255
5 10 255
5 10 255
5 10 255
5 10 255
5 10 255
5 10 255
5 10 255
5 10 255
5 10 255
5 10 255
5 10 255
5 10 255
5 10 255
5 10 255
5 10 255
5 10 255
5 10 255
5 10 255
5 10 255
5 10 255
5 10 255
5 10 255
5 10 255
5 10 255
5 10 255
5 10 255
5 10 255
5 10 255
5 10 255
5 10 255
5 10 255
5 10 255
5 10 255
5 10 255
5 10 255
5 10 255
5 10 255
5 10 255
5 10 255
5 10 255
5 10 255
5 10 255
5 10 255
5 10 255
5 10 255
5 10 255
5 10 255
4 9 255
4 9 255
4 9 255
4 9 255
4 9 255
4 9 255
4 9 255
4 9 255
4 9 255
4 9 255
4 9 255
4 9 255
4 9 255
4 9 255
4 9 255
4 9 255
4 9 255
4 9 255
4 9 255
4 9 255
4 9 255
4 9 255
4 9 255
4 9 255
4 9 255
4 9 255
4 9 255
4 9 255
4 9 255
4 9 255
4 9 255
4 9 255
4 9 255
4 9 255
4 9 255
4 9 255
4 9 255
4 9 255
4 9 255
4 9 255
4 9 255
4 9 255
4 9 255
4 9 255
4 9 255
4 9 255
4 9 255
4 9 255
4 9 255
4 9 255
4 9 255
4 9 255
4 9 255
4 9 255
4 9 255
4 9 255
4 9 255
4 9 255
4 9 255
4 9 255
4 9 255
4 9 255
4 9 255
4 9 255
4 9 255
4 9 255
4 9 255
4 9 255
4 9 255
4 9 255
4 9 255
4 9 255
4 8 255
4 8 255
4 8 255
4 8 255
4 8 255
4 8 255
4 8 255
4 8 255
4 8 255
4 8 255
4 8 255
4 8 255
4 8 255
4 8 255
4 8 255
4 8 255
4 8 255
4 8 255
4 8 255
4 8 255
4 8 255
4 8 255
4 8 255
4 8 255
4 8 255
4 8 255
4 8 255
4 8 255
4 8 255
4 8 255
4 8 255
4 8 255
4 8 255
4 8 255
4 8 255
4 8 255
4 8 255
4 8 255
4 8 255
4 8 255
4 8 255
4 8 255
4 8 255
4 8 255
4 8 255
4 8 255
4 8 255
4 8 255
4 8 255
4 8 255
4 8 255
4 8 255
4 8 255
4 8 255
4 8 255
4 8 255
4 8 255
4 8 255
4 8 255
4 8 255
4 8 255
4 8 255
4 8 255
4 8 255
4 8 255
4 8 255
4 8 255
4 8 255
4 8 255
4 8 255
4 8 255
4 8 255
3 7 255
3 7 255
3 7 255
3 7 255
3 7 255
3 7 255
3 7 255
3 7 255
3 7 255
3 7 255
3 7 255
3 7 255
3 7 255
3 7 255
3 7 255
3 7 255
3 7 255
3 7 255
3 7 255
3 7 255
3 7 255
3 7 255
3 7 255
3 7 255
3 7 255
3 7 255
3 7 255
3 7 255
3 7 255
3 7 255
3 7 255
3 7 255
3 7 255
3 7 255
3 7 255
3 7 255
3 7 255
3 7 255
3 7 255
3 7 255
3 7 255
3 7 255
3 7 255
3 7 255
3 7 255
3 7 255
3 7 255
3 7 255
3 7 255
3 7 255
3 7 255
3 7 255
3 7 255
3 7 255
3 7 255
3 7 255
3 7 255
3 7 255
3 7 255
3 7 255
3 7 255
3 7 255
3 7 255
3 7 255
3 7 255
3 7 255
3 7 255
3 7 255
3 7 255
3 7 255
3 7 255
3 7 255
3 5 255
3 5 255
3 5 255
3 5 255
3 5 255
3 5 255
3 5 255
3 5 255
3 5 255
3 5 255
3 5 255
3 5 255
3 5 255
3 5 255
3 5 255
3 5 255
3 5 255
3 5 255
3 5 255
3 5 255
3 5 255
3 5 255
3 5 255
3 5 255
3 5 255
3 5 255
3 5 255
3 5 255
3 5 255
3 5 255
3 5 255
3 5 255
3 5 255
3 5 255
3 5 255
3 5 255
3 5 255
3 5 255
3 5 255
3 5 255
3 5 255
3 5 255
3 5 255
3 5 255
3 5 255
3 5 255
3 5 255
3 5 255
3 5 255
3 5 255
3 5 255
3 5 255
3 5 255
3 5 255
3 5 255
3 5 255
3 5 255
3 5 255
3 5 255
3 5 255
3 5 255
3 5 255
3 5 255
3 5 255
3 5 255
3 5 255
3 5 255
3 5 255
3 5 255
3 5 255
3 5 255
3 5 255
2 4 255
2 4 255
2 4 255
2 4 255
2 4 255
2 4 255
2 4 255
2 4 255
2 4 255
2 4 255
2 4 255
2 4 255
2 4 255
2 4 255
2 4 255
2 4 255
2 4 255
2 4 255
2 4 255
2 4 255
2 4 255
2 4 255
2 4 255
2 4 255
2 4 255
2 4 255
2 4 255
2 4 255
2 4 255
2 4 255
2 4 255
2 4 255
2 4 255
2 4 255
2 4 255
2 4 255
2 4 255
2 4 255
2 4 255
2 4 255
2 4 255
2 4 255
2 4 255
2 4 255
2 4 255
2 4 255
2 4 255
2 4 255
2 4 255
2 4 255
2 4 255
2 4 255
2 4 255
2 4 255
2 4 255
2 4 255
2 4 255
2 4 255
2 4 255
2 4 255
2 4 255
2 4 255
2 4 255
2 4 255
2 4 255
2 4 255
2 4 255
2 4 255
2 4 255
2 4 255
2 4 255
2 4 255
2 3 255
2 3 255
2 3 255
2 3 255
2 3 255
2 3 255
2 3 255
2 3 255
2 3 255
2 3 255
2 3 255
2 3 255
2 3 255
2 3 255
2 3 255
2 3 255
2 3 255
2 3 255
2 3 255
2 3 255
2 3 255
2 3 255
2 3 255
2 3 255
2 3 255
2 3 255
2 3 255
2 3 255
2 3 255
2 3 255
2 3 255
2 3 255
2 3 255
2 3 255
2 3 255
2 3 255
2 3 255
2 3 255
2 3 255
2 3 255
2 3 255
2 3 255
2 3 255
2 3 255
2 3 255
2 3 255
2 3 255
2 3 255
2 3 255
2 3 255
2 3 255
2 3 255
2 3 255
2 3 255
2 3 255
2 3 255
2 3 255
2 3 255
2 3 255
2 3 255
2 3 255
2 3 255
2 3 255
2 3 255
2 3 255
2 3 255
2 3 255
2 3 255
2 3 255
2 3 255
2 3 255
2 3 255
1 2 255
1 2 255
1 2 255
1 2 255
1 2 255
1 2 255
1 2 255
1 2 255
1 2 255
1 2 255
1 2 255
1 2 255
1 2 255
1 2 255
1 2 255
1 2 255
1 2 255
1 2 255
1 2 255
1 2 255
1 2 255
1 2 255
1 2 255
1 2 255
1 2 255
1 2 255
1 2 255
1 2 255
1 2 255
1 2 255
1 2 255
1 2 255
1 2 255
1 2 255
1 2 255
1 2 255
1 2 255
1 2 255
1 2 255
1 2 255
1 2 255
1 2 255
1 2 255
1 2 255
1 2 255
1 2 255
1 2 255
1 2 255
1 2 255
1 2 255
1 2 255
1 2 255
1 2 255
1 2 255
1 2 255
1 2 255
1 2 255
1 2 255
1 2 255
1 2 255
1 2 255
1 2 255
1 2 255
1 2 255
1 2 255
1 2 255
1 2 255
1 2 255
1 2 255
1 2 255
1 2 255
1 2 255
0 0 0
0 0 0
0 0 0
0 0 0
0 0 0
0 0 0
0 0 0
0 0 0
0 0 0
0 0 0
0 0 0
0 0 0
0 0 0
0 0 0
1 1 255
1 1 255
1 1 255
1 1 255
1 1 255
1 1 255
1 1 255
1 1 255
1 1 255
1 1 255
1 1 255
1 1 255
1 1 255
1 1 255
1 1 255
1 1 255
1 1 255
1 1 255
1 1 255
1 1 255
1 1 255
1 1 255
1 1 255
1 1 255
1 1 255
1 1 255
1 1 255
1 1 255
1 1 255
1 1 255
1 1 255
1 1 255
1 1 255
1 1 255
1 1 255
1 1 255
1 1 255
1 1 255
1 1 255
1 1 255
1 1 255
1 1 255
1 1 255
1 1 255
1 1 255
1 1 255
1 1 255
1 1 255
1 1 255
1 1 255
1 1 255
1 1 255
1 1 255
1 1 255
1 1 255
1 1 255
1 1 255
1 1 255
0 0 0
0 0 0
0 0 0
0 0 0
0 0 0
0 0 0
0 0 0
0 0 0
0 0 0
0 0 0
0 0 0
0 0 0
0 0 0
0 0 0
0 0 255
0 0 255
0 0 255
0 0 255
0 0 255
0 0 255
0 0 255
0 0 255
0 0 255
0 0 255
0 0 255
0 0 255
0 0 255
0 0 255
0 0 255
0 0 255
0 0 255
0 0 255
0 0 255
0 0 255
0 0 255
0 0 255
0 0 255
0 0 255
0 0 255
0 0 255
0 0 255
0 0 255
0 0 255
0 0 255
0 0 255
0 0 255
0 0 255
0 0 255
0 0 255
0 0 255
0 0 255
0 0 255
0 0 255
0 0 255
0 0 255
0 0 255
0 0 255
0 0 255
0 0 255
0 0 255
0 0 255
0 0 255
0 0 255
0 0 255
0 0 255
0 0 255
0 0 255
0 0 255
0 0 255
0 0 255
0 0 255
0 0 255
